igor-lirussi/CNMP-Robotic-Skill-Synthesis/long_data_record_jump.csv
Time,ROS secs,ROS nsecs,________p_x________,________p_y________,________p_z________,________q_x________,________q_y________,________q_z________,________q_w________,gripper_position,gripper_force,shoulder_pan_joint,shoulder_lift_joint,elbow_joint,wrist_1_joint,wrist_2_joint,wrist_3_joint
0,1701120667,748646259,-0.9288034159013631,0.7282007327847652,0.21755144689841419,-0.3802108645309958,0.9248518072779345,-0.006282749897491179,0.007025675843416475,255,-1,-0.5252302328692835,-2.542549435292379,-0.8832791487323206,-1.3051345984088343,1.5672801733016968,-2.876115385686056
100,1701120667,852164745,-0.9288334025499814,0.7281729815621272,0.21756727302142845,-0.38023329946092077,0.9248426692472824,-0.006262278810032132,0.007032708207293613,255,-1,-0.5252540747271937,-2.542537514363424,-0.8832553068744105,-1.3050749937640589,1.5673041343688965,-2.8761633078204554
200,1701120667,948092460,-0.9288232823457259,0.7281806662654061,0.2175747036046632,-0.3802221917080616,0.9248473206086224,-0.006264667367227284,0.007019432922109539,255,-1,-0.5252779165851038,-2.542513672505514,-0.8832910696612757,-1.305086914693014,1.5673041343688965,-2.8761513868915003
300,1701120668,52252769,-0.928868205721955,0.7281609446161021,0.2177177213266644,-0.38025001645089096,0.9248367498901304,-0.006186259251424628,0.0069743270809203735,255,-1,-0.5252302328692835,-2.542501751576559,-0.8831594626056116,-1.3050511519061487,1.5673160552978516,-2.8761633078204554
400,1701120668,148141860,-0.929100271469855,0.7283437557628023,0.21865093986344797,-0.38022358322289956,0.9248538446889988,-0.005669195426210764,0.006576697372953202,255,-1,-0.5252779165851038,-2.542298142110006,-0.8817351500140589,-1.3050749937640589,1.5672920942306519,-2.8761633078204554
500,1701120668,252280950,-0.9296992383503362,0.7286747848815915,0.22159395545753274,-0.3802314766631807,0.9248662260493625,-0.004150719966621148,0.00540921357547485,255,-1,-0.5252421537982386,-2.541506592427389,-0.8785632292376917,-1.3050625959979456,1.5672441720962524,-2.8761633078204554
600,1701120668,348284721,-0.930326125792546,0.7290071325712866,0.22561373991840455,-0.38024353344466044,0.9248754312545363,-0.0022104751851481697,0.003925013975853009,255,-1,-0.5252659956561487,-2.539828602467672,-0.8753917852984827,-1.3050511519061487,1.5672441720962524,-2.8761513868915003
700,1701120668,451866626,-0.9300086826791714,0.7288193291220137,0.2310380383769286,-0.3802533334366222,0.9248790380420034,-0.0003356059835862078,0.002460644114667871,255,-1,-0.5252659956561487,-2.535166088734762,-0.8751643339740198,-1.305086914693014,1.5672801733016968,-2.876127306615011
800,1701120668,547817230,-0.9297440851651707,0.7287156239707541,0.23768576193690344,-0.3802320631105375,0.9248885162012423,0.002113963429031982,0.000584756692340953,255,-1,-0.5252302328692835,-2.5302284399615687,-0.8738358656512659,-1.305098835621969,1.5672801733016968,-2.876127306615011
900,1701120668,651880979,-0.9310769473012274,0.7294248328002687,0.2463678903297603,0.3802205465511995,-0.9248699903158487,-0.00637443466620798,0.0026839478674593417,255,-1,-0.5252063910113733,-2.5273998419391077,-0.8655055204974573,-1.305098835621969,1.5672681331634521,-2.876139465962545
1000,1701120668,747779846,-0.9325310455818597,0.7302674997312391,0.2564606046863569,0.3801927997160059,-0.9248153259233705,-0.011314656448023331,0.006482787272341399,255,-1,-0.525182072316305,-2.523924175892965,-0.8563497702227991,-1.3051345984088343,1.5673041343688965,-2.876115385686056
1100,1701120668,852018356,-0.9341362310388913,0.7311990064725915,0.2688527764091643,0.380120784945262,-0.9247073203242505,-0.01734920054210059,0.011116016907675748,255,-1,-0.5252302328692835,-2.5198004881488245,-0.8453028837787073,-1.3051465193377894,1.5672441720962524,-2.876127306615011
1200,1701120668,947871685,-0.9356734418833524,0.7320658777000668,0.2789674125659676,0.3800583468657441,-0.9245671512623869,-0.022445358561903727,0.015081169160907694,255,-1,-0.5252063910113733,-2.5171521345721644,-0.8351653257953089,-1.3051946798907679,1.5672801733016968,-2.876139465962545
1300,1701120669,52082777,-0.9367308052710311,0.7326156978431023,0.28887040708207956,0.38000784183228753,-0.9243936348975142,-0.027200743981889514,0.018723446097339183,255,-1,-0.5251582304583948,-2.5134361425982874,-0.8268230597125452,-1.305230442677633,1.5673160552978516,-2.876103464757101
1400,1701120669,147995710,-0.9361619168662466,0.7318475939233252,0.298554001847278,0.38008685399874215,-0.9241970183432128,-0.030623141612057116,0.021355980442533878,255,-1,-0.5247390905963343,-2.505885426198141,-0.8256743589984339,-1.3056862990008753,1.5673160552978516,-2.876139465962545
1500,1701120669,252095222,-0.9352546361289549,0.7303107618137644,0.30939660526447804,0.3803669637897289,-0.9239050172879205,-0.03389183923440752,0.02391307426700821,255,-1,-0.5240333716021937,-2.496620003377096,-0.8254349867450159,-1.3066924254046839,1.5673408508300781,-2.876103464757101
1600,1701120669,347995758,-0.9346534722285598,0.7292228778133392,0.31991616615441465,0.38051791233844795,-0.9236212562832659,-0.037606248807184765,0.026751885577714782,255,-1,-0.5235303084002894,-2.488900963460104,-0.823256794606344,-1.3071005980121058,1.5673160552978516,-2.8760913054095667
1700,1701120669,452119112,-0.9343028149640888,0.7281084916530959,0.3320685469648902,0.3807246496580455,-0.9232363877345692,-0.0420645611080821,0.030230550844587253,255,-1,-0.5227878729449671,-2.4808347860919397,-0.8190673033343714,-1.3079269568072718,1.5673408508300781,-2.876103464757101
1800,1701120669,547910928,-0.9343594146516582,0.7265611108607792,0.3434438572507893,0.3811232185431294,-0.922748448186741,-0.04635702393305023,0.03363658704978897,255,-1,-0.521590534840719,-2.4732592741595667,-0.8155015150653284,-1.3083108107196253,1.5673648118972778,-2.876103464757101
1900,1701120669,652122735,-0.93469577982416,0.7224411814118918,0.3548834797872354,0.3825060686679024,-0.9219057244047518,-0.04962778217942168,0.03627707234504513,255,-1,-0.5180953184710901,-2.463430706654684,-0.815345589314596,-1.310216252003805,1.5673648118972778,-2.8760793844806116
2000,1701120669,747956275,-0.9372296970015012,0.7151468348444611,0.36503871153278955,0.38542232414159233,-0.9205287319460068,-0.051385561725215,0.03789471943891663,255,-1,-0.5113790670977991,-2.454296414052145,-0.8153093496905726,-1.3146632353412073,1.567376732826233,-2.8760674635516565
2100,1701120669,852116823,-0.9405960511030287,0.705775993082997,0.37656878032873176,0.38924584399599427,-0.9187539231463631,-0.053058248117466573,0.03954394949569791,255,-1,-0.5028908888446253,-2.4437244574176233,-0.8152497450457972,-1.3206918875323694,1.5673648118972778,-2.8760913054095667
2200,1701120669,948024749,-0.9432494615717855,0.6968368945162506,0.3885266114970733,0.3927902392728737,-0.917058692120533,-0.05488119248831819,0.041318734845058665,255,-1,-0.4951694647418421,-2.4326255957232874,-0.8152735869037073,-1.3265884558307093,1.5673280954360962,-2.876103464757101
2300,1701120670,52175760,-0.9444679536965209,0.6881567577256308,0.4022812731813048,0.3959831294235069,-0.9155601479702752,-0.056025369984842914,0.042522165733596407,255,-1,-0.4881060759173792,-2.419607941304342,-0.8152616659747522,-1.3366683165179651,1.5673280954360962,-2.876103464757101
2400,1701120670,148007869,-0.9442047412918836,0.6811510218850688,0.4146688868410575,0.398387909946148,-0.9145433657137256,-0.055626840212306544,0.0424636325076536,255,-1,-0.4830539862262171,-2.4075849691974085,-0.8152735869037073,-1.3497808615313929,1.5673160552978516,-2.8760913054095667
2500,1701120670,252191781,-0.9435984121657964,0.6738976105844984,0.42641327512395066,0.40090650417664664,-0.91360519871304,-0.05384531101754563,0.04123346062108649,255,-1,-0.47757178941835576,-2.395682160054342,-0.8152373472796839,-1.3663337866412562,1.5673160552978516,-2.8760793844806116
2600,1701120670,348108530,-0.9445813308758132,0.666133464070318,0.4345328264890224,0.4039170444661218,-0.9124848861590911,-0.051504318013737074,0.03961892157698617,255,-1,-0.4711187521563929,-2.387207333241598,-0.8152616659747522,-1.3803818861590784,1.5673160552978516,-2.876103464757101
2700,1701120670,452211618,-0.9468248643555772,0.6577831515832919,0.441806164087282,0.4073256764285127,-0.9110339729791391,-0.050648182075659125,0.039212944958655405,255,-1,-0.4635527769671839,-2.3800275961505335,-0.8151896635638636,-1.3887360731707972,1.5672920942306519,-2.8760913054095667
2800,1701120670,548137664,-0.9497131186575443,0.6501533161325532,0.4486004338132581,0.4104786337258878,-0.909423365503541,-0.05260077435271356,0.04110464776927593,255,-1,-0.4564903418170374,-2.3739379088031214,-0.8152015844928187,-1.3890841642962855,1.5673527717590332,-2.876127306615011
2900,1701120670,651756286,-0.9523210928919468,0.6422969384049521,0.45706020478083254,0.41363382306129826,-0.9077042644082806,-0.05537443252686144,0.04374586857115882,255,-1,-0.4493191877948206,-2.3667452971087855,-0.8148067633258265,-1.3890956083880823,1.5673527717590332,-2.876103464757101
3000,1701120670,748150825,-0.9543482591833304,0.6354119803077213,0.4644357546745369,0.4163796781858469,-0.9061987423215361,-0.05763772204455736,0.045931427217441596,255,-1,-0.4431059996234339,-2.3602126280414026,-0.8147109190570276,-1.3894198576556605,1.5673041343688965,-2.8760913054095667
3100,1701120670,852314949,-0.9570907302262671,0.6272130946798358,0.4717835036759688,0.4197035992907603,-0.9044152128321301,-0.05976397562208587,0.04806535923132702,255,-1,-0.4354446570025843,-2.353834931050436,-0.8147347609149378,-1.3899348417865198,1.5673280954360962,-2.8760674635516565
3200,1701120670,948207378,-0.9593711078665488,0.6198918765126958,0.47790410015879486,0.42267559925351794,-0.9028703934033369,-0.061003711804303765,0.04948674223952148,255,-1,-0.4287651220904749,-2.3481290976153772,-0.8147109190570276,-1.3920090834247034,1.5673408508300781,-2.876103464757101
3300,1701120671,51785945,-0.9620636765538968,0.6119539622235685,0.48403028520065455,0.4259173128374505,-0.9011503621753147,-0.06250015462925228,0.051148783445396494,255,-1,-0.4214866797076624,-2.3427346388446253,-0.8146870771991175,-1.3930276075946253,1.5672920942306519,-2.8760913054095667
3400,1701120671,148257970,-0.9641740420905589,0.605583197789493,0.488691653395002,0.428539544083096,-0.8997693562525116,-0.06350340883056761,0.05230948071708314,255,-1,-0.4154771010028284,-2.3383472601519983,-0.8147228399859827,-1.3942864576922815,1.5672920942306519,-2.876103464757101
3500,1701120671,251901626,-0.9666590737312889,0.5973462378060923,0.4953622453880696,0.43184649809573017,-0.8979570163725417,-0.06517213735812966,0.054170022539691595,255,-1,-0.40789968172182256,-2.3323658148394983,-0.8146632353412073,-1.3953049818622034,1.5673527717590332,-2.8760913054095667
3600,1701120671,347804307,-0.9696241072696401,0.5887841187376063,0.5011880348507212,0.4353585050932259,-0.8960235335400879,-0.06680278189425667,0.05605522024321159,255,-1,-0.3996160666095179,-2.327043358479635,-0.8147109190570276,-1.395581070576803,1.5673408508300781,-2.876127306615011
3700,1701120671,451724529,-0.9730141316129755,0.5778654830436679,0.509049101802904,0.43977895642338893,-0.8935516043713413,-0.0688547484981709,0.05847241590536983,255,-1,-0.38940507570375615,-2.319850269948141,-0.8146632353412073,-1.3963120619403284,1.5673280954360962,-2.876115385686056
3800,1701120671,548312425,-0.9770327785218127,0.5661505715238978,0.5160588284655221,0.4445986162671703,-0.8908638854997544,-0.07071578476168834,0.0607691180710775,255,-1,-0.3781526724444788,-2.313545052205221,-0.8146989981280726,-1.396923844014303,1.5672801733016968,-2.876115385686056
3900,1701120671,651910543,-0.9829483843355752,0.5505456869742242,0.5231473475195939,0.45111657386245907,-0.8873060022113024,-0.07215667820515159,0.06305005167952579,255,-1,-0.3630583922015589,-2.3072636763202112,-0.8146513144122522,-1.3982422987567347,1.5672920942306519,-2.8760913054095667
4000,1701120671,747786521,-0.9894089070526543,0.535341175189489,0.5277202949854635,0.45760857322195564,-0.8837729718273136,-0.0730540082427749,0.06482931328457056,255,-1,-0.34820348421205694,-2.303175751362936,-0.8147347609149378,-1.398613754902975,1.5673527717590332,-2.8760913054095667
4100,1701120671,851899385,-0.9965649975661354,0.5179065029664339,0.5323251183243448,0.4650025543348164,-0.8797524408741253,-0.07348750416611355,0.06639167093506626,255,-1,-0.33118182817568,-2.298788372670309,-0.8147471586810511,-1.4003756682025355,1.5673408508300781,-2.8760793844806116
4200,1701120671,947854042,-1.0036772797506655,0.5007842270838362,0.5354007556022514,0.47231768741131075,-0.8758319238863831,-0.07304470690876701,0.0670739446619958,255,-1,-0.3143518606769007,-2.2958629767047327,-0.8147471586810511,-1.4032285849200647,1.5672801733016968,-2.876115385686056
4300,1701120672,51884174,-1.0119498142673022,0.4823605949818624,0.5359219163354616,0.48026745732642356,-0.8716583121598194,-0.07141392173121493,0.0667458467537469,255,-1,-0.29643279710878545,-2.2950242201434534,-0.8147710005389612,-1.4070170561419886,1.5673280954360962,-2.876103464757101
4400,1701120672,147864580,-1.019143359562836,0.4661819695342337,0.5355318109640551,0.48726507350841725,-0.8679926754850339,-0.06942966931634069,0.06588614772312106,255,-1,-0.28060847917665654,-2.2949283758746546,-0.8147590796100062,-1.4114401976214808,1.5673527717590332,-2.876127306615011
4500,1701120672,251934289,-1.0265441379672238,0.44869028449568193,0.5350549522579655,0.4947477905796978,-0.8640034959453844,-0.06722332604331749,0.06483523074945846,255,-1,-0.26361209550966436,-2.2947004477130335,-0.8147109190570276,-1.4161508719073694,1.5673280954360962,-2.8760793844806116
4600,1701120672,347786188,-1.0325380738144505,0.43379926143235537,0.5349149607886027,0.5010014791129169,-0.8605650077718618,-0.06563186744515913,0.0641704238800554,255,-1,-0.2494280974017542,-2.2944605986224573,-0.8147471586810511,-1.4195554892169397,1.5673280954360962,-2.876103464757101
4700,1701120672,451931715,-1.038088060340495,0.4194395931914717,0.5349523391040396,0.5069922135394437,-0.8571794664258292,-0.0643317993947047,0.06374697902603106,255,-1,-0.2357710043536585,-2.2941249052630823,-0.8147471586810511,-1.4225886503802698,1.5673887729644775,-2.876103464757101
4800,1701120672,547903537,-1.0422910374040621,0.40745171310349326,0.5345090604997862,0.5120033992299521,-0.8544811359361896,-0.062068794005824046,0.062144769022307825,255,-1,-0.22448379198183233,-2.2938249746905726,-0.8147347609149378,-1.4284499327289026,1.5673648118972778,-2.8760793844806116
4900,1701120672,652021646,-1.0465738294473976,0.39514881326361373,0.5339114292386494,0.5171069648088507,-0.8516691632894832,-0.05990396411389378,0.06059322017693999,255,-1,-0.21268254915346319,-2.293788735066549,-0.8147590796100062,-1.4336045424090784,1.5673527717590332,-2.876127306615011
5000,1701120672,747928142,-1.050625629635633,0.38359198072872347,0.5335657806953572,0.5218608412279663,-0.8489101530568917,-0.058566040235259735,0.05985677372633821,255,-1,-0.20171815553774053,-2.2937291304217737,-0.8147829214679163,-1.436362091694967,1.5673408508300781,-2.876103464757101
5100,1701120672,852019786,-1.0555093375582763,0.36972792323024595,0.5333995373810473,0.5274450033139811,-0.845502023613276,-0.05783431924451877,0.05986057185236957,255,-1,-0.18845683733095342,-2.2937172094928187,-0.8147829214679163,-1.4372847715960901,1.5673160552978516,-2.876103464757101
5200,1701120672,947935819,-1.0604176491640087,0.35496084816476314,0.5332241264599092,0.533357221825893,-0.8418701505447905,-0.05682687099997833,0.05962742892502429,255,-1,-0.17438108125795537,-2.2936928907977503,-0.8148310820208948,-1.4392989317523401,1.5673527717590332,-2.8760913054095667
5300,1701120673,52130460,-1.06560618194305,0.3378442548669669,0.532557356978347,0.540213611733523,-0.8377328821089072,-0.05462748894274707,0.05821262219773522,255,-1,-0.15818721452821904,-2.2937172094928187,-0.8148310820208948,-1.4446452299701136,1.5673648118972778,-2.876103464757101
5400,1701120673,148000478,-1.0706714403041298,0.3195588496596363,0.5315803788314601,0.5474948260557706,-0.833345700908769,-0.05163717576914675,0.05583869892485188,255,-1,-0.14090425172914678,-2.293680969868795,-0.8147948423968714,-1.4524019400226038,1.5673408508300781,-2.876115385686056
5500,1701120673,251627206,-1.0763293542460686,0.29727292833242314,0.5303606908965104,0.5562871637024152,-0.8279284461510076,-0.0479193468553666,0.05275240042742682,255,-1,-0.12022239366640264,-2.2936928907977503,-0.8148186842547815,-1.4618962446795862,1.5674006938934326,-2.876115385686056
5600,1701120673,348013639,-1.0816079393261102,0.2755805282598911,0.5296012093374151,0.5646875321085538,-0.8224824322498479,-0.045417969760158536,0.05087089289948313,255,-1,-0.10011512437929326,-2.293680969868795,-0.8148430029498499,-1.467926327382223,1.5674127340316772,-2.8760913054095667
5700,1701120673,451673507,-1.0866242842898495,0.2528451615350991,0.5285934771426726,0.5733938218687104,-0.816727040497514,-0.04257438338149831,0.04861983384022383,255,-1,-0.0793378988849085,-2.293680969868795,-0.8148430029498499,-1.4752276579486292,1.5674246549606323,-2.876103464757101
5800,1701120673,547542572,-1.0899970255227025,0.23371502015227344,0.5271924870757282,0.5807373244424333,-0.8119520740688526,-0.03858721406475713,0.0445983892697136,255,-1,-0.062019173298971,-2.293645683919088,-0.8148782888995569,-1.4874079863177698,1.5674246549606323,-2.876103464757101
5900,1701120673,651716709,-1.0915287077602687,0.21620619037348454,0.5238334096686909,0.5876233809994652,-0.8078309270217078,-0.030028618979638835,0.034730929906657014,255,-1,-0.04630500475038701,-2.2937291304217737,-0.8149026075946253,-1.5145633856402796,1.5674127340316772,-2.876127306615011
6000,1701120673,747527599,-1.0911273212085242,0.20187951982765684,0.5192615868907879,0.5932977537835372,-0.8045240248790922,-0.01815624026259788,0.020229179105487893,255,-1,-0.03331929842104131,-2.2936928907977503,-0.8149502913104456,-1.552882496510641,1.5674246549606323,-2.876103464757101
6100,1701120673,851731061,-1.0901384707669826,0.1870646461487972,0.5144418441602119,0.5989312086770247,-0.8007704814884264,-0.005308489259577815,0.004456814024947936,255,-1,-0.01992684999574834,-2.2937291304217737,-0.8149264494525355,-1.5926550070392054,1.5678924322128296,-2.8760913054095667
6200,1701120673,947616338,-1.0903581644214675,0.17389338989565603,0.5119098031166456,-0.6037719704901717,0.7971459747256948,-0.0012868642531740106,0.004005821942004983,255,-1,-0.0078509489642542,-2.293741051350729,-0.8149383703814905,-1.6126921812640589,1.5679882764816284,-2.876127306615011
6300,1701120674,51812887,-1.0920841448806922,0.15929572981616352,0.5110989289204305,-0.6090851571466606,0.793074635887821,-0.003008116585327608,0.006232534768211915,255,-1,0.005565174389630556,-2.2938249746905726,-0.8152015844928187,-1.6169856230365198,1.5680122375488281,-2.876115385686056
6400,1701120674,147673606,-1.0937956709766827,0.1468967958030563,0.5107266736989786,-0.6135686811752848,0.7896086075534597,-0.0031334070999143354,0.006473184552778493,255,-1,0.016695523634552956,-2.293861214314596,-0.8157404104815882,-1.6170333067523401,1.5680721998214722,-2.876139465962545
6500,1701120674,251803636,-1.0950691425841612,0.13739405881144567,0.5090641289400436,-0.6169892420205512,0.7869281252245931,-0.0037876798567085712,0.0073521726527590306,255,-1,0.024917826056480408,-2.2943642775165003,-0.8174994627581995,-1.6170814673053187,1.5681082010269165,-2.876115385686056
6600,1701120674,347649812,-1.0953011387448714,0.13558290060025985,0.5057590550151212,-0.6176285608934016,0.7864006091708912,-0.005102516480083948,0.009110817195373112,255,-1,0.026138344779610634,-2.2951200644122522,-0.8213895002948206,-1.6170690695392054,1.5681082010269165,-2.876127306615011
6700,1701120674,451854944,-1.0949407644647007,0.1360040360251991,0.4992357933248497,-0.6174434109874282,0.786474140988424,-0.0077511469476375695,0.01272711694478748,255,-1,0.025731254369020462,-2.2961390654193323,-0.8297198454486292,-1.6171405951129358,1.5681082010269165,-2.8761513868915003
6800,1701120674,547819375,-1.0949941122812399,0.13610287462803705,0.49009607221461865,-0.6173506127529811,0.7864113301499118,-0.01134484698481696,0.017513857149593002,255,-1,0.025731254369020462,-2.2987402121173304,-0.8393185774432581,-1.6172245184527796,1.5680961608886719,-2.876115385686056
6900,1701120674,651882648,-1.0936652357356658,0.13624113702872415,0.4746606527373784,-0.6171466390922862,0.7862149041198572,-0.01774040605468319,0.026104183379573494,255,-1,0.02558819390833378,-2.300502125416891,-0.8596890608416956,-1.6171887556659144,1.5680961608886719,-2.876139465962545
7000,1701120674,747743606,-1.0915914212858564,0.13699720135504764,0.45781468382465684,-0.6166482742879827,0.7860477302736906,-0.024759342068274657,0.03550840083104852,255,-1,0.024845920503139496,-2.302204434071676,-0.8818071524249476,-1.616913143788473,1.5680961608886719,-2.8761513868915003
7100,1701120674,851908206,-1.0899224737795699,0.13901688470036552,0.4403785195974552,-0.6155811782226237,0.7861522321271108,-0.031791339308646714,0.04487529035639005,255,-1,0.022931065410375595,-2.3063047567950647,-0.9006579558001917,-1.616805378590719,1.568060278892517,-2.8761633078204554
7200,1701120674,947782039,-1.0906629124386558,0.1419406780626781,0.4269938572595706,-0.6142702589557476,0.7866126828774886,-0.03638646547086714,0.050877905118585406,255,-1,0.020190048962831497,-2.3138206640826624,-0.9081137816058558,-1.6166732946978968,1.5680721998214722,-2.8761633078204554
7300,1701120675,51963329,-1.0920769686388336,0.1450285616126676,0.4162787333070194,-0.6129291546192254,0.7872005460706946,-0.03976739680703938,0.05524224683114864,255,-1,0.017353907227516174,-2.3216965834247034,-0.9110344091998499,-1.6166370550738733,1.568060278892517,-2.8761752287494105
7400,1701120675,147871255,-1.0932414215851098,0.1487549593784517,0.40688055246886806,-0.6113835545485351,0.7879830740282027,-0.042682121259142176,0.05891570925892826,255,-1,0.013799460604786873,-2.3287575880633753,-0.9137032667743128,-1.6164572874652308,1.5680721998214722,-2.8761633078204554
7500,1701120675,251994848,-1.0943494542562298,0.1556575308362466,0.3942323691671343,-0.6085843304366702,0.7895384486522947,-0.04669400127344408,0.06382649208403358,255,-1,0.0072407191619277,-2.338743034993307,-0.9165399710284632,-1.6162779966937464,1.568060278892517,-2.8761752287494105
7600,1701120675,347924232,-1.0968637177400609,0.16268269055886084,0.37965611158851953,-0.6057383100580219,0.7910667077881929,-0.05073819916198916,0.0687037022510415,255,-1,0.000765866891015321,-2.352372471486227,-0.9166477362262171,-1.6156185309039515,1.5680482387542725,-2.8761752287494105
7700,1701120675,451554536,-1.0998579272948863,0.17017280699953444,0.3614453378958336,-0.6026204036574411,0.7925511212693814,-0.05579461768424889,0.0748219881308794,255,-1,-0.0058282057391565445,-2.369166676198141,-0.9165757338153284,-1.6148389021502894,1.5680361986160278,-2.8761633078204554
7800,1701120675,547984838,-1.1029701139010366,0.17374032854444676,0.343761501152035,-0.6008915609313696,0.7929096174995525,-0.060685465347928076,0.08087610755767612,255,-1,-0.008724514638082326,-2.385181728993551,-0.9166119734393519,-1.6143830458270472,1.5680961608886719,-2.8761993090258997
7900,1701120675,651458263,-1.106493803547615,0.17407788491890455,0.3248871130722275,-0.6002618901941579,0.7922842026631438,-0.06575964914781222,0.0874475496221584,255,-1,-0.008916203175679982,-2.402214829121725,-0.9167431036578577,-1.6139872709857386,1.5681321620941162,-2.8761993090258997
8000,1701120675,747963666,-1.109498059859832,0.17411684265155614,0.30737919807770286,-0.5997380992462779,0.7915763808333329,-0.07048448357867189,0.09355737915264596,255,-1,-0.008975807820455373,-2.4180615584002894,-0.9167311827289026,-1.6137235800372522,1.5680482387542725,-2.8761633078204554
8100,1701120675,851599454,-1.112538944003538,0.17421096587463786,0.2882296295546789,-0.5991023452741214,0.7907972563234034,-0.07551268084374084,0.100069547366899,255,-1,-0.009023968373433888,-2.4354541937457483,-0.9166119734393519,-1.6129682699786585,1.5681082010269165,-2.8761752287494105
8200,1701120675,948009490,-1.1150606690806444,0.1742181417970064,0.27033661542889076,-0.5985285473401566,0.7899859635881175,-0.08018210471334203,0.10609705668101281,255,-1,-0.008988205586568654,-2.4513724485980433,-0.9166715780841272,-1.6122844854937952,1.5680961608886719,-2.8761633078204554
8300,1701120676,51604747,-1.11726977584543,0.17422633647366273,0.2534506876390488,-0.5979753407577237,0.7892173059386355,-0.08437356319143169,0.11154657183001142,255,-1,-0.008988205586568654,-2.4663432280169886,-0.9166477362262171,-1.6109893957721155,1.5680721998214722,-2.876139465962545
8400,1701120676,147475481,-1.118877677909804,0.17428469301808963,0.2406746204856264,-0.5975393320889942,0.788675882537788,-0.08731399275109099,0.11538355853301788,255,-1,-0.009047810231344044,-2.477670494710104,-0.9166477362262171,-1.6091907660113733,1.568060278892517,-2.8761513868915003
8500,1701120676,251682758,-1.1199626949123505,0.1743312613521742,0.232227179550272,-0.5972772428383852,0.78835714982018,-0.08903647318112681,0.11758148646043376,255,-1,-0.009083573018209279,-2.484993282948629,-0.9166596571551722,-1.6070082823382776,1.5680721998214722,-2.8761873880969446
8600,1701120676,347589015,-1.12038115790594,0.17441419767845226,0.2291173694048764,-0.5971728647752155,0.7882873488101295,-0.08952966439100027,0.11820348758008001,255,-1,-0.009179417287008107,-2.487558666859762,-0.9166477362262171,-1.605941120778219,1.5680482387542725,-2.8761513868915003
8700,1701120676,451682090,-1.1204169027712918,0.17448193586301944,0.22861470054277133,-0.5971352916332004,0.7882767121135694,-0.08966086269233339,0.11836468361306136,255,-1,-0.009167496358053029,-2.487894360219137,-0.9166596571551722,-1.6059172789203089,1.5680721998214722,-2.8761752287494105
8800,1701120676,547507047,-1.120465945974023,0.17448459535892877,0.22808820621348924,-0.5971097070168654,0.7882491795402587,-0.08980278473460729,0.11856934086960291,255,-1,-0.009191338215963185,-2.4884098211871546,-0.9166596571551722,-1.605929199849264,1.5680482387542725,-2.8761633078204554
8900,1701120676,651676893,-1.1205037944477343,0.17444537738655047,0.22750670471821186,-0.5971059775316543,0.7882027496662205,-0.08995602431273274,0.11878043064589355,255,-1,-0.009191338215963185,-2.4888890425311487,-0.9166715780841272,-1.605929199849264,1.5680482387542725,-2.8761752287494105
9000,1701120676,747578620,-1.1205686587369545,0.17452567028675653,0.22680512613437498,-0.597036581050107,0.7882003717350511,-0.09014032761991216,0.11900511006381735,255,-1,-0.009167496358053029,-2.4896438757525843,-0.9166596571551722,-1.605929199849264,1.568060278892517,-2.876127306615011
9100,1701120676,851711034,-1.120841722303446,0.17451480605281564,0.22374582462683806,-0.5969432672016579,0.7880151325871412,-0.09096520023726393,0.12006755974065053,255,-1,-0.00922710100282842,-2.492533032094137,-0.9166238943683069,-1.6058934370623987,1.5680482387542725,-2.8761513868915003
9200,1701120676,947576045,-1.121290359253224,0.17455012567509814,0.2184185541510624,-0.5967034968191979,0.7877458678120624,-0.09237509815560724,0.12193533478653472,255,-1,-0.009203259144918263,-2.4973633925067347,-0.9166477362262171,-1.6059172789203089,1.5680482387542725,-2.876139465962545
9300,1701120677,51718950,-1.1216475646470618,0.1745255420753661,0.21397806890318577,-0.5965263159594942,0.7874993529027611,-0.09356802828538278,0.1234752915700624,255,-1,-0.009203259144918263,-2.501043144856588,-0.9166238943683069,-1.6059053579913538,1.5680361986160278,-2.8761513868915003
9400,1701120677,147456407,-1.1217173423765774,0.17447039995671607,0.21352748866108348,-0.5965323478869373,0.7874610524329279,-0.09368004123193048,0.12360541533649465,255,-1,-0.009179417287008107,-2.501354519520895,-0.9166238943683069,-1.6059053579913538,1.5680842399597168,-2.876139465962545
9500,1701120677,251780509,-1.1216748499817948,0.17452247375711705,0.2134619500140559,-0.5965056240782525,0.7874661336838626,-0.09373471914736443,0.12366054815650805,255,-1,-0.00915557542909795,-2.501354519520895,-0.9165995756732386,-1.6059530417071741,1.5680482387542725,-2.8761513868915003
9600,1701120677,347698688,-1.1216776243171018,0.17448564708636496,0.21344560214034713,-0.5965149000065809,0.7874543894512187,-0.09373221321123991,0.12369248485930641,255,-1,-0.009203259144918263,-2.5014265219317835,-0.9166834990130823,-1.606025520955221,1.5680122375488281,-2.8761633078204554
9700,1701120677,451648235,-1.1216603586987877,0.17451004917034915,0.21342068713549958,-0.5965107098555518,0.787451687997486,-0.09376287505081199,0.1237066504264883,255,-1,-0.009191338215963185,-2.5014026800738733,-0.9167078177081507,-1.606013600026266,1.5680361986160278,-2.876139465962545
9800,1701120677,547550678,-1.1216752788635584,0.17445830905819373,0.21337905031979781,-0.5965236978864428,0.7874360252103033,-0.09376773245915017,0.12374003560025214,255,-1,-0.009179417287008107,-2.5014146010028284,-0.9166834990130823,-1.6060493628131312,1.5680242776870728,-2.876127306615011
9900,1701120677,651750802,-1.1216485187854095,0.17453672082270544,0.2133201591088157,-0.5964799694218959,0.7874598816699618,-0.09380890241787776,0.12376780948993447,255,-1,-0.00914317766298467,-2.5014503637896937,-0.9167197386371058,-1.6060493628131312,1.5680482387542725,-2.8761633078204554
10000,1701120677,747606039,-1.121659535893927,0.17444587403851652,0.21325560883216688,-0.59652026560996,0.7874199889028349,-0.09382004883386826,0.12381894939666024,255,-1,-0.009179417287008107,-2.5015104452716272,-0.9167311827289026,-1.6060612837420862,1.5680482387542725,-2.8761513868915003
10100,1701120677,851746320,-1.1216765697337296,0.1744711367923163,0.21322045645301685,-0.5965191344125927,0.7874219809611408,-0.0938289470171125,0.1238049873007703,255,-1,-0.009131256734029591,-2.5015700499164026,-0.9167431036578577,-1.6060612837420862,1.5680361986160278,-2.876139465962545
10200,1701120677,947602748,-1.1216609721288264,0.17448438427999044,0.21326606752716748,-0.5965161204428545,0.7874277951538363,-0.0938187458599043,0.12379025969860671,255,-1,-0.009119335805074513,-2.5015342871295374,-0.9166715780841272,-1.6060612837420862,1.5680482387542725,-2.8761513868915003
10300,1701120678,51760673,-1.1217548086011486,0.17447627172327965,0.21365195422914265,-0.5965350582030038,0.7874669731486912,-0.09363093638826012,0.12359182127404283,255,-1,-0.00914317766298467,-2.5013306776629847,-0.9162767569171351,-1.6060016790973108,1.5680122375488281,-2.876139465962545
10400,1701120678,147752046,-1.1221696233490426,0.17444943275675098,0.2158634795717962,-0.5966914571813502,0.7876222002542328,-0.09279306137439183,0.12247457839995338,255,-1,-0.009131256734029591,-2.500228230153219,-0.9144695440875452,-1.605929199849264,1.5680122375488281,-2.876139465962545
10500,1701120678,251754045,-1.1224719205294191,0.17444997290201755,0.22099453091148835,-0.5969298550726233,0.7879657504476465,-0.09114417289935745,0.12032233371633935,255,-1,-0.00914317766298467,-2.4966800848590296,-0.9123271147357386,-1.6059649626361292,1.5680482387542725,-2.876127306615011
10600,1701120678,347672462,-1.1224905925088773,0.17446576382641976,0.2279121401316779,-0.5972247405918992,0.7883894722256761,-0.08904536080193869,0.11762471265984456,255,-1,-0.009047810231344044,-2.49150258699526,-0.910196606312887,-1.606013600026266,1.5680721998214722,-2.876127306615011
10700,1701120678,451812982,-1.1230076082152582,0.17437553745210974,0.24111320622210158,-0.5978693017995496,0.7891698203715218,-0.08480165019267921,0.11212480860673815,255,-1,-0.009083573018209279,-2.4824169317828577,-0.9046195189105433,-1.6060732046710413,1.5680482387542725,-2.876139465962545
10800,1701120678,547693252,-1.1225859476536444,0.17439962961486613,0.2590867297670735,-0.5985773417582488,0.7901729385933823,-0.07933840652051237,0.10505860411747876,255,-1,-0.009083573018209279,-2.468668286000387,-0.9002984205829065,-1.606037441884176,1.5680482387542725,-2.876127306615011
10900,1701120678,651342630,-1.1201156707922562,0.17436270823022162,0.2790711714509818,-0.5992574430472459,0.791072799028014,-0.07397079901106293,0.09809518073853031,255,-1,-0.0090716520892542,-2.4509766737567347,-0.9001429716693323,-1.6062887350665491,1.5680361986160278,-2.876139465962545
11000,1701120678,747791051,-1.1177899259944795,0.17434049916491448,0.2955482096900594,-0.5997871751514362,0.7917702849921346,-0.06951919225287052,0.09231599122493685,255,-1,-0.009059731160299123,-2.4365089575396937,-0.899975601826803,-1.6063125769244593,1.568060278892517,-2.876127306615011
11100,1701120678,851309776,-1.1154632768331885,0.17407754008670148,0.31077423110030117,-0.6003165772339637,0.7923281687999404,-0.06537601367479384,0.08696008774273922,255,-1,-0.008868042622701466,-2.4231799284564417,-0.8998673597918909,-1.6062887350665491,1.568060278892517,-2.876139465962545
11200,1701120678,947750329,-1.1134801829131742,0.17375873122207136,0.32341984724169737,-0.6007901838046685,0.7927346244602855,-0.061842349181940155,0.08245298098566053,255,-1,-0.00853282610048467,-2.4121158758746546,-0.899508301411764,-1.6062887350665491,1.5680482387542725,-2.876127306615011
11300,1701120679,51330089,-1.1115996051154795,0.17326059165902905,0.33627724269967807,-0.6013164712581458,0.7930897442196637,-0.058185602663265314,0.07772769551422877,255,-1,-0.008042160664693654,-2.401424233113424,-0.8981922308551233,-1.6062887350665491,1.5680361986160278,-2.8761513868915003
11400,1701120679,147734165,-1.1107162201536998,0.17263812922405322,0.34711237433820635,-0.6018434667020993,0.7933467902885305,-0.05480732272967658,0.07335849849942809,255,-1,-0.00753957429994756,-2.393967930470602,-0.8943980375873011,-1.6063125769244593,1.568000316619873,-2.876139465962545
11500,1701120679,251349210,-1.1112015189893116,0.17192583307402462,0.3584537187171517,-0.6024498282812979,0.7936357158037366,-0.050656545738387494,0.06804755233202622,255,-1,-0.006881539021627248,-2.3886340300189417,-0.8863790670977991,-1.6063006559955042,1.5680361986160278,-2.876127306615011
11600,1701120679,347260713,-1.1107274533355462,0.1696196534380537,0.36849560366691925,-0.6035333763680585,0.7933595152448617,-0.04737180313342379,0.06390661505742218,255,-1,-0.0046075026141565445,-2.3820532003985804,-0.8822978178607386,-1.6063607374774378,1.5680242776870728,-2.876127306615011
11700,1701120679,451462030,-1.1110901239397262,0.16419326332973327,0.3788962275746534,-0.6057361474367905,0.7922377830558195,-0.043713912777887276,0.059431545637669544,255,-1,0.00041869888082146645,-2.376143280659811,-0.8767679373370569,-1.6063969771014612,1.5680721998214722,-2.876127306615011
11800,1701120679,547394752,-1.1101467695303937,0.1582132658050818,0.38761783151623613,-0.6080374073986903,0.7908359735957033,-0.041147489601760755,0.05635475286333732,255,-1,0.005912342574447393,-2.3685196081744593,-0.8763135115252894,-1.606480900441305,1.5680482387542725,-2.876127306615011
11900,1701120679,651554822,-1.1090963302211296,0.1507149636151853,0.39671332056402725,-0.6108804168578631,0.7889980510917047,-0.03845602746537319,0.053182004706833604,255,-1,0.012674067169427872,-2.360476318989889,-0.8761099020587366,-1.60649282137026,1.5680721998214722,-2.876115385686056
12000,1701120679,747435331,-1.1079401620721379,0.14469351941328176,0.40529851102353437,-0.6131723702345161,0.7875386523557452,-0.03593429560615334,0.0501122921644167,255,-1,0.018084196373820305,-2.35305625597109,-0.8757270018206995,-1.6064570585833948,1.568060278892517,-2.876115385686056
12100,1701120679,851518154,-1.106590882917614,0.136679034065937,0.41470899747068696,-0.616206877561291,0.7854911295167301,-0.033169087265841786,0.04682500557017182,255,-1,0.025504304096102715,-2.3445332686053675,-0.8755596319781702,-1.6064570585833948,1.5680721998214722,-2.876115385686056
12200,1701120679,947415828,-1.105520070999816,0.12842516865304743,0.422687190362299,-0.6192709318752264,0.7833349626721311,-0.03083698938200083,0.044033274641957644,255,-1,0.033104173839092255,-2.3374479452716272,-0.8753798643695276,-1.6065047422992151,1.5680361986160278,-2.876139465962545
12300,1701120680,51583528,-1.1047028455384598,0.11789352480053004,0.43060714410031775,-0.623134700603933,0.7805112058258143,-0.028432368958850287,0.04119469479153747,255,-1,0.04278593137860298,-2.3307116667376917,-0.8748891989337366,-1.60646897951235,1.568060278892517,-2.876127306615011
12400,1701120680,147447824,-1.1044927413563705,0.10653049742498999,0.43587588392596494,-0.6272425605883436,0.777367628105698,-0.026808327812016558,0.03934024046472936,255,-1,0.053353771567344666,-2.3261082808123987,-0.8746259848224085,-1.6065166632281702,1.5680361986160278,-2.876139465962545
12500,1701120680,251627683,-1.10434679367983,0.09101665994738475,0.4414751195284927,-0.632785036144891,0.7730172377676501,-0.02501127438193825,0.037441745404998075,255,-1,0.0677633062005043,-2.321181122456686,-0.8744939009295862,-1.60649282137026,1.5680122375488281,-2.876127306615011
12600,1701120680,347490072,-1.1049511121177138,0.07460578694034073,0.44438810489129343,-0.6385663540161415,0.7683318470573826,-0.023889556745289666,0.03644822896158923,255,-1,0.0827593132853508,-2.319166962300436,-0.8738001028644007,-1.6064570585833948,1.5680482387542725,-2.876139465962545
12700,1701120680,451616525,-1.106306575344456,0.05606866572325541,0.44589912642803786,-0.6450140987593028,0.7629880362905755,-0.022974642999966387,0.035752407725910956,255,-1,0.09935858845710754,-2.319190804158346,-0.8715022245990198,-1.606480900441305,1.5680122375488281,-2.8761513868915003
12800,1701120680,547484636,-1.1074172297214144,0.039755104015912666,0.44790777513962654,-0.6506375574439213,0.7582812753499677,-0.02187969863817918,0.03466345459611624,255,-1,0.11392354220151901,-2.319202725087301,-0.8683541456805628,-1.6064570585833948,1.568060278892517,-2.876139465962545
12900,1701120680,651656389,-1.108418087143148,0.022969285264346016,0.45086760221818856,-0.6563952885528874,0.7534173055162234,-0.02042047055280709,0.03302413203472758,255,-1,0.1291588693857193,-2.3191431204425257,-0.8640936056720179,-1.6064570585833948,1.568060278892517,-2.876139465962545
13000,1701120680,747625827,-1.1088425944219722,0.008176677991297905,0.45208095905217255,-0.6614213059626098,0.7490550457891576,-0.019683601016555734,0.03241836281399093,255,-1,0.14239543676376343,-2.319190804158346,-0.862645451222555,-1.6064446608172815,1.5680122375488281,-2.876139465962545
13100,1701120680,851738214,-1.1088606906306542,-0.007258511583677135,0.45202473884949607,-0.6666124438056781,0.7444368845776658,-0.01948013458859144,0.03258986038833428,255,-1,0.1561945229768753,-2.3191550413714808,-0.8626216093646448,-1.6064446608172815,1.568000316619873,-2.876127306615011
13200,1701120680,947674512,-1.1086958784998044,-0.021222316603230203,0.4521537336087668,-0.6712926112767981,0.7402248525387342,-0.019221848224923736,0.03261776019295189,255,-1,0.16877272725105286,-2.319202725087301,-0.8624780813800257,-1.6064327398883265,1.5680122375488281,-2.8761513868915003
13300,1701120681,51255226,-1.108387919344225,-0.03617388070317636,0.45256982777450083,-0.6762635628818228,0.7357015246783102,-0.0188366687013856,0.0324967693259933,255,-1,0.18227256834506989,-2.319190804158346,-0.8617475668536585,-1.6064446608172815,1.568000316619873,-2.8761513868915003
13400,1701120681,147719621,-1.1082133007788313,-0.04967343679725107,0.45458604404897696,-0.6807554403162225,0.7316216785707955,-0.01784671251110925,0.031356734167692926,255,-1,0.1943122297525406,-2.319202725087301,-0.8584802786456507,-1.6064208189593714,1.5680122375488281,-2.8761513868915003
13500,1701120681,251302003,-1.1085154436448927,-0.06384503965641809,0.4605120121944423,-0.6854447900945351,0.7274334402587055,-0.01535729733428947,0.0277521736847631,255,-1,0.20687806606292725,-2.3191311995135706,-0.8494084517108362,-1.6063368956195276,1.5679882764816284,-2.876139465962545
13600,1701120681,347178697,-1.1090082824213683,-0.07647307717351241,0.4684560103767802,-0.6896010542782763,0.7237264312124715,-0.012183303046139016,0.022847446895338748,255,-1,0.21802039444446564,-2.3191550413714808,-0.8374994436847132,-1.6063488165484827,1.568000316619873,-2.8761513868915003
13700,1701120681,451356649,-1.1097388162898474,-0.0892093404348521,0.4798982100861008,-0.6937438330623144,0.7200082180959849,-0.00776780468464825,0.015726448188748375,255,-1,0.22903090715408325,-2.3192270437823694,-0.8205159346209925,-1.6063368956195276,1.5680361986160278,-2.8761633078204554
13800,1701120681,547254800,-1.1102190169502077,-0.09897621528067063,0.4895829323080389,-0.6968625075148157,0.7171277598357975,-0.004122662511149912,0.009665678810776658,255,-1,0.2374086230993271,-2.3192389647113245,-0.8065722624408167,-1.6063244978534144,1.5680361986160278,-2.876127306615011
13900,1701120681,651399612,-1.1101954338327749,-0.10801935885066279,0.4965265663877081,-0.6997420422591641,0.7143740921722352,-0.0015192389746720816,0.005331288869183711,255,-1,0.24534331262111664,-2.319190804158346,-0.7970097700702112,-1.6063607374774378,1.5680242776870728,-2.8761513868915003
14000,1701120681,747330904,-1.1098106079661807,-0.115652436289356,0.4999959943326564,-0.7021666697390164,0.712005677660895,-0.00025414082437690715,0.0031334164597263295,255,-1,0.25198519229888916,-2.3192389647113245,-0.7922223250018519,-1.6063726584063929,1.5680242776870728,-2.8761513868915003
14100,1701120681,851485013,-1.1092086542494757,-0.12292815252609428,0.5016494357313571,-0.7044728982493259,0.7097276448766661,0.0003887665368962276,0.0021105901060329588,255,-1,0.25862744450569153,-2.3192151228534144,-0.7900918165790003,-1.6063488165484827,1.5680361986160278,-2.876139465962545
14200,1701120681,947354555,-1.1084812514049653,-0.129462358878411,0.5015730623855277,-0.7065804412387501,0.7076294031126839,0.00037178217714515865,0.0021376826828748497,255,-1,0.26441994309425354,-2.319287125264303,-0.7901275793658655,-1.6063607374774378,1.5680482387542725,-2.876139465962545
14300,1701120682,51482439,-1.1075499147078018,-0.137137160889475,0.5015893880527839,-0.709011061865787,0.705193980104368,0.00037857558146680545,0.0021497109197254264,255,-1,0.271457314491272,-2.3192151228534144,-0.7900555769549769,-1.6063607374774378,1.5680242776870728,-2.876139465962545
14400,1701120682,147305488,-1.1064402166424592,-0.14580190586968553,0.5016598091104816,-0.71176961391223,0.7024097436091679,0.0004083058979215449,0.002098113541158986,255,-1,0.27939197421073914,-2.3192270437823694,-0.7900798956500452,-1.6063607374774378,1.568000316619873,-2.876139465962545
14500,1701120682,251463890,-1.1049700495979473,-0.15651944415472835,0.5016862228821908,-0.7151741979988404,0.6989429987761546,0.0004211155404251255,0.0020913249898443028,255,-1,0.28918197751045227,-2.3192508856402796,-0.7900918165790003,-1.6063244978534144,1.5680482387542725,-2.876139465962545
14600,1701120682,347284078,-1.1035294613306157,-0.1664399240533648,0.5016695147966417,-0.7182997565157239,0.6957305453937901,0.0004043717313178232,0.002074723840432306,255,-1,0.2981458008289337,-2.3192270437823694,-0.7900555769549769,-1.6063368956195276,1.5680361986160278,-2.8761633078204554
14700,1701120682,451456308,-1.1018718548445803,-0.17718066976420513,0.5016240859498158,-0.7216676845646405,0.6922363372044131,0.000440299555864952,0.0021006297221269734,255,-1,0.30786389112472534,-2.319287125264303,-0.7901037375079554,-1.6063125769244593,1.568060278892517,-2.876127306615011
14800,1701120682,547283887,-1.1000554008738654,-0.18799342801599517,0.5016144936068953,-0.725059761827479,0.6886826053846387,0.0004346388489862929,0.0021028334161841884,255,-1,0.31780892610549927,-2.3192270437823694,-0.7900679747210901,-1.6063006559955042,1.5680482387542725,-2.876127306615011
14900,1701120682,651486873,-1.0975855786354525,-0.20204284255367158,0.5016359872869308,-0.7294585913413661,0.6840216645890353,0.0004833236535910173,0.0020717841009206136,255,-1,0.3308541178703308,-2.319263283406393,-0.7900798956500452,-1.6063006559955042,1.5680242776870728,-2.8761513868915003
15000,1701120682,747342348,-1.0944276217815627,-0.21850529828394466,0.5016223496969642,-0.7345749693331843,0.6785241989332704,0.0004988689587225902,0.0020680959544883584,255,-1,0.34610143303871155,-2.319299046193258,-0.7900679747210901,-1.6062887350665491,1.5680242776870728,-2.876139465962545
15100,1701120682,851276397,-1.0903483349317398,-0.2381141574001799,0.5014909366981258,-0.7406276717627336,0.6719121348476498,0.00045806372872161873,0.002127214471195043,255,-1,0.3640058636665344,-2.3193591276751917,-0.7901037375079554,-1.6063006559955042,1.568060278892517,-2.8761513868915003
15200,1701120682,947193145,-1.0862093374618926,-0.25658083186204156,0.5012847971324145,-0.746294476320394,0.6656120904608691,0.000414465682637489,0.0022198793161879783,255,-1,0.38108450174331665,-2.3195508162127894,-0.7901514212237757,-1.6062887350665491,1.5680361986160278,-2.876139465962545
15300,1701120683,51345586,-1.0815667834355367,-0.27571918430322206,0.5010953774432543,-0.7521364101377747,0.6590032629604329,0.00041352545464953057,0.002312779553249601,255,-1,0.3984743654727936,-2.319706741963522,-0.7901876608477991,-1.6063006559955042,1.5680482387542725,-2.8761513868915003
15400,1701120683,147116899,-1.0777558372871665,-0.2909322605993871,0.5004725955511384,-0.7567395389693081,0.6537113527768115,0.00030818632360153696,0.002577291683104002,255,-1,0.4122614562511444,-2.320186440144674,-0.790283505116598,-1.6063488165484827,1.5680721998214722,-2.876139465962545
15500,1701120683,251212835,-1.0740866859951723,-0.30492583833818826,0.4998164110369746,-0.7609481470268318,0.6488064676074535,0.00016757403443600036,0.0028384936343924397,255,-1,0.4251396358013153,-2.320737663899557,-0.7903783957110804,-1.6062887350665491,1.5680842399597168,-2.876139465962545
15600,1701120683,347171306,-1.071334770251919,-0.3157030393075861,0.4985996226970323,-0.7641528374067296,0.6450263767313474,-6.326517550942524e-05,0.0033779285947981037,255,-1,0.434822142124176,-2.3218405882464808,-0.7905104796039026,-1.6063125769244593,1.568060278892517,-2.8761513868915003
15700,1701120683,451350450,-1.069723188438052,-0.3236535845203518,0.49626194433445564,-0.7664579469271626,0.6422794862554172,-0.0005109500175112134,0.004360740505433773,255,-1,0.44171568751335144,-2.3238781134234827,-0.7907617727862757,-1.6063006559955042,1.5680482387542725,-2.8761633078204554
15800,1701120683,547209739,-1.0688190780722455,-0.32956748587927986,0.4934275249174259,-0.768119808093215,0.6402810616497997,-0.0010403668021367394,0.005571368266853924,255,-1,0.44675469398498535,-2.32636005083193,-0.7909053007708948,-1.6063006559955042,1.5680122375488281,-2.8761513868915003
15900,1701120683,651308536,-1.0685688979191061,-0.33372429862899045,0.4902057786433877,-0.76921240734503,0.6389535163867603,-0.00164703577124792,0.00692557265686249,255,-1,0.4500938057899475,-2.329261128102438,-0.7911689917193812,-1.606276814137594,1.5680721998214722,-2.876127306615011
16000,1701120683,747278690,-1.0697702228806054,-0.33577808262146036,0.4847049425914291,-0.7695851523030974,0.6384727126210681,-0.0026604555292434294,0.009176631696334585,255,-1,0.45109933614730835,-2.334475342427389,-0.7911327520953577,-1.606264893208639,1.5680482387542725,-2.8761633078204554
16100,1701120683,851411342,-1.0725607244949116,-0.3371286540974371,0.47498779992327833,-0.7695576986583007,0.6384265387226712,-0.004457598407928533,0.01313898423635446,255,-1,0.45117124915122986,-2.343393627797262,-0.7911208311664026,-1.6062167326556605,1.5680122375488281,-2.876139465962545
16200,1701120683,947343826,-1.0753342034991682,-0.33862396476166134,0.46492730162587875,-0.7695490625507995,0.6383263489920542,-0.0063006160848459855,0.017146858214007694,255,-1,0.4512547552585602,-2.3523486296283167,-0.7911446730243128,-1.6059892813311976,1.5680361986160278,-2.8761633078204554
16300,1701120684,51435232,-1.0777351871543004,-0.3405013383685014,0.45555312833909267,-0.7696678300681351,0.6380604834701858,-0.007902839612808476,0.020683227940897993,255,-1,0.45188918709754944,-2.360835854207174,-0.7910850683795374,-1.6053054968463343,1.5680482387542725,-2.8761752287494105
16400,1701120684,147368669,-1.0791093582780498,-0.34307466184962504,0.44849613021973855,-0.7701132866593935,0.6374142249671174,-0.009094983588582886,0.023364776775292247,255,-1,0.45356473326683044,-2.367141071950094,-0.7911089102374476,-1.6046941916095179,1.568060278892517,-2.8761513868915003
16500,1701120684,251504421,-1.0802024081203219,-0.3479287604810153,0.44049108451876406,-0.771168359437358,0.6360310010497333,-0.01011290607843859,0.025722679429179007,255,-1,0.45708322525024414,-2.3743932882892054,-0.7911208311664026,-1.6025355497943323,1.568060278892517,-2.8761873880969446
16600,1701120684,347416877,-1.0808665254060814,-0.35297162829408374,0.43342917545235393,-0.7722976458446393,0.6345553842546677,-0.011020982688054157,0.027827117652186442,255,-1,0.46086573600769043,-2.380902115498678,-0.791048828755514,-1.6004732290851038,1.5680482387542725,-2.8761752287494105
16700,1701120684,451044321,-1.0821823334604366,-0.35711480358867803,0.42620315343229476,-0.7731645202420736,0.6334531512588695,-0.01134444658325766,0.028723393441090306,255,-1,0.4634985327720642,-2.387782875691549,-0.7911089102374476,-1.5954011122332972,1.568060278892517,-2.8761752287494105
16800,1701120684,547361135,-1.0835092347860253,-0.35976031924825325,0.4200538015298222,-0.7736377594636625,0.6328268216387072,-0.011730830145265816,0.02961787586575093,255,-1,0.46503064036369324,-2.393644158040182,-0.791048828755514,-1.591372315083639,1.568060278892517,-2.8761873880969446
16900,1701120684,651093006,-1.085833585207471,-0.3628527272629656,0.41207452251521903,-0.7741333928145946,0.6322521289568046,-0.011449155415287392,0.029045695020589724,255,-1,0.46652641892433167,-2.4017232100116175,-0.7910731474505823,-1.581815544758932,1.5680721998214722,-2.8761633078204554
17000,1701120684,747506380,-1.0880868068239709,-0.3663172354369045,0.4034062134834177,-0.7747142469700959,0.6315529999741868,-0.01131708783210054,0.028819564329853557,255,-1,0.46847760677337646,-2.4103062788592737,-0.7910369078265589,-1.572906796132223,1.5680482387542725,-2.8761993090258997
17100,1701120684,851159334,-1.0904465727116954,-0.3693321315722872,0.39489866466055734,-0.7751801455749262,0.6310082323563528,-0.011080885270525496,0.028311951302738014,255,-1,0.46972209215164185,-2.4186609427081507,-0.791048828755514,-1.56348163286318,1.5680482387542725,-2.8761752287494105
17200,1701120684,947026968,-1.092910439315768,-0.3705470331722048,0.3869926922631791,-0.7751597107154988,0.6310289870977154,-0.011094998993339013,0.028403192131049255,255,-1,0.4696381986141205,-2.4260805288897913,-0.7910969893084925,-1.5561202208148401,1.5680361986160278,-2.8761633078204554
17300,1701120685,51169872,-1.0953222670428056,-0.3717723307475077,0.37862554505205426,-0.7751522680477307,0.6310066484535282,-0.011362782449132847,0.0289906557862715,255,-1,0.4696621596813202,-2.4342315832721155,-0.7910016218768519,-1.5497410933123987,1.5680361986160278,-2.8761752287494105
17400,1701120685,147035121,-1.097033373144939,-0.3726728243420971,0.3703766180323239,-0.7750868466896775,0.6309329041188195,-0.012578607457105184,0.03171481078746555,255,-1,0.46965017914772034,-2.441495720540182,-0.791048828755514,-1.5485900084124964,1.5680482387542725,-2.8761633078204554
17500,1701120685,251220941,-1.0987547094923171,-0.37352610901462946,0.36151661275305574,-0.7749786267703557,0.6308603190674369,-0.014022149631848134,0.03502520799320682,255,-1,0.46965017914772034,-2.449178997670309,-0.7910369078265589,-1.5480745474444788,1.5679882764816284,-2.8761633078204554
17600,1701120685,347100973,-1.1001036207803965,-0.37418478140417444,0.3541074564352205,-0.7748875849790999,0.6307741272179189,-0.015335804558811488,0.037921552925278774,255,-1,0.46962621808052063,-2.4556272665606897,-0.7910249868976038,-1.5480025450335901,1.5680361986160278,-2.876139465962545
17700,1701120685,451267004,-1.1016292322780252,-0.37497576867069843,0.3451458422183086,-0.7747622483977499,0.6306655448125743,-0.016910659494004967,0.04145429578945732,255,-1,0.4696381986141205,-2.463550392781393,-0.7911089102374476,-1.547906223927633,1.5680361986160278,-2.8761752287494105
17800,1701120685,547147512,-1.103203801729661,-0.37575940167327365,0.3357915907233027,-0.7746216653482223,0.6305441316990719,-0.018521928605480166,0.04508116806099425,255,-1,0.46962621808052063,-2.4717610518084925,-0.7910969893084925,-1.5478346983539026,1.5680242776870728,-2.8761993090258997
17900,1701120685,651296854,-1.104764113022103,-0.3765463093638833,0.3258722833900197,-0.7744524055949692,0.6304047760637199,-0.020246448406354905,0.04902418904117849,255,-1,0.46960222721099854,-2.480342690144674,-0.7910249868976038,-1.5477507750140589,1.5680482387542725,-2.8761752287494105
18000,1701120685,747114658,-1.10613317936587,-0.3772697397942153,0.31643308676992443,-0.7742806061342841,0.630256570886281,-0.021902920103096846,0.05278692934760672,255,-1,0.46962621808052063,-2.488349739705221,-0.7911570707904261,-1.5477870146380823,1.568000316619873,-2.8761633078204554
18100,1701120685,851314783,-1.1076498594254862,-0.37804323939521556,0.30585125997964135,-0.774074409146234,0.6300819121159406,-0.023762170556851824,0.056929363070876864,255,-1,0.46962621808052063,-2.497650448475973,-0.7911208311664026,-1.5478108564959925,1.5680122375488281,-2.8761633078204554
18200,1701120685,947184801,-1.1090171937689561,-0.3786916821417846,0.29571635495650306,-0.7738663314292867,0.6298975510568171,-0.02553235207484453,0.060893967273679475,255,-1,0.4696381986141205,-2.506472412739889,-0.7910731474505823,-1.5477150122271937,1.5680482387542725,-2.8761752287494105
18300,1701120686,51411628,-1.1103683463017702,-0.3793448963995139,0.28483378612161675,-0.7736064321420768,0.6297079934671016,-0.027429828697641632,0.06518079172318408,255,-1,0.46962621808052063,-2.515557591115133,-0.7910969893084925,-1.547774616871969,1.5680482387542725,-2.876139465962545
18400,1701120686,147218465,-1.1115156688900336,-0.3799320778995921,0.2753101325750464,-0.773380388595796,0.6295190472490878,-0.029091770354775975,0.0688637247296519,255,-1,0.4695902466773987,-2.5238760153399866,-0.7910969893084925,-1.5477150122271937,1.5680361986160278,-2.876139465962545
18500,1701120686,251395702,-1.1125840545205314,-0.38046929207881736,0.2655886961422052,-0.7731362897394417,0.6293105606486178,-0.030760401420510834,0.07267938805811011,255,-1,0.4696142375469208,-2.5322778860675257,-0.7910369078265589,-1.5477150122271937,1.5680482387542725,-2.8761752287494105
18600,1701120686,347246408,-1.1134943853587393,-0.3809300088014266,0.2563255592799921,-0.7728915553311073,0.6290958429483695,-0.03238222971749353,0.0763443205580198,255,-1,0.4696142375469208,-2.540128533040182,-0.7912166754352015,-1.5477631727801722,1.5680361986160278,-2.8761873880969446
18700,1701120686,451345443,-1.1144764936293918,-0.3814283949551505,0.24623906089832925,-0.7726010350463168,0.6288746133307103,-0.03411639150088783,0.08025230952731238,255,-1,0.46957826614379883,-2.5487340132342737,-0.7911809126483362,-1.5477631727801722,1.5680361986160278,-2.8761873880969446
18800,1701120686,547223806,-1.1152408590600464,-0.3817251373907819,0.23773924844527794,-0.7723434185923829,0.6286748820066463,-0.03561255460482574,0.08357800216252376,255,-1,0.4695426821708679,-2.5561168829547327,-0.7911570707904261,-1.5477269331561487,1.5680242776870728,-2.8761873880969446
18900,1701120686,651411294,-1.1159756307972304,-0.38215776864857953,0.22818353817686082,-0.7720635636942209,0.6284155711476459,-0.03725604522569896,0.0873138628689528,255,-1,0.46960222721099854,-2.5641353766070765,-0.7911446730243128,-1.5477269331561487,1.5680242776870728,-2.8761752287494105
19000,1701120686,747259616,-1.1165403214843062,-0.3824286110487766,0.2206764431144036,-0.7718217327668911,0.6282206186539241,-0.03855695227216085,0.09024094723725316,255,-1,0.4695902466773987,-2.5704992453204554,-0.7911689917193812,-1.5477631727801722,1.5680242776870728,-2.8761752287494105
19100,1701120686,851418972,-1.1169566516852907,-0.3826956668320415,0.21471770441337293,-0.7716363122473636,0.628047495265969,-0.039622354523694614,0.09254087925576594,255,-1,0.46957826614379883,-2.5752933661090296,-0.7911208311664026,-1.5477870146380823,1.5681082010269165,-2.8761513868915003
19200,1701120686,947231292,-1.1169789381758561,-0.3827044990760969,0.21451435091110257,-0.7716291566115278,0.6280476673145431,-0.03963267085325758,0.0925949439698545,255,-1,0.46962621808052063,-2.575353447590963,-0.7910969893084925,-1.5477388540851038,1.5680482387542725,-2.8761752287494105
19300,1701120687,51198482,-1.1169679875805907,-0.38272667629071166,0.2144709196150204,-0.7716322307613169,0.6280400476364673,-0.03962426815512237,0.09262459926104162,255,-1,0.46962621808052063,-2.5753896872149866,-0.7911446730243128,-1.547774616871969,1.5680721998214722,-2.8761633078204554
19400,1701120687,147109270,-1.116959300246234,-0.38272723465688996,0.21449426092572277,-0.7716298072513824,0.6280411740586186,-0.03965092618256027,0.09262574318801177,255,-1,0.4696381986141205,-2.5753772894488733,-0.7910731474505823,-1.5477507750140589,1.568060278892517,-2.8761633078204554
19500,1701120687,251133918,-1.1169478568168953,-0.38275036725977457,0.21445082714049196,-0.77164372508555,0.6280202426951152,-0.039649655023434184,0.0926522593237054,255,-1,0.4696142375469208,-2.575353447590963,-0.7911446730243128,-1.547774616871969,1.5680482387542725,-2.8761513868915003
19600,1701120687,346927404,-1.116945310146729,-0.382700703997317,0.2144577705973299,-0.7716197056952451,0.6280458585810048,-0.03965401047480548,0.09267679728656868,255,-1,0.4695902466773987,-2.575353447590963,-0.7911446730243128,-1.5477989355670374,1.5680242776870728,-2.8761633078204554
19700,1701120687,451068878,-1.1169486542269365,-0.3827011561918272,0.2145366084230285,-0.7716266265790693,0.6280431279908685,-0.0396344521777336,0.09264604005688494,255,-1,0.46960222721099854,-2.5753172079669397,-0.7911446730243128,-1.5477989355670374,1.5680361986160278,-2.876139465962545
19800,1701120687,547040462,-1.1169600814003107,-0.38268997514580005,0.21455330543964823,-0.7716246093785877,0.628048447380869,-0.0396223663520935,0.09263194928577441,255,-1,0.4695902466773987,-2.5753052870379847,-0.7911689917193812,-1.5478227774249476,1.5680482387542725,-2.876139465962545
19900,1701120687,651258707,-1.1169373536167135,-0.3827111296839928,0.21450453443064832,-0.7716243237000435,0.6280411616706209,-0.03964547739181661,0.09267382825934453,255,-1,0.46960222721099854,-2.5752576033221644,-0.7911689917193812,-1.5478227774249476,1.5680361986160278,-2.876127306615011
