igor-lirussi/CNMP-Robotic-Skill-Synthesis/output-noraml-cnmp.csv
Time,ROS secs,ROS nsecs,________p_x________,________p_y________,________p_z________,________q_x________,________q_y________,________q_z________,________q_w________,gripper_position,gripper_force,shoulder_pan_joint,shoulder_lift_joint,elbow_joint,wrist_1_joint,wrist_2_joint,wrist_3_joint
0,0,0,0,0,0,0,0,0,0,0,0,-0.517568035305935,-2.52399515547437,-0.85827236977378,-1.28136010999932,1.53763740468936,-2.83429731853629
100,0,0,0,0,0,0,0,0,0,0,0,-0.519930728448542,-2.5294409044656,-0.86021832388888,-1.27711857347975,1.53838062241291,-2.8349858050333
200,0,0,0,0,0,0,0,0,0,0,0,-0.522426166063548,-2.53323998564096,-0.862243020096594,-1.27289715313584,1.53904048037803,-2.83563853346619
300,0,0,0,0,0,0,0,0,0,0,0,-0.525308228305675,-2.53224306801653,-0.864497056416518,-1.26873432211606,1.53945754905831,-2.83618711482644
400,0,0,0,0,0,0,0,0,0,0,0,-0.527849024111979,-2.52840075117768,-0.865311562389067,-1.26451678502727,1.54021275587192,-2.83627717103777
500,0,0,0,0,0,0,0,0,0,0,0,-0.53037063543186,-2.52439847860668,-0.866045144345932,-1.26029617260576,1.54098697131266,-2.83634145099754
600,0,0,0,0,0,0,0,0,0,0,0,-0.532156201212122,-2.52116471493078,-0.866504382464946,-1.25741251345311,1.54234332437584,-2.83722727183608
700,0,0,0,0,0,0,0,0,0,0,0,-0.533722318441988,-2.51816007860354,-0.866881826246131,-1.25492746069235,1.54387323906055,-2.8383580312623
800,0,0,0,0,0,0,0,0,0,0,0,-0.535288435671855,-2.51515544227631,-0.867259270027315,-1.25244240793158,1.54540315374526,-2.83948879068852
900,0,0,0,0,0,0,0,0,0,0,0,-0.536854552901721,-2.51215080594907,-0.867636713808498,-1.24995735517081,1.54693306842997,-2.84061955011473
1000,0,0,0,0,0,0,0,0,0,0,0,-0.538300698979481,-2.50811644794521,-0.868013184383961,-1.24848342689977,1.54810608622752,-2.84170414689479
1100,0,0,0,0,0,0,0,0,0,0,0,-0.539512946645289,-2.50207452178276,-0.868387757576021,-1.24898080930034,1.54858328995919,-2.84269874395875
1200,0,0,0,0,0,0,0,0,0,0,0,-0.540725194311098,-2.49603259562031,-0.868762330768081,-1.24947819170091,1.54906049369087,-2.84369334102272
1300,0,0,0,0,0,0,0,0,0,0,0,-0.541937441976906,-2.48999066945786,-0.869136903960142,-1.24997557410148,1.54953769742254,-2.84468793808668
1400,0,0,0,0,0,0,0,0,0,0,0,-0.543149689642715,-2.48394874329541,-0.869511477152202,-1.25047295650205,1.55001490115421,-2.84568253515065
1500,0,0,0,0,0,0,0,0,0,0,0,-0.544361937308524,-2.47790681713296,-0.869886050344262,-1.25097033890262,1.55049210488588,-2.84667713221461
1600,0,0,0,0,0,0,0,0,0,0,0,-0.545574184974332,-2.47186489097052,-0.870260623536323,-1.25146772130319,1.55096930861755,-2.84767172927857
1700,0,0,0,0,0,0,0,0,0,0,0,-0.546786432640141,-2.46582296480807,-0.870635196728383,-1.25196510370376,1.55144651234922,-2.84866632634254
1800,0,0,0,0,0,0,0,0,0,0,0,-0.546619718138408,-2.45590963483,-0.877245232072629,-1.25219967237005,1.55283660394286,-2.84970676473028
1900,0,0,0,0,0,0,0,0,0,0,0,-0.545977180975521,-2.4450290542022,-0.882746803727879,-1.25269744235635,1.55414198997495,-2.85075403368585
2000,0,0,0,0,0,0,0,0,0,0,0,-0.544668368399659,-2.43316436600154,-0.883421276914198,-1.25391926726878,1.55492723429431,-2.8518018387688
2100,0,0,0,0,0,0,0,0,0,0,0,-0.543290527248875,-2.42082854783261,-0.884060680243264,-1.25554083647717,1.55586577462227,-2.85301023089764
2200,0,0,0,0,0,0,0,0,0,0,0,-0.541908984671542,-2.40846746689425,-0.884698203068483,-1.25718384063697,1.55681253493618,-2.85422723396994
2300,0,0,0,0,0,0,0,0,0,0,0,-0.54052744209421,-2.3961063859559,-0.885335725893702,-1.25882684479677,1.55775929525008,-2.85544423704223
2400,0,0,0,0,0,0,0,0,0,0,0,-0.539059192017341,-2.38384738028642,-0.886091602142582,-1.26058676530971,1.55872223610732,-2.85659189281977
2500,0,0,0,0,0,0,0,0,0,0,0,-0.536721033468846,-2.37262398011761,-0.888093593949816,-1.26418734201263,1.55985517526275,-2.85701529909826
2600,0,0,0,0,0,0,0,0,0,0,0,-0.534415467017733,-2.36137347925663,-0.890108541652286,-1.26839719627222,1.56098953065543,-2.85743687855765
2700,0,0,0,0,0,0,0,0,0,0,0,-0.532109900566619,-2.35012297839565,-0.892123489354757,-1.27260705053181,1.56212388604812,-2.85785845801705
2800,0,0,0,0,0,0,0,0,0,0,0,-0.529804334115506,-2.33887247753467,-0.894138437057228,-1.27681690479139,1.5632582414408,-2.85828003747644
2900,0,0,0,0,0,0,0,0,0,0,0,-0.527498767664393,-2.3276219766737,-0.896153384759698,-1.28102675905098,1.56439259683349,-2.85870161693583
3000,0,0,0,0,0,0,0,0,0,0,0,-0.525193201213279,-2.31637147581272,-0.898168332462169,-1.28523661331057,1.56552695222617,-2.85912319639523
3100,0,0,0,0,0,0,0,0,0,0,0,-0.522887634762166,-2.30512097495174,-0.90018328016464,-1.28944646757016,1.56666130761886,-2.85954477585462
3200,0,0,0,0,0,0,0,0,0,0,0,-0.519775060245514,-2.29390120817731,-0.902114342390627,-1.29474095841223,1.56805746156836,-2.86015871986649
3300,0,0,0,0,0,0,0,0,0,0,0,-0.516432178350984,-2.2826902124266,-0.904021465024242,-1.30034498743358,1.56952832869822,-2.86082756168864
3400,0,0,0,0,0,0,0,0,0,0,0,-0.512646599939229,-2.27478328361929,-0.905780331527935,-1.30359618701514,1.57414611076686,-2.86153715273564
3500,0,0,0,0,0,0,0,0,0,0,0,-0.507884798557978,-2.26929001596466,-0.907656342288939,-1.30480859380014,1.58131946758591,-2.86225331232678
3600,0,0,0,0,0,0,0,0,0,0,0,-0.503237747812477,-2.26141713301558,-0.908010161926696,-1.30708804970937,1.58732590632798,-2.86257607311925
3700,0,0,0,0,0,0,0,0,0,0,0,-0.498590697066975,-2.2535442500665,-0.908363981564453,-1.30936750561859,1.59333234507004,-2.86289883391172
3800,0,0,0,0,0,0,0,0,0,0,0,-0.49381750060245,-2.24843146048437,-0.911142689012062,-1.30898430368575,1.60107546488404,-2.86245104657132
3900,0,0,0,0,0,0,0,0,0,0,0,-0.489816743544404,-2.24474458427571,-0.91630843069505,-1.30845744809943,1.60920734142169,-2.86228275386302
4000,0,0,0,0,0,0,0,0,0,0,0,-0.485581612523563,-2.24157410276592,-0.921745825015313,-1.30791941602497,1.61731987436405,-2.86207506357747
4100,0,0,0,0,0,0,0,0,0,0,0,-0.480905008765859,-2.23917552503931,-0.927570089400525,-1.30736752846504,1.6254006644043,-2.86179531866855
4200,0,0,0,0,0,0,0,0,0,0,0,-0.476409157913773,-2.23673625452943,-0.93445198524095,-1.30662826383569,1.63351124856073,-2.86174083744596
4300,0,0,0,0,0,0,0,0,0,0,0,-0.471913307061686,-2.23429698401956,-0.941333881081375,-1.30588899920634,1.64162183271716,-2.86168635622337
4400,0,0,0,0,0,0,0,0,0,0,0,-0.468978039240425,-2.2330759548825,-0.94516411565988,-1.30787354344365,1.64313134374592,-2.86221085347593
4500,0,0,0,0,0,0,0,0,0,0,0,-0.466906465232475,-2.23130365921473,-0.955904592663873,-1.30150736975674,1.64332395058929,-2.86321796973687
4600,0,0,0,0,0,0,0,0,0,0,0,-0.464834891224524,-2.22953136354697,-0.966645069667868,-1.29514119606984,1.64351655743266,-2.8642250859978
4700,0,0,0,0,0,0,0,0,0,0,0,-0.462763317216574,-2.22775906787921,-0.977385546671862,-1.28877502238293,1.64370916427603,-2.86523220225873
4800,0,0,0,0,0,0,0,0,0,0,0,-0.458530140476744,-2.22569283394364,-0.988736637621902,-1.28401733684497,1.64348708761852,-2.86661130626098
4900,0,0,0,0,0,0,0,0,0,0,0,-0.452343017066555,-2.22336089915046,-1.00063968341043,-1.28071361878059,1.64289016435582,-2.86832666271047
5000,0,0,0,0,0,0,0,0,0,0,0,-0.446155893656365,-2.22102896435728,-1.01254272919896,-1.27740990071621,1.64229324109312,-2.87004201915996
5100,0,0,0,0,0,0,0,0,0,0,0,-0.439968770246176,-2.2186970295641,-1.02444577498748,-1.27410618265183,1.64169631783042,-2.87175737560945
5200,0,0,0,0,0,0,0,0,0,0,0,-0.43376435587664,-2.21651379177416,-1.03633779771527,-1.27083851192579,1.64114605886174,-2.8734057299869
5300,0,0,0,0,0,0,0,0,0,0,0,-0.427198311027066,-2.21580205871305,-1.0471817278289,-1.26712204431256,1.64108180200511,-2.8749145993884
5400,0,0,0,0,0,0,0,0,0,0,0,-0.417996842292786,-2.21622836701057,-1.0575407236094,-1.26290848670937,1.64101568392946,-2.87637886940151
5500,0,0,0,0,0,0,0,0,0,0,0,-0.406915127841063,-2.21793785018433,-1.07090957485546,-1.24423989702397,1.6418207356992,-2.87751993656882
5600,0,0,0,0,0,0,0,0,0,0,0,-0.395804647320192,-2.21998733926504,-1.08585037273707,-1.2209110229022,1.64335873100848,-2.87858780656948
5700,0,0,0,0,0,0,0,0,0,0,0,-0.383666894184319,-2.22201786555136,-1.10149177003825,-1.19681623827356,1.6458625358598,-2.87988385468606
5800,0,0,0,0,0,0,0,0,0,0,0,-0.370592896302232,-2.22405487416588,-1.11735939593547,-1.17156026129055,1.64905971858108,-2.88138941715064
5900,0,0,0,0,0,0,0,0,0,0,0,-0.357518898420145,-2.22609188278041,-1.13322702183269,-1.14630428430754,1.65225690130236,-2.88289497961523
6000,0,0,0,0,0,0,0,0,0,0,0,-0.344444900538059,-2.22812889139493,-1.14909464772992,-1.12104830732453,1.65545408402363,-2.88440054207981
6100,0,0,0,0,0,0,0,0,0,0,0,-0.331600678659489,-2.23156452969246,-1.16481733085682,-1.09638647152147,1.65834087158983,-2.88572670364507
6200,0,0,0,0,0,0,0,0,0,0,0,-0.319936425832343,-2.234651246464,-1.18081332769033,-1.07169806308837,1.66115707367893,-2.88696235974486
6300,0,0,0,0,0,0,0,0,0,0,0,-0.3082953341153,-2.23768524442286,-1.19682088728504,-1.04699038831542,1.66398116857844,-2.88820129923124
6400,0,0,0,0,0,0,0,0,0,0,0,-0.296650644830566,-2.24071708713769,-1.21282773745356,-1.02228390651955,1.66680397341604,-2.88944449213982
6500,0,0,0,0,0,0,0,0,0,0,0,-0.285436222197661,-2.24367447582421,-1.2288247784032,-0.997616899191936,1.66959575343952,-2.89066601299262
6600,0,0,0,0,0,0,0,0,0,0,0,-0.282676678160968,-2.24661711020733,-1.24677266813767,-0.970568734496787,1.67122398593717,-2.89109928582194
6700,0,0,0,0,0,0,0,0,0,0,0,-0.280299327954505,-2.24887228611129,-1.26426721679475,-0.945729458275804,1.6615068496148,-2.89147779740769
6800,0,0,0,0,0,0,0,0,0,0,0,-0.277921977748042,-2.25112746201524,-1.28176176545182,-0.920890182054819,1.65178971329242,-2.89185630899344
6900,0,0,0,0,0,0,0,0,0,0,0,-0.274854211349518,-2.25744137450003,-1.29738643857594,-0.896851643101739,1.64478627007178,-2.8920806808101
7000,0,0,0,0,0,0,0,0,0,0,0,-0.271475561131654,-2.2655828738005,-1.31216913543407,-0.873173663855972,1.63900476122303,-2.89223564585345
7100,0,0,0,0,0,0,0,0,0,0,0,-0.267679639831334,-2.27652150581423,-1.32179207987795,-0.854365025463694,1.64332205431567,-2.89218060076324
7200,0,0,0,0,0,0,0,0,0,0,0,-0.265839250388326,-2.28184602845167,-1.32346684337113,-0.842969820785011,1.65973723080959,-2.89222998309381
7300,0,0,0,0,0,0,0,0,0,0,0,-0.263608736083776,-2.28657640433187,-1.32547527970453,-0.827380567574054,1.67628372464321,-2.89272843745095
7400,0,0,0,0,0,0,0,0,0,0,0,-0.259822821925628,-2.28609592401776,-1.33560724501942,-0.812812463909862,1.69074615308218,-2.89319513373623
7500,0,0,0,0,0,0,0,0,0,0,0,-0.2564566756933,-2.28429103266555,-1.34523282584222,-0.800394585291559,1.69329316286233,-2.89364973249883
7600,0,0,0,0,0,0,0,0,0,0,0,-0.253898076539501,-2.28230278917111,-1.35400574075498,-0.78898003785647,1.69387117367734,-2.89387533101035
7700,0,0,0,0,0,0,0,0,0,0,0,-0.25195514159107,-2.28118881715273,-1.36181481710469,-0.777860051318243,1.69443041131164,-2.89393062339804
7800,0,0,0,0,0,0,0,0,0,0,0,-0.250234077267702,-2.28227533521263,-1.36917459747906,-0.766224157283195,1.69502201689507,-2.89384744932246
7900,0,0,0,0,0,0,0,0,0,0,0,-0.248504730316357,-2.28365741442796,-1.37677395957718,-0.754403238037042,1.69560028167079,-2.89371393094414
8000,0,0,0,0,0,0,0,0,0,0,0,-0.246775383365011,-2.28503949364329,-1.38437332167531,-0.74258231879089,1.69617854644652,-2.89358041256582
8100,0,0,0,0,0,0,0,0,0,0,0,-0.245264318566688,-2.28650820035482,-1.39584598871759,-0.723734354008133,1.69788696368662,-2.89336434353716
8200,0,0,0,0,0,0,0,0,0,0,0,-0.244646320731732,-2.2882124383669,-1.42280496122143,-0.67672341391916,1.7041157893114,-2.89281580888229
8300,0,0,0,0,0,0,0,0,0,0,0,-0.244140432196659,-2.28945084286669,-1.45020495666807,-0.628623323006206,1.71048109142787,-2.89224752856975
8400,0,0,0,0,0,0,0,0,0,0,0,-0.243634543661585,-2.29068924736647,-1.47760495211472,-0.580523232093251,1.71684639354434,-2.8916792482572
8500,0,0,0,0,0,0,0,0,0,0,0,-0.243128655126512,-2.29192765186625,-1.50500494756136,-0.532423141180297,1.72321169566081,-2.89111096794465
8600,0,0,0,0,0,0,0,0,0,0,0,-0.242622766591438,-2.29316605636604,-1.53240494300801,-0.484323050267343,1.72957699777728,-2.8905426876321
8700,0,0,0,0,0,0,0,0,0,0,0,-0.242116878056364,-2.29440446086582,-1.55980493845466,-0.436222959354389,1.73594229989375,-2.88997440731955
8800,0,0,0,0,0,0,0,0,0,0,0,-0.241610989521291,-2.2956428653656,-1.5872049339013,-0.388122868441435,1.74230760201022,-2.889406127007
8900,0,0,0,0,0,0,0,0,0,0,0,-0.240704672471053,-2.29666398439642,-1.61444779325257,-0.34004976718149,1.74849671408443,-2.88891375199831
9000,0,0,0,0,0,0,0,0,0,0,0,-0.239604452462913,-2.29708158015119,-1.64161015866695,-0.291819266783268,1.75460815249303,-2.88847494283686
9100,0,0,0,0,0,0,0,0,0,0,0,-0.238727817391345,-2.29106034956773,-1.6668901737253,-0.245099079360927,1.76042056305829,-2.88819098163096
9200,0,0,0,0,0,0,0,0,0,0,0,-0.236435863186741,-2.28343000674811,-1.67166250397218,-0.234041113836285,1.76074292434733,-2.88813361431552
9300,0,0,0,0,0,0,0,0,0,0,0,-0.234332832792589,-2.27630777309738,-1.67552768842521,-0.223144662919521,1.76105880719874,-2.88811390358319
9400,0,0,0,0,0,0,0,0,0,0,0,-0.232229802398436,-2.26918553944665,-1.67939287287823,-0.212248212002758,1.76137469005015,-2.88809419285086
9500,0,0,0,0,0,0,0,0,0,0,0,-0.230126772004283,-2.26206330579593,-1.68325805733126,-0.201351761085994,1.76169057290156,-2.88807448211853
9600,0,0,0,0,0,0,0,0,0,0,0,-0.22802374161013,-2.2549410721452,-1.68712324178428,-0.190455310169231,1.76200645575297,-2.8880547713862
9700,0,0,0,0,0,0,0,0,0,0,0,-0.224917836975543,-2.24953278299111,-1.69169257263515,-0.179555117071474,1.76224781658114,-2.88784325497383
9800,0,0,0,0,0,0,0,0,0,0,0,-0.220982340158184,-2.24554229369544,-1.69684438364518,-0.168651828387079,1.76242753170595,-2.88747307410847
9900,0,0,0,0,0,0,0,0,0,0,0,-0.217046843340825,-2.24155180439978,-1.70199619465521,-0.157748539702683,1.76260724683076,-2.88710289324311
10000,0,0,0,0,0,0,0,0,0,0,0,-0.213111346523466,-2.23756131510412,-1.70714800566524,-0.146845251018288,1.76278696195558,-2.88673271237775
10100,0,0,0,0,0,0,0,0,0,0,0,-0.209024689061462,-2.2384202550835,-1.71135442174988,-0.135881359720671,1.76285223679227,-2.88602150004855
10200,0,0,0,0,0,0,0,0,0,0,0,-0.204926733736206,-2.23964164514988,-1.7154901782881,-0.124912938936967,1.76290895827351,-2.88528479876452
10300,0,0,0,0,0,0,0,0,0,0,0,-0.20082877841095,-2.24086303521625,-1.71962593482632,-0.113944518153263,1.76296567975474,-2.88454809748049
10400,0,0,0,0,0,0,0,0,0,0,0,-0.196730823085695,-2.24208442528262,-1.72376169136454,-0.102976097369559,1.76302240123597,-2.88381139619646
10500,0,0,0,0,0,0,0,0,0,0,0,-0.192632867760439,-2.24330581534899,-1.72789744790275,-0.0920076765858545,1.76307912271721,-2.88307469491243
10600,0,0,0,0,0,0,0,0,0,0,0,-0.18750161201011,-2.24378994679317,-1.72885021268704,-0.0860596688242568,1.76195404800271,-2.88232850819602
10700,0,0,0,0,0,0,0,0,0,0,0,-0.17678139552197,-2.2453534768511,-1.72595989661026,-0.0845411489466956,1.76003092243019,-2.88184475435202
10800,0,0,0,0,0,0,0,0,0,0,0,-0.164983482839684,-2.24726124672482,-1.72150858344094,-0.0852982941519134,1.75775429919399,-2.88144280435589
10900,0,0,0,0,0,0,0,0,0,0,0,-0.153230610826636,-2.24923779202111,-1.71485311868369,-0.0902470691688309,1.75491493153865,-2.88112711636702
11000,0,0,0,0,0,0,0,0,0,0,0,-0.141477738813589,-2.25121433731739,-1.70819765392645,-0.0951958441857483,1.75207556388331,-2.88081142837815
11100,0,0,0,0,0,0,0,0,0,0,0,-0.129724866800541,-2.25319088261367,-1.7015421891692,-0.100144619202665,1.74923619622797,-2.88049574038928
11200,0,0,0,0,0,0,0,0,0,0,0,-0.117732394547843,-2.25536821924169,-1.69553696025362,-0.10512161304969,1.7465064965116,-2.88018241590507
11300,0,0,0,0,0,0,0,0,0,0,0,-0.105632203684012,-2.25763582691206,-1.68982406202132,-0.110111293416527,1.7438261009115,-2.87987015399676
11400,0,0,0,0,0,0,0,0,0,0,0,-0.0935015736880975,-2.25990363922391,-1.68409316354149,-0.115095404834989,1.74112044923418,-2.87955916642782
11500,0,0,0,0,0,0,0,0,0,0,0,-0.0812481778376779,-2.26217227688735,-1.67828966720429,-0.120057055800117,1.73831293578588,-2.87925331847199
11600,0,0,0,0,0,0,0,0,0,0,0,-0.0689947819872581,-2.26444091455078,-1.67248617086708,-0.125018706765244,1.73550542233758,-2.87894747051616
11700,0,0,0,0,0,0,0,0,0,0,0,-0.0569868735311989,-2.26663038127049,-1.66590257766641,-0.133013907766515,1.73245741394887,-2.87887605826153
11800,0,0,0,0,0,0,0,0,0,0,0,-0.0451126922152545,-2.26876294704867,-1.65761693213838,-0.144556100458278,1.72911651547041,-2.87889115413151
11900,0,0,0,0,0,0,0,0,0,0,0,-0.0332660750436224,-2.2708800389898,-1.64935047425266,-0.156092317657619,1.72577995139684,-2.87891145091217
12000,0,0,0,0,0,0,0,0,0,0,0,-0.0226460623716833,-2.2723085451386,-1.64193786650393,-0.16736262542721,1.72263626835306,-2.87916318823314
12100,0,0,0,0,0,0,0,0,0,0,0,-0.0120260496997438,-2.2737370512874,-1.6345252587552,-0.178632933196803,1.71949258530929,-2.87941492555411
12200,0,0,0,0,0,0,0,0,0,0,0,0.00130044346369873,-2.27507124866665,-1.62753944298183,-0.188748314434828,1.711772331711,-2.87978003982922
12300,0,0,0,0,0,0,0,0,0,0,0,0.0151569117400065,-2.27638697877782,-1.62063720036778,-0.198637541329292,1.70315590742026,-2.88016735524866
12400,0,0,0,0,0,0,0,0,0,0,0,0.028809558035847,-2.27759019151415,-1.61407927698871,-0.207729971845855,1.69507550190462,-2.88007432686056
12500,0,0,0,0,0,0,0,0,0,0,0,0.0424071739764473,-2.2787630254312,-1.60761431713483,-0.216607273515033,1.68713981730446,-2.87985160936677
12600,0,0,0,0,0,0,0,0,0,0,0,0.0561878989992997,-2.27991077402652,-1.60130450623,-0.225113738280502,1.67916251466001,-2.87960262625634
12700,0,0,0,0,0,0,0,0,0,0,0,0.0702917462041946,-2.28101425598145,-1.59526847785051,-0.232965808255528,1.67111177102008,-2.87930729370624
12800,0,0,0,0,0,0,0,0,0,0,0,0.0843955934090895,-2.28211773793638,-1.58923244947103,-0.240817878230555,1.66306102738015,-2.87901196115615
12900,0,0,0,0,0,0,0,0,0,0,0,0.0981661759604894,-2.28326078457562,-1.58310145522703,-0.248402664753939,1.65571626618257,-2.87867344623056
13000,0,0,0,0,0,0,0,0,0,0,0,0.111751282376364,-2.28442585066597,-1.57691760838865,-0.255838696522862,1.64876441462536,-2.87831089845287
13100,0,0,0,0,0,0,0,0,0,0,0,0.125336388792238,-2.28559091675632,-1.57073376155027,-0.263274728291786,1.64181256306815,-2.87794835067518
13200,0,0,0,0,0,0,0,0,0,0,0,0.138921495208112,-2.28675598284668,-1.56454991471189,-0.27071076006071,1.63486071151094,-2.87758580289749
13300,0,0,0,0,0,0,0,0,0,0,0,0.152506601623987,-2.28792104893703,-1.55836606787351,-0.278146791829633,1.62790885995373,-2.87722325511981
13400,0,0,0,0,0,0,0,0,0,0,0,0.166091708039861,-2.28908611502739,-1.55218222103513,-0.285582823598557,1.62095700839652,-2.87686070734212
13500,0,0,0,0,0,0,0,0,0,0,0,0.179676814455736,-2.29025118111774,-1.54599837419675,-0.293018855367481,1.61400515683931,-2.87649815956443
13600,0,0,0,0,0,0,0,0,0,0,0,0.19326192087161,-2.29141624720809,-1.53981452735837,-0.300454887136405,1.6070533052821,-2.87613561178674
13700,0,0,0,0,0,0,0,0,0,0,0,0.206847027287484,-2.29258131329845,-1.53363068051999,-0.307890918905328,1.60010145372489,-2.87577306400905
13800,0,0,0,0,0,0,0,0,0,0,0,0.220432133703358,-2.2937463793888,-1.52744683368161,-0.315326950674252,1.59314960216768,-2.87541051623136
13900,0,0,0,0,0,0,0,0,0,0,0,0.234017240119233,-2.29491144547915,-1.52126298684323,-0.322762982443175,1.58619775061047,-2.87504796845367
14000,0,0,0,0,0,0,0,0,0,0,0,0.247697458823817,-2.29589238289481,-1.51520755437558,-0.329599671464171,1.57922821168679,-2.87466441723986
14100,0,0,0,0,0,0,0,0,0,0,0,0.261712131684825,-2.29622584771357,-1.50960367996229,-0.334328823426738,1.57219647666511,-2.87420700925523
14200,0,0,0,0,0,0,0,0,0,0,0,0.275726804545833,-2.29655931253233,-1.503999805549,-0.339057975389304,1.56516474164343,-2.87374960127059
14300,0,0,0,0,0,0,0,0,0,0,0,0.289741477406841,-2.29689277735109,-1.49839593113571,-0.343787127351871,1.55813300662175,-2.87329219328595
14400,0,0,0,0,0,0,0,0,0,0,0,0.303756150267849,-2.29722624216985,-1.49279205672243,-0.348516279314437,1.55110127160007,-2.87283478530132
14500,0,0,0,0,0,0,0,0,0,0,0,0.317770823128857,-2.29755970698861,-1.48718818230914,-0.353245431277003,1.54406953657839,-2.87237737731668
14600,0,0,0,0,0,0,0,0,0,0,0,0.331785495989865,-2.29789317180737,-1.48158430789585,-0.35797458323957,1.53703780155671,-2.87191996933204
14700,0,0,0,0,0,0,0,0,0,0,0,0.345601359319783,-2.29901866433754,-1.47603632445737,-0.364194787919079,1.52649766684864,-2.86398308496111
14800,0,0,0,0,0,0,0,0,0,0,0,0.359470041195536,-2.30031422739409,-1.47041818457399,-0.370766404572936,1.51499960786039,-2.8539764091218
14900,0,0,0,0,0,0,0,0,0,0,0,0.37333872307129,-2.30160979045064,-1.46480004469061,-0.377338021226794,1.50350154887214,-2.84396973328249
15000,0,0,0,0,0,0,0,0,0,0,0,0.387207404947044,-2.30290535350718,-1.45918190480723,-0.383909637880651,1.49200348988389,-2.83396305744318
15100,0,0,0,0,0,0,0,0,0,0,0,0.401076086822797,-2.30420091656373,-1.45356376492385,-0.390481254534508,1.48050543089564,-2.82395638160388
15200,0,0,0,0,0,0,0,0,0,0,0,0.414944768698551,-2.30549647962027,-1.44794562504047,-0.397052871188366,1.46900737190739,-2.81394970576457
15300,0,0,0,0,0,0,0,0,0,0,0,0.427909549373549,-2.30743976981878,-1.44108902290302,-0.404952819043831,1.4576134735766,-2.80338752788845
15400,0,0,0,0,0,0,0,0,0,0,0,0.440211678823092,-2.30985790968451,-1.43332450236734,-0.41382656834775,1.44629593556843,-2.79241811069775
15500,0,0,0,0,0,0,0,0,0,0,0,0.45288560833588,-2.3122711051907,-1.42454790413257,-0.422993198277223,1.4346630582243,-2.78117148704646
15600,0,0,0,0,0,0,0,0,0,0,0,0.466230861465322,-2.31467537314237,-1.41394389453222,-0.432688654584725,1.42246080296868,-2.76942433834935
15700,0,0,0,0,0,0,0,0,0,0,0,0.479908293896382,-2.31669768802307,-1.40363303452176,-0.448194647342796,1.40841043243169,-2.75707271527924
15800,0,0,0,0,0,0,0,0,0,0,0,0.493680643611948,-2.31862629061921,-1.39339597276715,-0.465079192375803,1.39387496099601,-2.74456297438375
15900,0,0,0,0,0,0,0,0,0,0,0,0.507979256455683,-2.32018363371267,-1.38284501683099,-0.480828016363082,1.37636383215477,-2.73163592579531
16000,0,0,0,0,0,0,0,0,0,0,0,0.520790073186349,-2.32284616860971,-1.37133127740327,-0.494796690540951,1.35629567584771,-2.71915629236927
16100,0,0,0,0,0,0,0,0,0,0,0,0.534013007217244,-2.32502525396741,-1.36000277802201,-0.50738996505031,1.3348545682226,-2.70630267968643
16200,0,0,0,0,0,0,0,0,0,0,0,0.54723594124814,-2.32720433932512,-1.34867427864074,-0.519983239559669,1.3134134605975,-2.69344906700358
16300,0,0,0,0,0,0,0,0,0,0,0,0.560458875279035,-2.32938342468282,-1.33734577925948,-0.532576514069028,1.29197235297239,-2.68059545432073
16400,0,0,0,0,0,0,0,0,0,0,0,0.567299789043188,-2.3311068251721,-1.32341527897754,-0.556099773052703,1.27872771369134,-2.66068635380121
16500,0,0,0,0,0,0,0,0,0,0,0,0.5730556539323,-2.32829141877167,-1.30844999833836,-0.586335354924071,1.26914401631331,-2.64036747018977
16600,0,0,0,0,0,0,0,0,0,0,0,0.577806812492361,-2.32397828716849,-1.2971370846833,-0.617495007367762,1.26041129629217,-2.61566083916558
16700,0,0,0,0,0,0,0,0,0,0,0,0.581788326503237,-2.32172832761761,-1.28894540084777,-0.649131095827472,1.25281097904939,-2.58568537750641
16800,0,0,0,0,0,0,0,0,0,0,0,0.586087813367964,-2.32209931299332,-1.2805725960765,-0.681202805888993,1.24602627829172,-2.5548078585259
16900,0,0,0,0,0,0,0,0,0,0,0,0.590339999076485,-2.32255844882797,-1.27227872013213,-0.712374796125205,1.23938599297324,-2.52525153377778
17000,0,0,0,0,0,0,0,0,0,0,0,0.593539742472026,-2.32372238997436,-1.2661954756252,-0.73730980357532,1.23492007478261,-2.50052548516149
17100,0,0,0,0,0,0,0,0,0,0,0,0.59641210027008,-2.3250162574304,-1.26592152077311,-0.751705454189716,1.23214919044921,-2.4756756248015
17200,0,0,0,0,0,0,0,0,0,0,0,0.59889712473384,-2.32701326933948,-1.26609768094714,-0.763655748770306,1.22985660809427,-2.45544257367644
17300,0,0,0,0,0,0,0,0,0,0,0,0.600106386628022,-2.32767499303077,-1.26693827294777,-0.771563754218975,1.2288542608033,-2.44061846030357
17400,0,0,0,0,0,0,0,0,0,0,0,0.601229720316553,-2.32812644380832,-1.26779039400557,-0.779385818890868,1.22793468774129,-2.4257622481691
17500,0,0,0,0,0,0,0,0,0,0,0,0.602353054005085,-2.32857789458587,-1.26864251506336,-0.787207883562761,1.22701511467927,-2.41090603603463
17600,0,0,0,0,0,0,0,0,0,0,0,0.603476387693617,-2.32902934536342,-1.26949463612116,-0.795029948234654,1.22609554161726,-2.39604982390016
17700,0,0,0,0,0,0,0,0,0,0,0,0.604078444742337,-2.32911863740688,-1.26776063312649,-0.806585467418544,1.22657559598321,-2.38232986138187
17800,0,0,0,0,0,0,0,0,0,0,0,0.60434775139572,-2.32897674997146,-1.26437581032688,-0.820524190394747,1.22794908493728,-2.36933520953378
17900,0,0,0,0,0,0,0,0,0,0,0,0.604617058049103,-2.32883486253603,-1.26099098752728,-0.83446291337095,1.22932257389135,-2.35634055768569
18000,0,0,0,0,0,0,0,0,0,0,0,0.604886364702485,-2.32869297510061,-1.25760616472767,-0.848401636347154,1.23069606284542,-2.34334590583761
18100,0,0,0,0,0,0,0,0,0,0,0,0.605155671355868,-2.32855108766519,-1.25422134192807,-0.862340359323356,1.2320695517995,-2.33035125398952
18200,0,0,0,0,0,0,0,0,0,0,0,0.605459744764956,-2.32864121784843,-1.25078198835473,-0.876470597975072,1.23336531916851,-2.31736241011083
18300,0,0,0,0,0,0,0,0,0,0,0,0.605820923745904,-2.32910808068497,-1.2472597722589,-0.890919453967783,1.23453629557788,-2.3043724897383
18400,0,0,0,0,0,0,0,0,0,0,0,0.606188576805017,-2.32957069512678,-1.24374021205392,-0.905374889980804,1.23570619035426,-2.29138290491176
18500,0,0,0,0,0,0,0,0,0,0,0,0.606562654524133,-2.33002946065974,-1.24021938493128,-0.919832456453296,1.23687378129376,-2.27840091599274
18600,0,0,0,0,0,0,0,0,0,0,0,0.606936732243249,-2.3304882261927,-1.23669855780865,-0.934290022925788,1.23804137223326,-2.26541892707373
18700,0,0,0,0,0,0,0,0,0,0,0,0.607127745706074,-2.33104195033176,-1.23303320546828,-0.948996678306644,1.23949681860948,-2.25248814145883
18800,0,0,0,0,0,0,0,0,0,0,0,0.606243457458702,-2.33215345212555,-1.22851892599737,-0.965166457808953,1.24264309993989,-2.23985811909288
18900,0,0,0,0,0,0,0,0,0,0,0,0.60535916921133,-2.33326495391933,-1.22400464652647,-0.981336237311262,1.2457893812703,-2.22722809672693
19000,0,0,0,0,0,0,0,0,0,0,0,0.604474880963958,-2.33437645571312,-1.21949036705556,-0.997506016813571,1.24893566260071,-2.21459807436098
19100,0,0,0,0,0,0,0,0,0,0,0,0.603590592716585,-2.33548795750691,-1.21497608758465,-1.01367579631588,1.25208194393112,-2.20196805199503
19200,0,0,0,0,0,0,0,0,0,0,0,0.602706304469214,-2.33659945930069,-1.21046180811374,-1.02984557581819,1.25522822526153,-2.18933802962908
19300,0,0,0,0,0,0,0,0,0,0,0,0.60016017984481,-2.33563581444569,-1.20558905356637,-1.03755647305093,1.25660741886378,-2.17835025556498
19400,0,0,0,0,0,0,0,0,0,0,0,0.597410350472651,-2.33441489544328,-1.20067825146614,-1.04419229689935,1.25776526100912,-2.16758531168871
19500,0,0,0,0,0,0,0,0,0,0,0,0.594791856788439,-2.33329356006073,-1.19592639438747,-1.05065005128154,1.25895759406618,-2.15716764955035
19600,0,0,0,0,0,0,0,0,0,0,0,0.592173363104228,-2.33217222467818,-1.19117453730879,-1.05710780566372,1.26014992712324,-2.14674998741199
19700,0,0,0,0,0,0,0,0,0,0,0,0.589554869420016,-2.33105088929563,-1.18642268023012,-1.0635655600459,1.26134226018031,-2.13633232527363
19800,0,0,0,0,0,0,0,0,0,0,0,0.586936375735804,-2.32992955391308,-1.18167082315145,-1.07002331442808,1.26253459323737,-2.12591466313528
19900,0,0,0,0,0,0,0,0,0,0,0,0.584040550966718,-2.32912876334696,-1.17667405908886,-1.07733887882765,1.26422966353262,-2.11671847216597
