igor-lirussi/CNMP-Robotic-Skill-Synthesis/output.csv
Time,ROS secs,ROS nsecs,________p_x________,________p_y________,________p_z________,________q_x________,________q_y________,________q_z________,________q_w________,gripper_position,gripper_force,shoulder_pan_joint,shoulder_lift_joint,elbow_joint,wrist_1_joint,wrist_2_joint,wrist_3_joint
0,0,0,0,0,0,0,0,0,0,0,0,-0.525663951306618,-2.53712205155864,-0.871831840773907,-1.30614848122663,1.563555987766,-2.86918134676939
100,0,0,0,0,0,0,0,0,0,0,0,-0.5257909017482,-2.5374250109045,-0.871004528596486,-1.30643667998735,1.56348613325645,-2.86963738072722
200,0,0,0,0,0,0,0,0,0,0,0,-0.525917852189782,-2.53772797025036,-0.870177216419064,-1.30672487874806,1.5634162787469,-2.87009341468505
300,0,0,0,0,0,0,0,0,0,0,0,-0.526044802631364,-2.53803092959622,-0.869349904241643,-1.30701307750878,1.56334642423735,-2.87054944864288
400,0,0,0,0,0,0,0,0,0,0,0,-0.526181115215449,-2.53821830523597,-0.868476039014244,-1.30725489218803,1.56329436717804,-2.87097526228817
500,0,0,0,0,0,0,0,0,0,0,0,-0.526350525632773,-2.5358334639317,-0.866552170653825,-1.30681176147451,1.56367959330756,-2.87091368216501
600,0,0,0,0,0,0,0,0,0,0,0,-0.526519936050097,-2.53344862262743,-0.864628302293405,-1.30636863076098,1.56406481943708,-2.87085210204184
700,0,0,0,0,0,0,0,0,0,0,0,-0.526689346467421,-2.53106378132315,-0.862704433932985,-1.30592550004746,1.5644500455666,-2.87079052191868
800,0,0,0,0,0,0,0,0,0,0,0,-0.5267320928202,-2.52749008787271,-0.858168652736678,-1.30583956271666,1.56455158756183,-2.87090142876897
900,0,0,0,0,0,0,0,0,0,0,0,-0.526629230376723,-2.52254972953154,-0.850630303406138,-1.30616424301978,1.5643270157105,-2.8712106209077
1000,0,0,0,0,0,0,0,0,0,0,0,-0.526526367933246,-2.51760937119038,-0.843091954075597,-1.30648892332291,1.56410244385916,-2.87151981304644
1100,0,0,0,0,0,0,0,0,0,0,0,-0.526776889863641,-2.51358095837988,-0.834909455432197,-1.30645915219797,1.5638610372662,-2.87176030220416
1200,0,0,0,0,0,0,0,0,0,0,0,-0.527422853644039,-2.510573024839,-0.826006145075579,-1.30603274517507,1.56360079237177,-2.87192391180544
1300,0,0,0,0,0,0,0,0,0,0,0,-0.52783618841204,-2.50696608842231,-0.817842938158645,-1.30574419603059,1.56339589615944,-2.87206649507467
1400,0,0,0,0,0,0,0,0,0,0,0,-0.52642126547748,-2.49865152069913,-0.815496287828315,-1.30653908753463,1.56362599149587,-2.87204383002363
1500,0,0,0,0,0,0,0,0,0,0,0,-0.525008904707296,-2.49033836028458,-0.813155938552211,-1.30733690108392,1.56385896470724,-2.87202234781884
1600,0,0,0,0,0,0,0,0,0,0,0,-0.523646252215873,-2.48205250291525,-0.810937835359467,-1.30819140492243,1.56414777126424,-2.87202381388844
1700,0,0,0,0,0,0,0,0,0,0,0,-0.522283599724449,-2.47376664554591,-0.808719732166722,-1.30904590876095,1.56443657782125,-2.87202527995803
1800,0,0,0,0,0,0,0,0,0,0,0,-0.520767681431348,-2.46566121833546,-0.806710832704397,-1.31010707613709,1.56475398540998,-2.87190416644938
1900,0,0,0,0,0,0,0,0,0,0,0,-0.51663761146261,-2.45669812599784,-0.806079807198416,-1.31487611328194,1.56500546788001,-2.87148112777466
2000,0,0,0,0,0,0,0,0,0,0,0,-0.509960622554012,-2.44583768851223,-0.806003083743967,-1.3233499410053,1.56491805972474,-2.87148059904684
2100,0,0,0,0,0,0,0,0,0,0,0,-0.503236410442747,-2.43445446335364,-0.805899474439061,-1.33273835614024,1.56499480944284,-2.87164937629343
2200,0,0,0,0,0,0,0,0,0,0,0,-0.496496713231223,-2.42296555015496,-0.805787997953698,-1.34221644545008,1.56510594787698,-2.87185417784604
2300,0,0,0,0,0,0,0,0,0,0,0,-0.4897570160197,-2.41147663695629,-0.805676521468335,-1.35169453475993,1.56521708631113,-2.87205897939864
2400,0,0,0,0,0,0,0,0,0,0,0,-0.483017318808176,-2.39998772375761,-0.805565044982972,-1.36117262406977,1.56532822474527,-2.87226378095124
2500,0,0,0,0,0,0,0,0,0,0,0,-0.476277621596652,-2.38849881055894,-0.805453568497609,-1.37065071337961,1.56543936317941,-2.87246858250384
2600,0,0,0,0,0,0,0,0,0,0,0,-0.469100143407182,-2.38259997059155,-0.805816541118021,-1.37544011186517,1.56537091700073,-2.87276495732587
2700,0,0,0,0,0,0,0,0,0,0,0,-0.461887221673913,-2.37715371311494,-0.806217926000518,-1.37984990541821,1.56528793132532,-2.87306874608625
2800,0,0,0,0,0,0,0,0,0,0,0,-0.454674299940643,-2.37170745563833,-0.806619310883016,-1.38425969897125,1.56520494564992,-2.87337253484663
2900,0,0,0,0,0,0,0,0,0,0,0,-0.447461378207374,-2.36626119816172,-0.807020695765513,-1.3886694925243,1.56512195997452,-2.87367632360702
3000,0,0,0,0,0,0,0,0,0,0,0,-0.442064693209634,-2.36117558336008,-0.807422513623733,-1.39067135697415,1.56511602796018,-2.87345395730686
3100,0,0,0,0,0,0,0,0,0,0,0,-0.436824518322604,-2.35612104612883,-0.807824368792661,-1.39246572355594,1.56511673587156,-2.8731862507792
3200,0,0,0,0,0,0,0,0,0,0,0,-0.431224105471585,-2.3509777506555,-0.808138743179623,-1.39416156872485,1.56512120086713,-2.87294696015173
3300,0,0,0,0,0,0,0,0,0,0,0,-0.422627589898166,-2.3450962520018,-0.807725539034604,-1.39503801032484,1.56515691356914,-2.87294400484814
3400,0,0,0,0,0,0,0,0,0,0,0,-0.414031074324746,-2.3392147533481,-0.807312334889585,-1.39591445192482,1.56519262627115,-2.87294104954455
3500,0,0,0,0,0,0,0,0,0,0,0,-0.405424848807967,-2.33332743762595,-0.80689721598197,-1.39679411340583,1.5652248570573,-2.87294957435536
3600,0,0,0,0,0,0,0,0,0,0,0,-0.396818020875847,-2.32743976100661,-0.806481978280423,-1.39767397465172,1.56525687182164,-2.87295881140482
3700,0,0,0,0,0,0,0,0,0,0,0,-0.388211192943728,-2.32155208438727,-0.806066740578875,-1.39855383589761,1.56528888658599,-2.87296804845429
3800,0,0,0,0,0,0,0,0,0,0,0,-0.378122448616603,-2.31474711407066,-0.805759066786201,-1.39977709652737,1.56568469215336,-2.87318117364705
3900,0,0,0,0,0,0,0,0,0,0,0,-0.363138193589601,-2.31037984370256,-0.806342265978721,-1.40038937928751,1.56613888229963,-2.87351405887388
4000,0,0,0,0,0,0,0,0,0,0,0,-0.347686777408893,-2.30620276015927,-0.806887706283581,-1.40160296579887,1.56664996626353,-2.87388816865346
4100,0,0,0,0,0,0,0,0,0,0,0,-0.331772124165343,-2.3022970363423,-0.8073338944863,-1.40379162681527,1.56728735139931,-2.87433745175232
4200,0,0,0,0,0,0,0,0,0,0,0,-0.315857470921792,-2.29839131252534,-0.80778008268902,-1.40598028783167,1.56792473653508,-2.87478673485118
4300,0,0,0,0,0,0,0,0,0,0,0,-0.300451533032341,-2.29758210176263,-0.807905373097383,-1.40948435487881,1.56787491857389,-2.87483883116537
4400,0,0,0,0,0,0,0,0,0,0,0,-0.285133278855959,-2.29730661533118,-0.807975352593862,-1.41321514927759,1.56770665221383,-2.87482246716717
4500,0,0,0,0,0,0,0,0,0,0,0,-0.269815024679577,-2.29703112889973,-0.808045332090342,-1.41694594367637,1.56753838585377,-2.87480610316898
4600,0,0,0,0,0,0,0,0,0,0,0,-0.254496770503195,-2.29675564246828,-0.808115311586821,-1.42067673807515,1.56737011949371,-2.87478973917078
4700,0,0,0,0,0,0,0,0,0,0,0,-0.239178516326813,-2.29648015603682,-0.8081852910833,-1.42440753247393,1.56720185313365,-2.87477337517258
4800,0,0,0,0,0,0,0,0,0,0,0,-0.223860262150431,-2.29620466960537,-0.808255270579779,-1.42813832687271,1.56703358677359,-2.87475701117439
4900,0,0,0,0,0,0,0,0,0,0,0,-0.208542007974049,-2.29592918317392,-0.808325250076258,-1.43186912127149,1.56686532041353,-2.87474064717619
5000,0,0,0,0,0,0,0,0,0,0,0,-0.193223753797666,-2.29565369674247,-0.808395229572738,-1.43559991567027,1.56669705405347,-2.87472428317799
5100,0,0,0,0,0,0,0,0,0,0,0,-0.177865281960285,-2.29535173373575,-0.80844440375793,-1.4393873213501,1.56654064258026,-2.87473066094573
5200,0,0,0,0,0,0,0,0,0,0,0,-0.163315915385697,-2.29511032597951,-0.808522248588635,-1.44332621111247,1.56647284545074,-2.87483220325355
5300,0,0,0,0,0,0,0,0,0,0,0,-0.149092737839208,-2.29489440786889,-0.808612541323009,-1.4473232277974,1.56644002681724,-2.87497085019285
5400,0,0,0,0,0,0,0,0,0,0,0,-0.134869560292719,-2.29467848975828,-0.808702834057382,-1.45132024448233,1.56640720818373,-2.87510949713215
5500,0,0,0,0,0,0,0,0,0,0,0,-0.118797321332051,-2.2942078893719,-0.808687150847128,-1.459121938267,1.5662988127134,-2.87521098467317
5600,0,0,0,0,0,0,0,0,0,0,0,-0.0999351558504346,-2.29351824791394,-0.808529724681145,-1.47259257632106,1.56613632274656,-2.87522550812599
5700,0,0,0,0,0,0,0,0,0,0,0,-0.0779392257103465,-2.29291227865406,-0.808270360167278,-1.49223562808564,1.56603854668639,-2.87511103921698
5800,0,0,0,0,0,0,0,0,0,0,0,-0.0614122031199906,-2.29252181182189,-0.808051615993195,-1.51325693324979,1.56583019222579,-2.87483233641061
5900,0,0,0,0,0,0,0,0,0,0,0,-0.0467029290361557,-2.2922029734114,-0.807846373155769,-1.5347363405186,1.56558508385768,-2.8744990457512
6000,0,0,0,0,0,0,0,0,0,0,0,-0.031993654952321,-2.29188413500091,-0.807641130318343,-1.5562157477874,1.56533997548957,-2.87416575509179
6100,0,0,0,0,0,0,0,0,0,0,0,-0.0172843808684861,-2.29156529659043,-0.807435887480918,-1.5776951550562,1.56509486712147,-2.87383246443238
6200,0,0,0,0,0,0,0,0,0,0,0,-0.00257510678465125,-2.29124645817994,-0.807230644643492,-1.59917456232501,1.56484975875336,-2.87349917377297
6300,0,0,0,0,0,0,0,0,0,0,0,0.0074295834694668,-2.29172426621614,-0.807181629443821,-1.60726805217383,1.56572471801933,-2.87429067016979
6400,0,0,0,0,0,0,0,0,0,0,0,0.0171764389017739,-2.29224573447864,-0.807141176303325,-1.61462792651963,1.566661062617,-2.87514381054634
6500,0,0,0,0,0,0,0,0,0,0,0,0.0238068924222091,-2.29348206748497,-0.808917800115472,-1.6194557750138,1.56717850629467,-2.87557734624479
6600,0,0,0,0,0,0,0,0,0,0,0,0.0243208383399378,-2.29486870211942,-0.819797890200032,-1.61891722230219,1.56701693674498,-2.87546986352267
6700,0,0,0,0,0,0,0,0,0,0,0,0.0242958788623586,-2.29632778820772,-0.832826905799206,-1.61801260692496,1.56686790279224,-2.87549510042095
6800,0,0,0,0,0,0,0,0,0,0,0,0.0241554153405616,-2.29774810346881,-0.846205108341971,-1.617061259085,1.56670762096661,-2.87546786474924
6900,0,0,0,0,0,0,0,0,0,0,0,0.0239081292183942,-2.29913256197175,-0.859906252454294,-1.61606669125888,1.56653693667378,-2.87539210041854
7000,0,0,0,0,0,0,0,0,0,0,0,0.0236608430962267,-2.30051702047468,-0.873607396566616,-1.61507212343277,1.56636625238096,-2.87531633608785
7100,0,0,0,0,0,0,0,0,0,0,0,0.0234135569740592,-2.30190147897761,-0.887308540678938,-1.61407755560666,1.56619556808813,-2.87524057175715
7200,0,0,0,0,0,0,0,0,0,0,0,0.0208780281443083,-2.30701128688741,-0.897046983226014,-1.6139771589031,1.56600996287274,-2.87513213424383
7300,0,0,0,0,0,0,0,0,0,0,0,0.01730599628193,-2.31485438023875,-0.901965782225638,-1.61473910863116,1.56579023742754,-2.87521935066869
7400,0,0,0,0,0,0,0,0,0,0,0,0.0137339644195517,-2.32269747359009,-0.906884581225261,-1.61550105835923,1.56557051198235,-2.87530656709356
7500,0,0,0,0,0,0,0,0,0,0,0,0.00918585591428936,-2.33751188298556,-0.90822857048501,-1.61545871513631,1.56558020986834,-2.87518282716922
7600,0,0,0,0,0,0,0,0,0,0,0,0.00444678415877758,-2.35369018647685,-0.908873170724513,-1.615259017061,1.56563479298473,-2.87501781496326
7700,0,0,0,0,0,0,0,0,0,0,0,-0.000286647878326052,-2.36986511130498,-0.909516658833755,-1.61506118915336,1.56568735373866,-2.87485947062445
7800,0,0,0,0,0,0,0,0,0,0,0,-0.00501472236149217,-2.38603682651006,-0.910159090454456,-1.61486513784581,1.56573799331227,-2.87470746054835
7900,0,0,0,0,0,0,0,0,0,0,0,-0.00923738737753765,-2.40208401498472,-0.910678787605679,-1.61453086219835,1.56579390402914,-2.87459531763342
8000,0,0,0,0,0,0,0,0,0,0,0,-0.00944590518663599,-2.41714216653067,-0.910223682621396,-1.61309875818774,1.5658916800975,-2.87479981432272
8100,0,0,0,0,0,0,0,0,0,0,0,-0.00965442299573435,-2.43220031807661,-0.909768577637114,-1.61166665417714,1.56598945616585,-2.87500431101202
8200,0,0,0,0,0,0,0,0,0,0,0,-0.00986294080483277,-2.44725846962256,-0.909313472652831,-1.61023455016653,1.5660872322342,-2.87520880770133
8300,0,0,0,0,0,0,0,0,0,0,0,-0.0100714586139311,-2.46231662116851,-0.908858367668549,-1.60880244615592,1.56618500830256,-2.87541330439063
8400,0,0,0,0,0,0,0,0,0,0,0,-0.0102221590763137,-2.4748305400171,-0.908781460900862,-1.60773993464997,1.56630956722712,-2.87560789510193
8500,0,0,0,0,0,0,0,0,0,0,0,-0.00989025697516091,-2.48180893457005,-0.909356498439906,-1.60747742369789,1.56633137716332,-2.87585017763455
8600,0,0,0,0,0,0,0,0,0,0,0,-0.00973332438369631,-2.48623160414755,-0.909689765630263,-1.6072957908752,1.56636475601082,-2.87601082559868
8700,0,0,0,0,0,0,0,0,0,0,0,-0.00979834320121961,-2.48741229882156,-0.909716343560082,-1.60721675315496,1.56641281019329,-2.87606791890618
8800,0,0,0,0,0,0,0,0,0,0,0,-0.00986336201874302,-2.48859299349557,-0.909742921489902,-1.60713771543472,1.56646086437576,-2.87612501221367
8900,0,0,0,0,0,0,0,0,0,0,0,-0.00992838083626629,-2.48977368816958,-0.909769499419721,-1.60705867771448,1.56650891855823,-2.87618210552116
9000,0,0,0,0,0,0,0,0,0,0,0,-0.00999339965378965,-2.49095438284359,-0.909796077349541,-1.60697963999424,1.56655697274071,-2.87623919882866
9100,0,0,0,0,0,0,0,0,0,0,0,-0.010058418471313,-2.4921350775176,-0.90982265527936,-1.606900602274,1.56660502692318,-2.87629629213615
9200,0,0,0,0,0,0,0,0,0,0,0,-0.0101234372888363,-2.49331577219161,-0.90984923320918,-1.60682156455376,1.56665308110565,-2.87635338544365
9300,0,0,0,0,0,0,0,0,0,0,0,-0.0101884561063597,-2.49449646686562,-0.909875811139,-1.60674252683352,1.56670113528812,-2.87641047875114
9400,0,0,0,0,0,0,0,0,0,0,0,-0.010253474923883,-2.49567716153963,-0.909902389068819,-1.60666348911329,1.5667491894706,-2.87646757205863
9500,0,0,0,0,0,0,0,0,0,0,0,-0.0103184937414063,-2.49685785621364,-0.909928966998639,-1.60658445139305,1.56679724365307,-2.87652466536613
9600,0,0,0,0,0,0,0,0,0,0,0,-0.0110149796111809,-2.49591442170038,-0.909528854940764,-1.60504191818208,1.56555657151928,-2.87390810371049
9700,0,0,0,0,0,0,0,0,0,0,0,-0.0110207875402629,-2.49774557970847,-0.910329020819396,-1.60492419097747,1.56543218070983,-2.87370311926655
9800,0,0,0,0,0,0,0,0,0,0,0,-0.0110265954693449,-2.49957673771656,-0.911129186698028,-1.60480646377285,1.56530778990038,-2.87349813482261
9900,0,0,0,0,0,0,0,0,0,0,0,-0.0105697509125297,-2.49944194221813,-0.91138028504146,-1.60429716586549,1.56515526245586,-2.87312621030593
10000,0,0,0,0,0,0,0,0,0,0,0,-0.0100421020882726,-2.49764406246157,-0.911245252755502,-1.60381049366406,1.56499644592004,-2.87274668239099
10100,0,0,0,0,0,0,0,0,0,0,0,-0.0101913116555848,-2.48881945625709,-0.911233779465172,-1.60155977023027,1.56533163459561,-2.87267349686661
10200,0,0,0,0,0,0,0,0,0,0,0,-0.0104942965788499,-2.47902448924252,-0.91303021230556,-1.5934292506606,1.56624109217937,-2.87243818752694
10300,0,0,0,0,0,0,0,0,0,0,0,-0.0112641391623979,-2.46902451106208,-0.918424179068857,-1.57414645100388,1.56810464260871,-2.87175471189361
10400,0,0,0,0,0,0,0,0,0,0,0,-0.0147762693450006,-2.44749079621614,-0.946964038312946,-1.51279951420273,1.57270917039509,-2.87078406664365
10500,0,0,0,0,0,0,0,0,0,0,0,-0.0202424966792863,-2.41896273468193,-0.991008139915125,-1.41974170887399,1.57980125502719,-2.86924387906828
10600,0,0,0,0,0,0,0,0,0,0,0,-0.0295402926885022,-2.38724429261829,-1.04601050006325,-1.30956685204215,1.58982830016992,-2.86909875095543
10700,0,0,0,0,0,0,0,0,0,0,0,-0.0435340332886817,-2.35227897368517,-1.11060321221003,-1.18716494269857,1.60320610820527,-2.87126863494855
10800,0,0,0,0,0,0,0,0,0,0,0,-0.0532952885822122,-2.3245471089639,-1.17816767212186,-1.06474724002275,1.61626940684784,-2.87262903088248
10900,0,0,0,0,0,0,0,0,0,0,0,-0.0621017714223421,-2.29844698123023,-1.24640250480498,-0.942325974655625,1.62926175783606,-2.87380682089003
11000,0,0,0,0,0,0,0,0,0,0,0,-0.0680664021956623,-2.27643312616882,-1.31321717639117,-0.820110329834752,1.64213281247801,-2.87486757459092
11100,0,0,0,0,0,0,0,0,0,0,0,-0.0639873744344189,-2.27341447891334,-1.37415761813721,-0.698551061500799,1.65446902508979,-2.87518557074808
11200,0,0,0,0,0,0,0,0,0,0,0,-0.0599896438499306,-2.27035095256832,-1.43523539630615,-0.576673980064339,1.66701903610057,-2.8753119752264
11300,0,0,0,0,0,0,0,0,0,0,0,-0.0615270429883995,-2.26502396332967,-1.49918193449211,-0.451252977032588,1.6839128972939,-2.87504846429095
11400,0,0,0,0,0,0,0,0,0,0,0,-0.0644911453897309,-2.25923693576802,-1.56358381053274,-0.325215313082392,1.70201534250659,-2.87490316953385
11500,0,0,0,0,0,0,0,0,0,0,0,-0.06624625330776,-2.2544738355903,-1.62831122659439,-0.205401210728035,1.72009451886634,-2.87485299409261
11600,0,0,0,0,0,0,0,0,0,0,0,-0.0686517880237987,-2.24952289167958,-1.6811081746703,-0.111327607338791,1.73613594695696,-2.87536960112256
11700,0,0,0,0,0,0,0,0,0,0,0,-0.069419521978672,-2.24421361250749,-1.73718208616435,-0.0121520342479736,1.75290732768554,-2.8757871032388
11800,0,0,0,0,0,0,0,0,0,0,0,-0.0669883748500453,-2.2387293242375,-1.79421519517685,0.0894421453547052,1.76525057338472,-2.87622664962592
11900,0,0,0,0,0,0,0,0,0,0,0,-0.0518473697123666,-2.22905632094701,-1.85558196136317,0.207825245466737,1.7589997591051,-2.87673456476558
12000,0,0,0,0,0,0,0,0,0,0,0,-0.0358717835253675,-2.21856993480224,-1.92086745516391,0.325595315879222,1.75456767120501,-2.87732114849198
12100,0,0,0,0,0,0,0,0,0,0,0,-0.0201742025426677,-2.21057843985562,-1.98250249152758,0.433774992388129,1.74990955901888,-2.87810966906579
12200,0,0,0,0,0,0,0,0,0,0,0,-0.00538804870116891,-2.20607615110906,-2.03057999745956,0.509630551717133,1.74480828720089,-2.87869614472965
12300,0,0,0,0,0,0,0,0,0,0,0,0.00937660087226325,-2.2017628951465,-2.07614710457011,0.58028293837483,1.73946663480682,-2.87924204574175
12400,0,0,0,0,0,0,0,0,0,0,0,0.0244408974475234,-2.19794735074788,-2.11671418837136,0.643031294416383,1.73362947500957,-2.87979385755128
12500,0,0,0,0,0,0,0,0,0,0,0,0.0337344349995249,-2.19748166468824,-2.14481105744314,0.709023476588878,1.71841456421617,-2.87905023901421
12600,0,0,0,0,0,0,0,0,0,0,0,0.0446776264103579,-2.19762639902861,-2.16768950940883,0.781441577566842,1.68993202770305,-2.87822575113588
12700,0,0,0,0,0,0,0,0,0,0,0,0.0633054113720609,-2.19716180539332,-2.17813104416247,0.825814449387102,1.6479124167157,-2.87657651654605
12800,0,0,0,0,0,0,0,0,0,0,0,0.0874273943034427,-2.19805473561622,-2.18755195928927,0.8422182188658,1.62148857057603,-2.87320003815083
12900,0,0,0,0,0,0,0,0,0,0,0,0.111621872371938,-2.1987929766882,-2.19523563369399,0.855589251750775,1.59607697626014,-2.87027676707034
13000,0,0,0,0,0,0,0,0,0,0,0,0.136193524740048,-2.19914008193775,-2.19710696170573,0.858765177665712,1.57414992348895,-2.86900619891595
13100,0,0,0,0,0,0,0,0,0,0,0,0.16079468088331,-2.19946951195757,-2.1989724716892,0.86193131993495,1.55221229087616,-2.86777051322189
13200,0,0,0,0,0,0,0,0,0,0,0,0.185655296333877,-2.19987378321392,-2.20126261921846,0.865318666560025,1.53013575524405,-2.86673911802562
13300,0,0,0,0,0,0,0,0,0,0,0,0.20896225392472,-2.20049921399612,-2.2043409121503,0.871496591620661,1.51185551373284,-2.86491297268256
13400,0,0,0,0,0,0,0,0,0,0,0,0.232003387336475,-2.20097789986528,-2.20786826547187,0.878713696766636,1.49427434673038,-2.8624603640011
13500,0,0,0,0,0,0,0,0,0,0,0,0.23801452765847,-2.20727809837946,-2.21742010379841,0.888911230143187,1.49466811505196,-2.86909507083669
13600,0,0,0,0,0,0,0,0,0,0,0,0.261269066342957,-2.20714748899802,-2.21899380856111,0.893234742373672,1.47711118656012,-2.86707517834963
13700,0,0,0,0,0,0,0,0,0,0,0,0.285008101335676,-2.20715093787727,-2.2201312561401,0.897136391879068,1.45785059349487,-2.86127346867316
13800,0,0,0,0,0,0,0,0,0,0,0,0.310681078077814,-2.20768950098296,-2.21952731587619,0.899354111243578,1.43178956048909,-2.84037605232771
13900,0,0,0,0,0,0,0,0,0,0,0,0.336354054819953,-2.20822806408866,-2.21892337561229,0.901571830608087,1.40572852748332,-2.81947863598225
14000,0,0,0,0,0,0,0,0,0,0,0,0.362027031562091,-2.20876662719436,-2.21831943534839,0.903789549972598,1.37966749447755,-2.7985812196368
14100,0,0,0,0,0,0,0,0,0,0,0,0.38770000830423,-2.20930519030006,-2.21771549508449,0.906007269337107,1.35360646147177,-2.77768380329134
14200,0,0,0,0,0,0,0,0,0,0,0,0.413372985046368,-2.20984375340576,-2.21711155482058,0.908224988701617,1.327545428466,-2.75678638694588
14300,0,0,0,0,0,0,0,0,0,0,0,0.439223963748327,-2.2102398621937,-2.21617610602536,0.910027495851666,1.30141622720263,-2.7358148180897
14400,0,0,0,0,0,0,0,0,0,0,0,0.466850523793249,-2.20921497972356,-2.21193383766571,0.907688233652033,1.27460704305325,-2.71410357302594
14500,0,0,0,0,0,0,0,0,0,0,0,0.494477083838171,-2.20819009725342,-2.20769156930605,0.9053489714524,1.24779785890387,-2.69239232796217
14600,0,0,0,0,0,0,0,0,0,0,0,0.520735390819085,-2.20840457018607,-2.20266313966033,0.901960017945473,1.22161531314084,-2.67247299619024
14700,0,0,0,0,0,0,0,0,0,0,0,0.545206621042326,-2.21026559659846,-2.19657356381714,0.896941166889857,1.19640201988954,-2.65523855632596
14800,0,0,0,0,0,0,0,0,0,0,0,0.566897576063274,-2.21013162348784,-2.17750401454314,0.873970322912421,1.17704544838116,-2.64185162400067
14900,0,0,0,0,0,0,0,0,0,0,0,0.586734888040946,-2.21028868685717,-2.15419951933341,0.844457421307687,1.16067649142069,-2.62972687726125
15000,0,0,0,0,0,0,0,0,0,0,0,0.603940888829509,-2.21083548136592,-2.13106041267007,0.814984980439328,1.14747757016419,-2.62015477372578
15100,0,0,0,0,0,0,0,0,0,0,0,0.617815040499221,-2.21120261075642,-2.10693426942345,0.780769383372996,1.1385404279893,-2.60757774088201
15200,0,0,0,0,0,0,0,0,0,0,0,0.625152681246916,-2.21108253903768,-2.0791631144152,0.733596472685931,1.13784261250657,-2.58862707074602
15300,0,0,0,0,0,0,0,0,0,0,0,0.632454671233206,-2.21095460033504,-2.05112284452318,0.685904599226142,1.13715017516412,-2.56985847822621
15400,0,0,0,0,0,0,0,0,0,0,0,0.639756661219495,-2.2108266616324,-2.02308257463117,0.638212725766354,1.13645773782167,-2.5510898857064
15500,0,0,0,0,0,0,0,0,0,0,0,0.647058651205785,-2.21069872292976,-1.99504230473915,0.590520852306566,1.13576530047922,-2.53232129318659
15600,0,0,0,0,0,0,0,0,0,0,0,0.650339557074614,-2.21088713991302,-1.96896908234755,0.540443892328191,1.13539853694388,-2.51425652531258
15700,0,0,0,0,0,0,0,0,0,0,0,0.653441198943476,-2.21079203883056,-1.94271700633938,0.490185665840927,1.13508575994463,-2.4960867330356
15800,0,0,0,0,0,0,0,0,0,0,0,0.656542840812338,-2.2106969377481,-1.91646493033122,0.439927439353661,1.13477298294537,-2.47791694075862
15900,0,0,0,0,0,0,0,0,0,0,0,0.659644482681199,-2.21060183666564,-1.89021285432305,0.389669212866397,1.13446020594611,-2.45974714848164
16000,0,0,0,0,0,0,0,0,0,0,0,0.662746124550061,-2.21050673558319,-1.86396077831488,0.339410986379131,1.13414742894686,-2.44157735620466
16100,0,0,0,0,0,0,0,0,0,0,0,0.664883437977965,-2.21073515312118,-1.84024350575351,0.289289210664813,1.13419770264077,-2.41978312197082
16200,0,0,0,0,0,0,0,0,0,0,0,0.665214778722321,-2.21073347940964,-1.82204598991916,0.239339154172264,1.13494525985035,-2.39076605300224
16300,0,0,0,0,0,0,0,0,0,0,0,0.665546119466676,-2.2107318056981,-1.80384847408481,0.189389097679718,1.13569281705993,-2.36174898403366
16400,0,0,0,0,0,0,0,0,0,0,0,0.665898124679686,-2.21074226774719,-1.78571216766978,0.139658566971352,1.13640931607559,-2.33290989358352
16500,0,0,0,0,0,0,0,0,0,0,0,0.666345940435253,-2.21080899709397,-1.76785965793845,0.0909458647317137,1.13698181417545,-2.30489599824004
16600,0,0,0,0,0,0,0,0,0,0,0,0.66679375619082,-2.21087572644074,-1.75000714820712,0.0422331624920745,1.13755431227531,-2.27688210289657
16700,0,0,0,0,0,0,0,0,0,0,0,0.667241571946387,-2.21094245578752,-1.73215463847579,-0.00647953974756349,1.13812681037517,-2.24886820755309
16800,0,0,0,0,0,0,0,0,0,0,0,0.667689387701954,-2.2110091851343,-1.71430212874446,-0.0551922419872024,1.13869930847503,-2.22085431220961
16900,0,0,0,0,0,0,0,0,0,0,0,0.668137203457521,-2.21107591448108,-1.69644961901313,-0.10390494422684,1.13927180657489,-2.19284041686613
17000,0,0,0,0,0,0,0,0,0,0,0,0.668585019213088,-2.21114264382786,-1.67859710928179,-0.15261764646648,1.13984430467475,-2.16482652152265
17100,0,0,0,0,0,0,0,0,0,0,0,0.669032834968655,-2.21120937317463,-1.66074459955046,-0.201330348706117,1.1404168027746,-2.13681262617918
17200,0,0,0,0,0,0,0,0,0,0,0,0.669480650724222,-2.21127610252141,-1.64289208981913,-0.250043050945757,1.14098930087446,-2.1087987308357
17300,0,0,0,0,0,0,0,0,0,0,0,0.669928466479789,-2.21134283186819,-1.6250395800878,-0.298755753185394,1.14156179897432,-2.08078483549222
17400,0,0,0,0,0,0,0,0,0,0,0,0.670376282235356,-2.21140956121497,-1.60718707035647,-0.347468455425034,1.14213429707418,-2.05277094014874
17500,0,0,0,0,0,0,0,0,0,0,0,0.670824097990923,-2.21147629056175,-1.58933456062514,-0.396181157664671,1.14270679517404,-2.02475704480527
17600,0,0,0,0,0,0,0,0,0,0,0,0.67127191374649,-2.21154301990853,-1.57148205089381,-0.444893859904311,1.1432792932739,-1.99674314946179
17700,0,0,0,0,0,0,0,0,0,0,0,0.671719729502057,-2.2116097492553,-1.55362954116248,-0.493606562143948,1.14385179137376,-1.96872925411831
17800,0,0,0,0,0,0,0,0,0,0,0,0.672167545257624,-2.21167647860208,-1.53577703143115,-0.542319264383588,1.14442428947362,-1.94071535877483
17900,0,0,0,0,0,0,0,0,0,0,0,0.672269502095379,-2.21188046558388,-1.52406161095698,-0.57989790764927,1.14678746676041,-1.91257066538765
18000,0,0,0,0,0,0,0,0,0,0,0,0.672247470750846,-2.21213365853897,-1.51454629723832,-0.613485062875848,1.14979259093945,-1.88437908174884
18100,0,0,0,0,0,0,0,0,0,0,0,0.672036434005392,-2.21222636535161,-1.50376497433717,-0.651069736834218,1.16031244009383,-1.85501358250662
18200,0,0,0,0,0,0,0,0,0,0,0,0.671358483003556,-2.21192261117695,-1.48985613374002,-0.698529781956204,1.18939647951299,-1.82274807126293
18300,0,0,0,0,0,0,0,0,0,0,0,0.67068053200172,-2.21161885700228,-1.47594729314287,-0.745989827078189,1.21848051893215,-1.79048256001924
18400,0,0,0,0,0,0,0,0,0,0,0,0.670002580999883,-2.21131510282762,-1.46203845254572,-0.793449872200175,1.24756455835132,-1.75821704877555
18500,0,0,0,0,0,0,0,0,0,0,0,0.668797733539561,-2.21028584192531,-1.4481553491219,-0.837515356756466,1.27521544564748,-1.72655619315028
18600,0,0,0,0,0,0,0,0,0,0,0,0.666398120931897,-2.20761145675163,-1.43433060607836,-0.87388349852534,1.29961658590167,-1.69626642561531
18700,0,0,0,0,0,0,0,0,0,0,0,0.663998799521247,-2.20512270854373,-1.42098802000649,-0.908861358118365,1.32295080860799,-1.6670087944421
18800,0,0,0,0,0,0,0,0,0,0,0,0.66159642905117,-2.20411949843703,-1.41177405118515,-0.932271912519603,1.33728140602863,-1.64590502207284
18900,0,0,0,0,0,0,0,0,0,0,0,0.65965570725275,-2.20440086288943,-1.40580033113862,-0.947755976669449,1.34541667572322,-1.6308561579538
19000,0,0,0,0,0,0,0,0,0,0,0,0.657792162341274,-2.20452403239595,-1.40176029948894,-0.957061283379463,1.34838505207563,-1.62077500392758
19100,0,0,0,0,0,0,0,0,0,0,0,0.655174113219775,-2.20502994375863,-1.39917470261475,-0.960134932398987,1.34817727042584,-1.61660380491542
19200,0,0,0,0,0,0,0,0,0,0,0,0.652464357618198,-2.20557689854641,-1.39672703578239,-0.962577070946601,1.34766105332374,-1.61303199439916
19300,0,0,0,0,0,0,0,0,0,0,0,0.649754602016621,-2.2061238533342,-1.39427936895002,-0.965019209494214,1.34714483622164,-1.6094601838829
19400,0,0,0,0,0,0,0,0,0,0,0,0.647044846415045,-2.20667080812199,-1.39183170211766,-0.967461348041829,1.34662861911954,-1.60588837336665
19500,0,0,0,0,0,0,0,0,0,0,0,0.644335090813468,-2.20721776290978,-1.3893840352853,-0.969903486589442,1.34611240201745,-1.60231656285039
19600,0,0,0,0,0,0,0,0,0,0,0,0.641625335211891,-2.20776471769757,-1.38693636845294,-0.972345625137056,1.34559618491535,-1.59874475233414
19700,0,0,0,0,0,0,0,0,0,0,0,0.638915579610315,-2.20831167248535,-1.38448870162058,-0.97478776368467,1.34507996781325,-1.59517294181788
19800,0,0,0,0,0,0,0,0,0,0,0,0.636205824008738,-2.20885862727314,-1.38204103478822,-0.977229902232285,1.34456375071115,-1.59160113130162
19900,0,0,0,0,0,0,0,0,0,0,0,0.633496068407161,-2.20940558206093,-1.37959336795586,-0.979672040779898,1.34404753360906,-1.58802932078537
