igor-lirussi/CNMP-Robotic-Skill-Synthesis/output-noraml-cnmp.csv
Time,ROS secs,ROS nsecs,________p_x________,________p_y________,________p_z________,________q_x________,________q_y________,________q_z________,________q_w________,gripper_position,gripper_force,shoulder_pan_joint,shoulder_lift_joint,elbow_joint,wrist_1_joint,wrist_2_joint,wrist_3_joint
0.000000000000000000e+00,0.000000000000000000e+00,0.000000000000000000e+00,0.000000000000000000e+00,0.000000000000000000e+00,0.000000000000000000e+00,0.000000000000000000e+00,0.000000000000000000e+00,0.000000000000000000e+00,0.000000000000000000e+00,0.000000000000000000e+00,0.000000000000000000e+00,-5.175680353059348704e-01,-2.523995155474369589e+00,-8.582723697737800750e-01,-1.281360109999322816e+00,1.537637404689362164e+00,-2.834297318536286525e+00
0.000000000000000000e+00,0.000000000000000000e+00,0.000000000000000000e+00,0.000000000000000000e+00,0.000000000000000000e+00,0.000000000000000000e+00,0.000000000000000000e+00,0.000000000000000000e+00,0.000000000000000000e+00,0.000000000000000000e+00,0.000000000000000000e+00,0.000000000000000000e+00,-5.199307284485419345e-01,-2.529440904465599438e+00,-8.602183238888803096e-01,-1.277118573479746333e+00,1.538380622412913956e+00,-2.834985805033300998e+00
0.000000000000000000e+00,0.000000000000000000e+00,0.000000000000000000e+00,0.000000000000000000e+00,0.000000000000000000e+00,0.000000000000000000e+00,0.000000000000000000e+00,0.000000000000000000e+00,0.000000000000000000e+00,0.000000000000000000e+00,0.000000000000000000e+00,0.000000000000000000e+00,-5.224261660635480808e-01,-2.533239985640955538e+00,-8.622430200965938152e-01,-1.272897153135843284e+00,1.539040480378033537e+00,-2.835638533466190214e+00
0.000000000000000000e+00,0.000000000000000000e+00,0.000000000000000000e+00,0.000000000000000000e+00,0.000000000000000000e+00,0.000000000000000000e+00,0.000000000000000000e+00,0.000000000000000000e+00,0.000000000000000000e+00,0.000000000000000000e+00,0.000000000000000000e+00,0.000000000000000000e+00,-5.253082283056751400e-01,-2.532243068016525989e+00,-8.644970564165184168e-01,-1.268734322116061630e+00,1.539457549058309560e+00,-2.836187114826442812e+00
0.000000000000000000e+00,0.000000000000000000e+00,0.000000000000000000e+00,0.000000000000000000e+00,0.000000000000000000e+00,0.000000000000000000e+00,0.000000000000000000e+00,0.000000000000000000e+00,0.000000000000000000e+00,0.000000000000000000e+00,0.000000000000000000e+00,0.000000000000000000e+00,-5.278490241119790927e-01,-2.528400751177675154e+00,-8.653115623890672570e-01,-1.264516785027271162e+00,1.540212755871923189e+00,-2.836277171037765665e+00
0.000000000000000000e+00,0.000000000000000000e+00,0.000000000000000000e+00,0.000000000000000000e+00,0.000000000000000000e+00,0.000000000000000000e+00,0.000000000000000000e+00,0.000000000000000000e+00,0.000000000000000000e+00,0.000000000000000000e+00,0.000000000000000000e+00,0.000000000000000000e+00,-5.303706354318598049e-01,-2.524398478606681095e+00,-8.660451443459319387e-01,-1.260296172605755105e+00,1.540986971312660714e+00,-2.836341450997540647e+00
0.000000000000000000e+00,0.000000000000000000e+00,0.000000000000000000e+00,0.000000000000000000e+00,0.000000000000000000e+00,0.000000000000000000e+00,0.000000000000000000e+00,0.000000000000000000e+00,0.000000000000000000e+00,0.000000000000000000e+00,0.000000000000000000e+00,0.000000000000000000e+00,-5.321562012121222596e-01,-2.521164714930775652e+00,-8.665043824649465432e-01,-1.257412513453114000e+00,1.542343324375839986e+00,-2.837227271836083364e+00
0.000000000000000000e+00,0.000000000000000000e+00,0.000000000000000000e+00,0.000000000000000000e+00,0.000000000000000000e+00,0.000000000000000000e+00,0.000000000000000000e+00,0.000000000000000000e+00,0.000000000000000000e+00,0.000000000000000000e+00,0.000000000000000000e+00,0.000000000000000000e+00,-5.337223184419884747e-01,-2.518160078603542296e+00,-8.668818262461306379e-01,-1.254927460692347285e+00,1.543873239060549851e+00,-2.838358031262299352e+00
0.000000000000000000e+00,0.000000000000000000e+00,0.000000000000000000e+00,0.000000000000000000e+00,0.000000000000000000e+00,0.000000000000000000e+00,0.000000000000000000e+00,0.000000000000000000e+00,0.000000000000000000e+00,0.000000000000000000e+00,0.000000000000000000e+00,0.000000000000000000e+00,-5.352884356718545789e-01,-2.515155442276308051e+00,-8.672592700273147326e-01,-1.252442407931580570e+00,1.545403153745259273e+00,-2.839488790688515341e+00
0.000000000000000000e+00,0.000000000000000000e+00,0.000000000000000000e+00,0.000000000000000000e+00,0.000000000000000000e+00,0.000000000000000000e+00,0.000000000000000000e+00,0.000000000000000000e+00,0.000000000000000000e+00,0.000000000000000000e+00,0.000000000000000000e+00,0.000000000000000000e+00,-5.368545529017205720e-01,-2.512150805949074694e+00,-8.676367138084982722e-01,-1.249957355170813855e+00,1.546933068429968694e+00,-2.840619550114731773e+00
0.000000000000000000e+00,0.000000000000000000e+00,0.000000000000000000e+00,0.000000000000000000e+00,0.000000000000000000e+00,0.000000000000000000e+00,0.000000000000000000e+00,0.000000000000000000e+00,0.000000000000000000e+00,0.000000000000000000e+00,0.000000000000000000e+00,0.000000000000000000e+00,-5.383006989794805186e-01,-2.508116447945205607e+00,-8.680131843839609118e-01,-1.248483426899773763e+00,1.548106086227523548e+00,-2.841704146894785676e+00
0.000000000000000000e+00,0.000000000000000000e+00,0.000000000000000000e+00,0.000000000000000000e+00,0.000000000000000000e+00,0.000000000000000000e+00,0.000000000000000000e+00,0.000000000000000000e+00,0.000000000000000000e+00,0.000000000000000000e+00,0.000000000000000000e+00,0.000000000000000000e+00,-5.395129466452892597e-01,-2.502074521782756911e+00,-8.683877575760212686e-01,-1.248980809300344053e+00,1.548583289959194698e+00,-2.842698743958750995e+00
0.000000000000000000e+00,0.000000000000000000e+00,0.000000000000000000e+00,0.000000000000000000e+00,0.000000000000000000e+00,0.000000000000000000e+00,0.000000000000000000e+00,0.000000000000000000e+00,0.000000000000000000e+00,0.000000000000000000e+00,0.000000000000000000e+00,0.000000000000000000e+00,-5.407251943110978898e-01,-2.496032595620309102e+00,-8.687623307680811813e-01,-1.249478191700913898e+00,1.549060493690865847e+00,-2.843693341022716314e+00
0.000000000000000000e+00,0.000000000000000000e+00,0.000000000000000000e+00,0.000000000000000000e+00,0.000000000000000000e+00,0.000000000000000000e+00,0.000000000000000000e+00,0.000000000000000000e+00,0.000000000000000000e+00,0.000000000000000000e+00,0.000000000000000000e+00,0.000000000000000000e+00,-5.419374419769062978e-01,-2.489990669457860406e+00,-8.691369039601417601e-01,-1.249975574101483744e+00,1.549537697422536775e+00,-2.844687938086680301e+00
0.000000000000000000e+00,0.000000000000000000e+00,0.000000000000000000e+00,0.000000000000000000e+00,0.000000000000000000e+00,0.000000000000000000e+00,0.000000000000000000e+00,0.000000000000000000e+00,0.000000000000000000e+00,0.000000000000000000e+00,0.000000000000000000e+00,0.000000000000000000e+00,-5.431496896427151500e-01,-2.483948743295412598e+00,-8.695114771522016728e-01,-1.250472956502053812e+00,1.550014901154207703e+00,-2.845682535150645176e+00
0.000000000000000000e+00,0.000000000000000000e+00,0.000000000000000000e+00,0.000000000000000000e+00,0.000000000000000000e+00,0.000000000000000000e+00,0.000000000000000000e+00,0.000000000000000000e+00,0.000000000000000000e+00,0.000000000000000000e+00,0.000000000000000000e+00,0.000000000000000000e+00,-5.443619373085235580e-01,-2.477906817132964790e+00,-8.698860503442623626e-01,-1.250970338902623880e+00,1.550492104885878630e+00,-2.846677132214610051e+00
0.000000000000000000e+00,0.000000000000000000e+00,0.000000000000000000e+00,0.000000000000000000e+00,0.000000000000000000e+00,0.000000000000000000e+00,0.000000000000000000e+00,0.000000000000000000e+00,0.000000000000000000e+00,0.000000000000000000e+00,0.000000000000000000e+00,0.000000000000000000e+00,-5.455741849743322991e-01,-2.471864890970516093e+00,-8.702606235363226084e-01,-1.251467721303193947e+00,1.550969308617550224e+00,-2.847671729278574482e+00
0.000000000000000000e+00,0.000000000000000000e+00,0.000000000000000000e+00,0.000000000000000000e+00,0.000000000000000000e+00,0.000000000000000000e+00,0.000000000000000000e+00,0.000000000000000000e+00,0.000000000000000000e+00,0.000000000000000000e+00,0.000000000000000000e+00,0.000000000000000000e+00,-5.467864326401409292e-01,-2.465822964808068285e+00,-8.706351967283827431e-01,-1.251965103703763793e+00,1.551446512349220708e+00,-2.848666326342539357e+00
0.000000000000000000e+00,0.000000000000000000e+00,0.000000000000000000e+00,0.000000000000000000e+00,0.000000000000000000e+00,0.000000000000000000e+00,0.000000000000000000e+00,0.000000000000000000e+00,0.000000000000000000e+00,0.000000000000000000e+00,0.000000000000000000e+00,0.000000000000000000e+00,-5.466197181384079284e-01,-2.455909634830002908e+00,-8.772452320726291664e-01,-1.252199672370053252e+00,1.552836603942861826e+00,-2.849706764730277175e+00
0.000000000000000000e+00,0.000000000000000000e+00,0.000000000000000000e+00,0.000000000000000000e+00,0.000000000000000000e+00,0.000000000000000000e+00,0.000000000000000000e+00,0.000000000000000000e+00,0.000000000000000000e+00,0.000000000000000000e+00,0.000000000000000000e+00,0.000000000000000000e+00,-5.459771809755205041e-01,-2.445029054202199958e+00,-8.827468037278789481e-01,-1.252697442356347057e+00,1.554141989974946014e+00,-2.850754033685849453e+00
0.000000000000000000e+00,0.000000000000000000e+00,0.000000000000000000e+00,0.000000000000000000e+00,0.000000000000000000e+00,0.000000000000000000e+00,0.000000000000000000e+00,0.000000000000000000e+00,0.000000000000000000e+00,0.000000000000000000e+00,0.000000000000000000e+00,0.000000000000000000e+00,-5.446683683996589309e-01,-2.433164366001543399e+00,-8.834212769141980282e-01,-1.253919267268781113e+00,1.554927234294313898e+00,-2.851801838768796671e+00
0.000000000000000000e+00,0.000000000000000000e+00,0.000000000000000000e+00,0.000000000000000000e+00,0.000000000000000000e+00,0.000000000000000000e+00,0.000000000000000000e+00,0.000000000000000000e+00,0.000000000000000000e+00,0.000000000000000000e+00,0.000000000000000000e+00,0.000000000000000000e+00,-5.432905272488746107e-01,-2.420828547832610589e+00,-8.840606802432640077e-01,-1.255540836477171851e+00,1.555865774622271713e+00,-2.853010230897643495e+00
0.000000000000000000e+00,0.000000000000000000e+00,0.000000000000000000e+00,0.000000000000000000e+00,0.000000000000000000e+00,0.000000000000000000e+00,0.000000000000000000e+00,0.000000000000000000e+00,0.000000000000000000e+00,0.000000000000000000e+00,0.000000000000000000e+00,0.000000000000000000e+00,-5.419089846715420267e-01,-2.408467466894252063e+00,-8.846982030684832354e-01,-1.257183840636971972e+00,1.556812534936177883e+00,-2.854227233969938826e+00
0.000000000000000000e+00,0.000000000000000000e+00,0.000000000000000000e+00,0.000000000000000000e+00,0.000000000000000000e+00,0.000000000000000000e+00,0.000000000000000000e+00,0.000000000000000000e+00,0.000000000000000000e+00,0.000000000000000000e+00,0.000000000000000000e+00,0.000000000000000000e+00,-5.405274420942096647e-01,-2.396106385955896201e+00,-8.853357258937024632e-01,-1.258826844796772759e+00,1.557759295250084053e+00,-2.855444237042233269e+00
0.000000000000000000e+00,0.000000000000000000e+00,0.000000000000000000e+00,0.000000000000000000e+00,0.000000000000000000e+00,0.000000000000000000e+00,0.000000000000000000e+00,0.000000000000000000e+00,0.000000000000000000e+00,0.000000000000000000e+00,0.000000000000000000e+00,0.000000000000000000e+00,-5.390591920173408713e-01,-2.383847380286423956e+00,-8.860916021425815359e-01,-1.260586765309711144e+00,1.558722236107319414e+00,-2.856591892819773992e+00
0.000000000000000000e+00,0.000000000000000000e+00,0.000000000000000000e+00,0.000000000000000000e+00,0.000000000000000000e+00,0.000000000000000000e+00,0.000000000000000000e+00,0.000000000000000000e+00,0.000000000000000000e+00,0.000000000000000000e+00,0.000000000000000000e+00,0.000000000000000000e+00,-5.367210334688458095e-01,-2.372623980117607445e+00,-8.880935939498155740e-01,-1.264187342012630610e+00,1.559855175262749416e+00,-2.857015299098258243e+00
0.000000000000000000e+00,0.000000000000000000e+00,0.000000000000000000e+00,0.000000000000000000e+00,0.000000000000000000e+00,0.000000000000000000e+00,0.000000000000000000e+00,0.000000000000000000e+00,0.000000000000000000e+00,0.000000000000000000e+00,0.000000000000000000e+00,0.000000000000000000e+00,-5.344154670177325706e-01,-2.361373479256630326e+00,-8.901085416522863669e-01,-1.268397196272218030e+00,1.560989530655433777e+00,-2.857436878557652271e+00
0.000000000000000000e+00,0.000000000000000000e+00,0.000000000000000000e+00,0.000000000000000000e+00,0.000000000000000000e+00,0.000000000000000000e+00,0.000000000000000000e+00,0.000000000000000000e+00,0.000000000000000000e+00,0.000000000000000000e+00,0.000000000000000000e+00,0.000000000000000000e+00,-5.321099005666193316e-01,-2.350122978395652318e+00,-8.921234893547568268e-01,-1.272607050531805672e+00,1.562123886048118360e+00,-2.857858458017046743e+00
0.000000000000000000e+00,0.000000000000000000e+00,0.000000000000000000e+00,0.000000000000000000e+00,0.000000000000000000e+00,0.000000000000000000e+00,0.000000000000000000e+00,0.000000000000000000e+00,0.000000000000000000e+00,0.000000000000000000e+00,0.000000000000000000e+00,0.000000000000000000e+00,-5.298043341155058705e-01,-2.338872477534674310e+00,-8.941384370572277307e-01,-1.276816904791392870e+00,1.563258241440802943e+00,-2.858280037476440327e+00
0.000000000000000000e+00,0.000000000000000000e+00,0.000000000000000000e+00,0.000000000000000000e+00,0.000000000000000000e+00,0.000000000000000000e+00,0.000000000000000000e+00,0.000000000000000000e+00,0.000000000000000000e+00,0.000000000000000000e+00,0.000000000000000000e+00,0.000000000000000000e+00,-5.274987676643927426e-01,-2.327621976673697191e+00,-8.961533847596984126e-01,-1.281026759050980290e+00,1.564392596833486637e+00,-2.858701616935834799e+00
0.000000000000000000e+00,0.000000000000000000e+00,0.000000000000000000e+00,0.000000000000000000e+00,0.000000000000000000e+00,0.000000000000000000e+00,0.000000000000000000e+00,0.000000000000000000e+00,0.000000000000000000e+00,0.000000000000000000e+00,0.000000000000000000e+00,0.000000000000000000e+00,-5.251932012132793925e-01,-2.316371475812719183e+00,-8.981683324621692055e-01,-1.285236613310568154e+00,1.565526952226170998e+00,-2.859123196395229272e+00
0.000000000000000000e+00,0.000000000000000000e+00,0.000000000000000000e+00,0.000000000000000000e+00,0.000000000000000000e+00,0.000000000000000000e+00,0.000000000000000000e+00,0.000000000000000000e+00,0.000000000000000000e+00,0.000000000000000000e+00,0.000000000000000000e+00,0.000000000000000000e+00,-5.228876347621660425e-01,-2.305120974951741175e+00,-9.001832801646396653e-01,-1.289446467570154908e+00,1.566661307618855137e+00,-2.859544775854622412e+00
0.000000000000000000e+00,0.000000000000000000e+00,0.000000000000000000e+00,0.000000000000000000e+00,0.000000000000000000e+00,0.000000000000000000e+00,0.000000000000000000e+00,0.000000000000000000e+00,0.000000000000000000e+00,0.000000000000000000e+00,0.000000000000000000e+00,0.000000000000000000e+00,-5.197750602455137869e-01,-2.293901208177313578e+00,-9.021143423906274883e-01,-1.294740958412232690e+00,1.568057461568358901e+00,-2.860158719866490618e+00
0.000000000000000000e+00,0.000000000000000000e+00,0.000000000000000000e+00,0.000000000000000000e+00,0.000000000000000000e+00,0.000000000000000000e+00,0.000000000000000000e+00,0.000000000000000000e+00,0.000000000000000000e+00,0.000000000000000000e+00,0.000000000000000000e+00,0.000000000000000000e+00,-5.164321783509842057e-01,-2.282690212426604859e+00,-9.040214650242424099e-01,-1.300344987433580179e+00,1.569528328698221564e+00,-2.860827561688636500e+00
0.000000000000000000e+00,0.000000000000000000e+00,0.000000000000000000e+00,0.000000000000000000e+00,0.000000000000000000e+00,0.000000000000000000e+00,0.000000000000000000e+00,0.000000000000000000e+00,0.000000000000000000e+00,0.000000000000000000e+00,0.000000000000000000e+00,0.000000000000000000e+00,-5.126465999392288975e-01,-2.274783283619290941e+00,-9.057803315279348011e-01,-1.303596187015139574e+00,1.574146110766856399e+00,-2.861537152735637690e+00
0.000000000000000000e+00,0.000000000000000000e+00,0.000000000000000000e+00,0.000000000000000000e+00,0.000000000000000000e+00,0.000000000000000000e+00,0.000000000000000000e+00,0.000000000000000000e+00,0.000000000000000000e+00,0.000000000000000000e+00,0.000000000000000000e+00,0.000000000000000000e+00,-5.078847985579778568e-01,-2.269290015964657847e+00,-9.076563422889389887e-01,-1.304808593800142136e+00,1.581319467585911465e+00,-2.862253312326783927e+00
0.000000000000000000e+00,0.000000000000000000e+00,0.000000000000000000e+00,0.000000000000000000e+00,0.000000000000000000e+00,0.000000000000000000e+00,0.000000000000000000e+00,0.000000000000000000e+00,0.000000000000000000e+00,0.000000000000000000e+00,0.000000000000000000e+00,0.000000000000000000e+00,-5.032377478124767656e-01,-2.261417133015577452e+00,-9.080101619266958135e-01,-1.307088049709365540e+00,1.587325906327976544e+00,-2.862576073119254438e+00
0.000000000000000000e+00,0.000000000000000000e+00,0.000000000000000000e+00,0.000000000000000000e+00,0.000000000000000000e+00,0.000000000000000000e+00,0.000000000000000000e+00,0.000000000000000000e+00,0.000000000000000000e+00,0.000000000000000000e+00,0.000000000000000000e+00,0.000000000000000000e+00,-4.985906970669753968e-01,-2.253544250066497945e+00,-9.083639815644527493e-01,-1.309367505618588723e+00,1.593332345070042066e+00,-2.862898833911724061e+00
0.000000000000000000e+00,0.000000000000000000e+00,0.000000000000000000e+00,0.000000000000000000e+00,0.000000000000000000e+00,0.000000000000000000e+00,0.000000000000000000e+00,0.000000000000000000e+00,0.000000000000000000e+00,0.000000000000000000e+00,0.000000000000000000e+00,0.000000000000000000e+00,-4.938175006024499991e-01,-2.248431460484365374e+00,-9.111426890120621902e-01,-1.308984303685749584e+00,1.601075464884043287e+00,-2.862451046571321989e+00
0.000000000000000000e+00,0.000000000000000000e+00,0.000000000000000000e+00,0.000000000000000000e+00,0.000000000000000000e+00,0.000000000000000000e+00,0.000000000000000000e+00,0.000000000000000000e+00,0.000000000000000000e+00,0.000000000000000000e+00,0.000000000000000000e+00,0.000000000000000000e+00,-4.898167435444037432e-01,-2.244744584275709443e+00,-9.163084306950495250e-01,-1.308457448099433540e+00,1.609207341421693860e+00,-2.862282753863022666e+00
0.000000000000000000e+00,0.000000000000000000e+00,0.000000000000000000e+00,0.000000000000000000e+00,0.000000000000000000e+00,0.000000000000000000e+00,0.000000000000000000e+00,0.000000000000000000e+00,0.000000000000000000e+00,0.000000000000000000e+00,0.000000000000000000e+00,0.000000000000000000e+00,-4.855816125235627445e-01,-2.241574102765920173e+00,-9.217458250153135468e-01,-1.307919416024974302e+00,1.617319874364050891e+00,-2.862075063577472545e+00
0.000000000000000000e+00,0.000000000000000000e+00,0.000000000000000000e+00,0.000000000000000000e+00,0.000000000000000000e+00,0.000000000000000000e+00,0.000000000000000000e+00,0.000000000000000000e+00,0.000000000000000000e+00,0.000000000000000000e+00,0.000000000000000000e+00,0.000000000000000000e+00,-4.809050087658586770e-01,-2.239175525039305725e+00,-9.275700894005246555e-01,-1.307367528465036344e+00,1.625400664404303974e+00,-2.861795318668554522e+00
0.000000000000000000e+00,0.000000000000000000e+00,0.000000000000000000e+00,0.000000000000000000e+00,0.000000000000000000e+00,0.000000000000000000e+00,0.000000000000000000e+00,0.000000000000000000e+00,0.000000000000000000e+00,0.000000000000000000e+00,0.000000000000000000e+00,0.000000000000000000e+00,-4.764091579137726962e-01,-2.236736254529433143e+00,-9.344519852409497451e-01,-1.306628263835690085e+00,1.633511248560731488e+00,-2.861740837445963859e+00
0.000000000000000000e+00,0.000000000000000000e+00,0.000000000000000000e+00,0.000000000000000000e+00,0.000000000000000000e+00,0.000000000000000000e+00,0.000000000000000000e+00,0.000000000000000000e+00,0.000000000000000000e+00,0.000000000000000000e+00,0.000000000000000000e+00,0.000000000000000000e+00,-4.719133070616864378e-01,-2.234296984019560561e+00,-9.413338810813749458e-01,-1.305888999206344048e+00,1.641621832717159002e+00,-2.861686356223374084e+00
0.000000000000000000e+00,0.000000000000000000e+00,0.000000000000000000e+00,0.000000000000000000e+00,0.000000000000000000e+00,0.000000000000000000e+00,0.000000000000000000e+00,0.000000000000000000e+00,0.000000000000000000e+00,0.000000000000000000e+00,0.000000000000000000e+00,0.000000000000000000e+00,-4.689780392404250264e-01,-2.233075954882497438e+00,-9.451641156598794558e-01,-1.307873543443646369e+00,1.643131343745915185e+00,-2.862210853475934513e+00
0.000000000000000000e+00,0.000000000000000000e+00,0.000000000000000000e+00,0.000000000000000000e+00,0.000000000000000000e+00,0.000000000000000000e+00,0.000000000000000000e+00,0.000000000000000000e+00,0.000000000000000000e+00,0.000000000000000000e+00,0.000000000000000000e+00,0.000000000000000000e+00,-4.669064652324746434e-01,-2.231303659214734392e+00,-9.559045926638731761e-01,-1.301507369756741417e+00,1.643323950589286930e+00,-2.863217969736866930e+00
0.000000000000000000e+00,0.000000000000000000e+00,0.000000000000000000e+00,0.000000000000000000e+00,0.000000000000000000e+00,0.000000000000000000e+00,0.000000000000000000e+00,0.000000000000000000e+00,0.000000000000000000e+00,0.000000000000000000e+00,0.000000000000000000e+00,0.000000000000000000e+00,-4.648348912245239828e-01,-2.229531363546970457e+00,-9.666450696678677845e-01,-1.295141196069836242e+00,1.643516557432658676e+00,-2.864225085997799791e+00
0.000000000000000000e+00,0.000000000000000000e+00,0.000000000000000000e+00,0.000000000000000000e+00,0.000000000000000000e+00,0.000000000000000000e+00,0.000000000000000000e+00,0.000000000000000000e+00,0.000000000000000000e+00,0.000000000000000000e+00,0.000000000000000000e+00,0.000000000000000000e+00,-4.627633172165735442e-01,-2.227759067879205634e+00,-9.773855466718618379e-01,-1.288775022382931512e+00,1.643709164276029755e+00,-2.865232202258732208e+00
0.000000000000000000e+00,0.000000000000000000e+00,0.000000000000000000e+00,0.000000000000000000e+00,0.000000000000000000e+00,0.000000000000000000e+00,0.000000000000000000e+00,0.000000000000000000e+00,0.000000000000000000e+00,0.000000000000000000e+00,0.000000000000000000e+00,0.000000000000000000e+00,-4.585301404767440081e-01,-2.225692833943636817e+00,-9.887366376219015596e-01,-1.284017336844972546e+00,1.643487087618516584e+00,-2.866611306260980374e+00
0.000000000000000000e+00,0.000000000000000000e+00,0.000000000000000000e+00,0.000000000000000000e+00,0.000000000000000000e+00,0.000000000000000000e+00,0.000000000000000000e+00,0.000000000000000000e+00,0.000000000000000000e+00,0.000000000000000000e+00,0.000000000000000000e+00,0.000000000000000000e+00,-4.523430170665547201e-01,-2.223360899150459424e+00,-1.000639683410428971e+00,-1.280713618780590535e+00,1.642890164355817362e+00,-2.868326662710469765e+00
0.000000000000000000e+00,0.000000000000000000e+00,0.000000000000000000e+00,0.000000000000000000e+00,0.000000000000000000e+00,0.000000000000000000e+00,0.000000000000000000e+00,0.000000000000000000e+00,0.000000000000000000e+00,0.000000000000000000e+00,0.000000000000000000e+00,0.000000000000000000e+00,-4.461558936563654876e-01,-2.221028964357281144e+00,-1.012542729198956826e+00,-1.277409900716207414e+00,1.642293241093118139e+00,-2.870042019159958713e+00
0.000000000000000000e+00,0.000000000000000000e+00,0.000000000000000000e+00,0.000000000000000000e+00,0.000000000000000000e+00,0.000000000000000000e+00,0.000000000000000000e+00,0.000000000000000000e+00,0.000000000000000000e+00,0.000000000000000000e+00,0.000000000000000000e+00,0.000000000000000000e+00,-4.399687702461759775e-01,-2.218697029564103751e+00,-1.024445774987484681e+00,-1.274106182651825403e+00,1.641696317830418472e+00,-2.871757375609448548e+00
0.000000000000000000e+00,0.000000000000000000e+00,0.000000000000000000e+00,0.000000000000000000e+00,0.000000000000000000e+00,0.000000000000000000e+00,0.000000000000000000e+00,0.000000000000000000e+00,0.000000000000000000e+00,0.000000000000000000e+00,0.000000000000000000e+00,0.000000000000000000e+00,-4.337643558766395291e-01,-2.216513791774158193e+00,-1.036337797715273901e+00,-1.270838511925788339e+00,1.641146058861743029e+00,-2.873405729986898915e+00
0.000000000000000000e+00,0.000000000000000000e+00,0.000000000000000000e+00,0.000000000000000000e+00,0.000000000000000000e+00,0.000000000000000000e+00,0.000000000000000000e+00,0.000000000000000000e+00,0.000000000000000000e+00,0.000000000000000000e+00,0.000000000000000000e+00,0.000000000000000000e+00,-4.271983110270663464e-01,-2.215802058713051359e+00,-1.047181727828900843e+00,-1.267122044312556817e+00,1.641081802005111667e+00,-2.874914599388396663e+00
0.000000000000000000e+00,0.000000000000000000e+00,0.000000000000000000e+00,0.000000000000000000e+00,0.000000000000000000e+00,0.000000000000000000e+00,0.000000000000000000e+00,0.000000000000000000e+00,0.000000000000000000e+00,0.000000000000000000e+00,0.000000000000000000e+00,0.000000000000000000e+00,-4.179968422927863858e-01,-2.216228367010566025e+00,-1.057540723609403877e+00,-1.262908486709366951e+00,1.641015683929457403e+00,-2.876378869401514660e+00
0.000000000000000000e+00,0.000000000000000000e+00,0.000000000000000000e+00,0.000000000000000000e+00,0.000000000000000000e+00,0.000000000000000000e+00,0.000000000000000000e+00,0.000000000000000000e+00,0.000000000000000000e+00,0.000000000000000000e+00,0.000000000000000000e+00,0.000000000000000000e+00,-4.069151278410631511e-01,-2.217937850184325654e+00,-1.070909574855463342e+00,-1.244239897023969421e+00,1.641820735699199618e+00,-2.877519936568821546e+00
0.000000000000000000e+00,0.000000000000000000e+00,0.000000000000000000e+00,0.000000000000000000e+00,0.000000000000000000e+00,0.000000000000000000e+00,0.000000000000000000e+00,0.000000000000000000e+00,0.000000000000000000e+00,0.000000000000000000e+00,0.000000000000000000e+00,0.000000000000000000e+00,-3.958046473201915494e-01,-2.219987339265044213e+00,-1.085850372737068525e+00,-1.220911022902198884e+00,1.643358731008479845e+00,-2.878587806569480545e+00
0.000000000000000000e+00,0.000000000000000000e+00,0.000000000000000000e+00,0.000000000000000000e+00,0.000000000000000000e+00,0.000000000000000000e+00,0.000000000000000000e+00,0.000000000000000000e+00,0.000000000000000000e+00,0.000000000000000000e+00,0.000000000000000000e+00,0.000000000000000000e+00,-3.836668941843187075e-01,-2.222017865551360050e+00,-1.101491770038246942e+00,-1.196816238273558097e+00,1.645862535859803133e+00,-2.879883854686055678e+00
0.000000000000000000e+00,0.000000000000000000e+00,0.000000000000000000e+00,0.000000000000000000e+00,0.000000000000000000e+00,0.000000000000000000e+00,0.000000000000000000e+00,0.000000000000000000e+00,0.000000000000000000e+00,0.000000000000000000e+00,0.000000000000000000e+00,0.000000000000000000e+00,-3.705928963022320222e-01,-2.224054874165883433e+00,-1.117359395935469957e+00,-1.171560261290546912e+00,1.649059718581079359e+00,-2.881389417150641119e+00
0.000000000000000000e+00,0.000000000000000000e+00,0.000000000000000000e+00,0.000000000000000000e+00,0.000000000000000000e+00,0.000000000000000000e+00,0.000000000000000000e+00,0.000000000000000000e+00,0.000000000000000000e+00,0.000000000000000000e+00,0.000000000000000000e+00,0.000000000000000000e+00,-3.575188984201454478e-01,-2.226091882780407261e+00,-1.133227021832693193e+00,-1.146304284307535948e+00,1.652256901302356029e+00,-2.882894979615225672e+00
0.000000000000000000e+00,0.000000000000000000e+00,0.000000000000000000e+00,0.000000000000000000e+00,0.000000000000000000e+00,0.000000000000000000e+00,0.000000000000000000e+00,0.000000000000000000e+00,0.000000000000000000e+00,0.000000000000000000e+00,0.000000000000000000e+00,0.000000000000000000e+00,-3.444449005380587625e-01,-2.228128891394930200e+00,-1.149094647729915986e+00,-1.121048307324525206e+00,1.655454084023632477e+00,-2.884400542079811558e+00
0.000000000000000000e+00,0.000000000000000000e+00,0.000000000000000000e+00,0.000000000000000000e+00,0.000000000000000000e+00,0.000000000000000000e+00,0.000000000000000000e+00,0.000000000000000000e+00,0.000000000000000000e+00,0.000000000000000000e+00,0.000000000000000000e+00,0.000000000000000000e+00,-3.316006786594890010e-01,-2.231564529692463772e+00,-1.164817330856824817e+00,-1.096386471521472172e+00,1.658340871589833343e+00,-2.885726703645065783e+00
0.000000000000000000e+00,0.000000000000000000e+00,0.000000000000000000e+00,0.000000000000000000e+00,0.000000000000000000e+00,0.000000000000000000e+00,0.000000000000000000e+00,0.000000000000000000e+00,0.000000000000000000e+00,0.000000000000000000e+00,0.000000000000000000e+00,0.000000000000000000e+00,-3.199364258323434962e-01,-2.234651246463998042e+00,-1.180813327690333647e+00,-1.071698063088370123e+00,1.661157073678931173e+00,-2.886962359744857043e+00
0.000000000000000000e+00,0.000000000000000000e+00,0.000000000000000000e+00,0.000000000000000000e+00,0.000000000000000000e+00,0.000000000000000000e+00,0.000000000000000000e+00,0.000000000000000000e+00,0.000000000000000000e+00,0.000000000000000000e+00,0.000000000000000000e+00,0.000000000000000000e+00,-3.082953341152997462e-01,-2.237685244422859654e+00,-1.196820887285039658e+00,-1.046990388315415466e+00,1.663981168578439362e+00,-2.888201299231239361e+00
0.000000000000000000e+00,0.000000000000000000e+00,0.000000000000000000e+00,0.000000000000000000e+00,0.000000000000000000e+00,0.000000000000000000e+00,0.000000000000000000e+00,0.000000000000000000e+00,0.000000000000000000e+00,0.000000000000000000e+00,0.000000000000000000e+00,0.000000000000000000e+00,-2.966506448305665233e-01,-2.240717087137688246e+00,-1.212827737453563426e+00,-1.022283906519545260e+00,1.666803973416044915e+00,-2.889444492139821907e+00
0.000000000000000000e+00,0.000000000000000000e+00,0.000000000000000000e+00,0.000000000000000000e+00,0.000000000000000000e+00,0.000000000000000000e+00,0.000000000000000000e+00,0.000000000000000000e+00,0.000000000000000000e+00,0.000000000000000000e+00,0.000000000000000000e+00,0.000000000000000000e+00,-2.854362221976608494e-01,-2.243674475824206649e+00,-1.228824778403204698e+00,-9.976168991919363016e-01,1.669595753439518715e+00,-2.890666012992623379e+00
0.000000000000000000e+00,0.000000000000000000e+00,0.000000000000000000e+00,0.000000000000000000e+00,0.000000000000000000e+00,0.000000000000000000e+00,0.000000000000000000e+00,0.000000000000000000e+00,0.000000000000000000e+00,0.000000000000000000e+00,0.000000000000000000e+00,0.000000000000000000e+00,-2.826766781609685308e-01,-2.246617110207332235e+00,-1.246772668137670736e+00,-9.705687344967872665e-01,1.671223985937174472e+00,-2.891099285821939979e+00
0.000000000000000000e+00,0.000000000000000000e+00,0.000000000000000000e+00,0.000000000000000000e+00,0.000000000000000000e+00,0.000000000000000000e+00,0.000000000000000000e+00,0.000000000000000000e+00,0.000000000000000000e+00,0.000000000000000000e+00,0.000000000000000000e+00,0.000000000000000000e+00,-2.802993279545051841e-01,-2.248872286111286201e+00,-1.264267216794746185e+00,-9.457294582758035695e-01,1.661506849614796222e+00,-2.891477797407690620e+00
0.000000000000000000e+00,0.000000000000000000e+00,0.000000000000000000e+00,0.000000000000000000e+00,0.000000000000000000e+00,0.000000000000000000e+00,0.000000000000000000e+00,0.000000000000000000e+00,0.000000000000000000e+00,0.000000000000000000e+00,0.000000000000000000e+00,0.000000000000000000e+00,-2.779219777480419484e-01,-2.251127462015240610e+00,-1.281761765451821855e+00,-9.208901820548194284e-01,1.651789713292419748e+00,-2.891856308993441260e+00
0.000000000000000000e+00,0.000000000000000000e+00,0.000000000000000000e+00,0.000000000000000000e+00,0.000000000000000000e+00,0.000000000000000000e+00,0.000000000000000000e+00,0.000000000000000000e+00,0.000000000000000000e+00,0.000000000000000000e+00,0.000000000000000000e+00,0.000000000000000000e+00,-2.748542113495179295e-01,-2.257441374500030129e+00,-1.297386438575942824e+00,-8.968516431017392598e-01,1.644786270071783463e+00,-2.892080680810098503e+00
0.000000000000000000e+00,0.000000000000000000e+00,0.000000000000000000e+00,0.000000000000000000e+00,0.000000000000000000e+00,0.000000000000000000e+00,0.000000000000000000e+00,0.000000000000000000e+00,0.000000000000000000e+00,0.000000000000000000e+00,0.000000000000000000e+00,0.000000000000000000e+00,-2.714755611316542749e-01,-2.265582873800502384e+00,-1.312169135434068545e+00,-8.731736638559719488e-01,1.639004761223032514e+00,-2.892235645853449277e+00
0.000000000000000000e+00,0.000000000000000000e+00,0.000000000000000000e+00,0.000000000000000000e+00,0.000000000000000000e+00,0.000000000000000000e+00,0.000000000000000000e+00,0.000000000000000000e+00,0.000000000000000000e+00,0.000000000000000000e+00,0.000000000000000000e+00,0.000000000000000000e+00,-2.676796398313345260e-01,-2.276521505814230295e+00,-1.321792079877952997e+00,-8.543650254636938612e-01,1.643322054315670799e+00,-2.892180600763240239e+00
0.000000000000000000e+00,0.000000000000000000e+00,0.000000000000000000e+00,0.000000000000000000e+00,0.000000000000000000e+00,0.000000000000000000e+00,0.000000000000000000e+00,0.000000000000000000e+00,0.000000000000000000e+00,0.000000000000000000e+00,0.000000000000000000e+00,0.000000000000000000e+00,-2.658392503883257874e-01,-2.281846028451672836e+00,-1.323466843371134516e+00,-8.429698207850107039e-01,1.659737230809591679e+00,-2.892229983093811185e+00
0.000000000000000000e+00,0.000000000000000000e+00,0.000000000000000000e+00,0.000000000000000000e+00,0.000000000000000000e+00,0.000000000000000000e+00,0.000000000000000000e+00,0.000000000000000000e+00,0.000000000000000000e+00,0.000000000000000000e+00,0.000000000000000000e+00,0.000000000000000000e+00,-2.636087360837761073e-01,-2.286576404331873924e+00,-1.325475279704531939e+00,-8.273805675740542043e-01,1.676283724643212736e+00,-2.892728437450951873e+00
0.000000000000000000e+00,0.000000000000000000e+00,0.000000000000000000e+00,0.000000000000000000e+00,0.000000000000000000e+00,0.000000000000000000e+00,0.000000000000000000e+00,0.000000000000000000e+00,0.000000000000000000e+00,0.000000000000000000e+00,0.000000000000000000e+00,0.000000000000000000e+00,-2.598228219256275562e-01,-2.286095924017755188e+00,-1.335607245019424294e+00,-8.128124639098623927e-01,1.690746153082182568e+00,-2.893195133736228719e+00
0.000000000000000000e+00,0.000000000000000000e+00,0.000000000000000000e+00,0.000000000000000000e+00,0.000000000000000000e+00,0.000000000000000000e+00,0.000000000000000000e+00,0.000000000000000000e+00,0.000000000000000000e+00,0.000000000000000000e+00,0.000000000000000000e+00,0.000000000000000000e+00,-2.564566756932996627e-01,-2.284291032665549892e+00,-1.345232825842224367e+00,-8.003945852915586023e-01,1.693293162862334666e+00,-2.893649732498827287e+00
0.000000000000000000e+00,0.000000000000000000e+00,0.000000000000000000e+00,0.000000000000000000e+00,0.000000000000000000e+00,0.000000000000000000e+00,0.000000000000000000e+00,0.000000000000000000e+00,0.000000000000000000e+00,0.000000000000000000e+00,0.000000000000000000e+00,0.000000000000000000e+00,-2.538980765395009165e-01,-2.282302789171112067e+00,-1.354005740754982812e+00,-7.889800378564701955e-01,1.693871173677342412e+00,-2.893875331010352880e+00
0.000000000000000000e+00,0.000000000000000000e+00,0.000000000000000000e+00,0.000000000000000000e+00,0.000000000000000000e+00,0.000000000000000000e+00,0.000000000000000000e+00,0.000000000000000000e+00,0.000000000000000000e+00,0.000000000000000000e+00,0.000000000000000000e+00,0.000000000000000000e+00,-2.519551415910702974e-01,-2.281188817152725257e+00,-1.361814817104685771e+00,-7.778600513182429843e-01,1.694430411311642626e+00,-2.893930623398036417e+00
0.000000000000000000e+00,0.000000000000000000e+00,0.000000000000000000e+00,0.000000000000000000e+00,0.000000000000000000e+00,0.000000000000000000e+00,0.000000000000000000e+00,0.000000000000000000e+00,0.000000000000000000e+00,0.000000000000000000e+00,0.000000000000000000e+00,0.000000000000000000e+00,-2.502340772677016378e-01,-2.282275335212628598e+00,-1.369174597479055233e+00,-7.662241572831947067e-01,1.695022016895065819e+00,-2.893847449322456633e+00
0.000000000000000000e+00,0.000000000000000000e+00,0.000000000000000000e+00,0.000000000000000000e+00,0.000000000000000000e+00,0.000000000000000000e+00,0.000000000000000000e+00,0.000000000000000000e+00,0.000000000000000000e+00,0.000000000000000000e+00,0.000000000000000000e+00,0.000000000000000000e+00,-2.485047303163565868e-01,-2.283657414427956667e+00,-1.376773959577183071e+00,-7.544032380370424562e-01,1.695600281670791354e+00,-2.893713930944137758e+00
0.000000000000000000e+00,0.000000000000000000e+00,0.000000000000000000e+00,0.000000000000000000e+00,0.000000000000000000e+00,0.000000000000000000e+00,0.000000000000000000e+00,0.000000000000000000e+00,0.000000000000000000e+00,0.000000000000000000e+00,0.000000000000000000e+00,0.000000000000000000e+00,-2.467753833650113970e-01,-2.285039493643285624e+00,-1.384373321675311130e+00,-7.425823187908902057e-01,1.696178546446516666e+00,-2.893580412565817550e+00
0.000000000000000000e+00,0.000000000000000000e+00,0.000000000000000000e+00,0.000000000000000000e+00,0.000000000000000000e+00,0.000000000000000000e+00,0.000000000000000000e+00,0.000000000000000000e+00,0.000000000000000000e+00,0.000000000000000000e+00,0.000000000000000000e+00,0.000000000000000000e+00,-2.452643185666879277e-01,-2.286508200354820275e+00,-1.395845988717589581e+00,-7.237343540081329074e-01,1.697886963686623618e+00,-2.893364343537157879e+00
0.000000000000000000e+00,0.000000000000000000e+00,0.000000000000000000e+00,0.000000000000000000e+00,0.000000000000000000e+00,0.000000000000000000e+00,0.000000000000000000e+00,0.000000000000000000e+00,0.000000000000000000e+00,0.000000000000000000e+00,0.000000000000000000e+00,0.000000000000000000e+00,-2.446463207317321753e-01,-2.288212438366901580e+00,-1.422804961221428410e+00,-6.767234139191597997e-01,1.704115789311398732e+00,-2.892815808882293727e+00
0.000000000000000000e+00,0.000000000000000000e+00,0.000000000000000000e+00,0.000000000000000000e+00,0.000000000000000000e+00,0.000000000000000000e+00,0.000000000000000000e+00,0.000000000000000000e+00,0.000000000000000000e+00,0.000000000000000000e+00,0.000000000000000000e+00,0.000000000000000000e+00,-2.441404321966585966e-01,-2.289450842866686209e+00,-1.450204956668073475e+00,-6.286233230062057142e-01,1.710481091427868305e+00,-2.892247528569745540e+00
0.000000000000000000e+00,0.000000000000000000e+00,0.000000000000000000e+00,0.000000000000000000e+00,0.000000000000000000e+00,0.000000000000000000e+00,0.000000000000000000e+00,0.000000000000000000e+00,0.000000000000000000e+00,0.000000000000000000e+00,0.000000000000000000e+00,0.000000000000000000e+00,-2.436345436615851012e-01,-2.290689247366469949e+00,-1.477604952114719206e+00,-5.805232320932515178e-01,1.716846393544337879e+00,-2.891679248257196466e+00
0.000000000000000000e+00,0.000000000000000000e+00,0.000000000000000000e+00,0.000000000000000000e+00,0.000000000000000000e+00,0.000000000000000000e+00,0.000000000000000000e+00,0.000000000000000000e+00,0.000000000000000000e+00,0.000000000000000000e+00,0.000000000000000000e+00,0.000000000000000000e+00,-2.431286551265115503e-01,-2.291927651866253690e+00,-1.505004947561364714e+00,-5.324231411802974323e-01,1.723211695660806786e+00,-2.891110967944648280e+00
0.000000000000000000e+00,0.000000000000000000e+00,0.000000000000000000e+00,0.000000000000000000e+00,0.000000000000000000e+00,0.000000000000000000e+00,0.000000000000000000e+00,0.000000000000000000e+00,0.000000000000000000e+00,0.000000000000000000e+00,0.000000000000000000e+00,0.000000000000000000e+00,-2.426227665914379439e-01,-2.293166056366037431e+00,-1.532404943008010001e+00,-4.843230502673432358e-01,1.729576997777275915e+00,-2.890542687632102314e+00
0.000000000000000000e+00,0.000000000000000000e+00,0.000000000000000000e+00,0.000000000000000000e+00,0.000000000000000000e+00,0.000000000000000000e+00,0.000000000000000000e+00,0.000000000000000000e+00,0.000000000000000000e+00,0.000000000000000000e+00,0.000000000000000000e+00,0.000000000000000000e+00,-2.421168780563644207e-01,-2.294404460865821171e+00,-1.559804938454655732e+00,-4.362229593543889283e-01,1.735942299893746155e+00,-2.889974407319553240e+00
0.000000000000000000e+00,0.000000000000000000e+00,0.000000000000000000e+00,0.000000000000000000e+00,0.000000000000000000e+00,0.000000000000000000e+00,0.000000000000000000e+00,0.000000000000000000e+00,0.000000000000000000e+00,0.000000000000000000e+00,0.000000000000000000e+00,0.000000000000000000e+00,-2.416109895212909253e-01,-2.295642865365604912e+00,-1.587204933901301906e+00,-3.881228684414348429e-01,1.742307602010215062e+00,-2.889406127007004610e+00
0.000000000000000000e+00,0.000000000000000000e+00,0.000000000000000000e+00,0.000000000000000000e+00,0.000000000000000000e+00,0.000000000000000000e+00,0.000000000000000000e+00,0.000000000000000000e+00,0.000000000000000000e+00,0.000000000000000000e+00,0.000000000000000000e+00,0.000000000000000000e+00,-2.407046724710530661e-01,-2.296663984396422720e+00,-1.614447793252574037e+00,-3.400497671814897704e-01,1.748496714084426529e+00,-2.888913751998305912e+00
0.000000000000000000e+00,0.000000000000000000e+00,0.000000000000000000e+00,0.000000000000000000e+00,0.000000000000000000e+00,0.000000000000000000e+00,0.000000000000000000e+00,0.000000000000000000e+00,0.000000000000000000e+00,0.000000000000000000e+00,0.000000000000000000e+00,0.000000000000000000e+00,-2.396044524629128980e-01,-2.297081580151194125e+00,-1.641610158666950481e+00,-2.918192667832683607e-01,1.754608152493026818e+00,-2.888474942836861459e+00
0.000000000000000000e+00,0.000000000000000000e+00,0.000000000000000000e+00,0.000000000000000000e+00,0.000000000000000000e+00,0.000000000000000000e+00,0.000000000000000000e+00,0.000000000000000000e+00,0.000000000000000000e+00,0.000000000000000000e+00,0.000000000000000000e+00,0.000000000000000000e+00,-2.387278173913447987e-01,-2.291060349567727528e+00,-1.666890173725299462e+00,-2.450990793609267859e-01,1.760420563058288090e+00,-2.888190981630956777e+00
0.000000000000000000e+00,0.000000000000000000e+00,0.000000000000000000e+00,0.000000000000000000e+00,0.000000000000000000e+00,0.000000000000000000e+00,0.000000000000000000e+00,0.000000000000000000e+00,0.000000000000000000e+00,0.000000000000000000e+00,0.000000000000000000e+00,0.000000000000000000e+00,-2.364358631867412852e-01,-2.283430006748105257e+00,-1.671662503972184632e+00,-2.340411138362850085e-01,1.760742924347326488e+00,-2.888133614315516962e+00
0.000000000000000000e+00,0.000000000000000000e+00,0.000000000000000000e+00,0.000000000000000000e+00,0.000000000000000000e+00,0.000000000000000000e+00,0.000000000000000000e+00,0.000000000000000000e+00,0.000000000000000000e+00,0.000000000000000000e+00,0.000000000000000000e+00,0.000000000000000000e+00,-2.343328327925886245e-01,-2.276307773097379084e+00,-1.675527688425207717e+00,-2.231446629195213693e-01,1.761058807198737641e+00,-2.888113903583186648e+00
0.000000000000000000e+00,0.000000000000000000e+00,0.000000000000000000e+00,0.000000000000000000e+00,0.000000000000000000e+00,0.000000000000000000e+00,0.000000000000000000e+00,0.000000000000000000e+00,0.000000000000000000e+00,0.000000000000000000e+00,0.000000000000000000e+00,0.000000000000000000e+00,-2.322298023984358806e-01,-2.269185539446652022e+00,-1.679392872878231469e+00,-2.122482120027578689e-01,1.761374690050148129e+00,-2.888094192850858111e+00
0.000000000000000000e+00,0.000000000000000000e+00,0.000000000000000000e+00,0.000000000000000000e+00,0.000000000000000000e+00,0.000000000000000000e+00,0.000000000000000000e+00,0.000000000000000000e+00,0.000000000000000000e+00,0.000000000000000000e+00,0.000000000000000000e+00,0.000000000000000000e+00,-2.301267720042831366e-01,-2.262063305795925849e+00,-1.683258057331254998e+00,-2.013517610859945073e-01,1.761690572901558838e+00,-2.888074482118528685e+00
0.000000000000000000e+00,0.000000000000000000e+00,0.000000000000000000e+00,0.000000000000000000e+00,0.000000000000000000e+00,0.000000000000000000e+00,0.000000000000000000e+00,0.000000000000000000e+00,0.000000000000000000e+00,0.000000000000000000e+00,0.000000000000000000e+00,0.000000000000000000e+00,-2.280237416101304759e-01,-2.254941072145198344e+00,-1.687123241784277861e+00,-1.904553101692311456e-01,1.762006455752968881e+00,-2.888054771386198816e+00
0.000000000000000000e+00,0.000000000000000000e+00,0.000000000000000000e+00,0.000000000000000000e+00,0.000000000000000000e+00,0.000000000000000000e+00,0.000000000000000000e+00,0.000000000000000000e+00,0.000000000000000000e+00,0.000000000000000000e+00,0.000000000000000000e+00,0.000000000000000000e+00,-2.249178369755431284e-01,-2.249532782991105151e+00,-1.691692572635150604e+00,-1.795551170714739797e-01,1.762247816581136606e+00,-2.887843254973828433e+00
0.000000000000000000e+00,0.000000000000000000e+00,0.000000000000000000e+00,0.000000000000000000e+00,0.000000000000000000e+00,0.000000000000000000e+00,0.000000000000000000e+00,0.000000000000000000e+00,0.000000000000000000e+00,0.000000000000000000e+00,0.000000000000000000e+00,0.000000000000000000e+00,-2.209823401581839653e-01,-2.245542293695442559e+00,-1.696844383645182308e+00,-1.686518283870790391e-01,1.762427531705950123e+00,-2.887473074108470428e+00
0.000000000000000000e+00,0.000000000000000000e+00,0.000000000000000000e+00,0.000000000000000000e+00,0.000000000000000000e+00,0.000000000000000000e+00,0.000000000000000000e+00,0.000000000000000000e+00,0.000000000000000000e+00,0.000000000000000000e+00,0.000000000000000000e+00,0.000000000000000000e+00,-2.170468433408248299e-01,-2.241551804399780856e+00,-1.701996194655212680e+00,-1.577485397026834324e-01,1.762607246830763863e+00,-2.887102893243112423e+00
0.000000000000000000e+00,0.000000000000000000e+00,0.000000000000000000e+00,0.000000000000000000e+00,0.000000000000000000e+00,0.000000000000000000e+00,0.000000000000000000e+00,0.000000000000000000e+00,0.000000000000000000e+00,0.000000000000000000e+00,0.000000000000000000e+00,0.000000000000000000e+00,-2.131113465234655280e-01,-2.237561315104117377e+00,-1.707148005665243051e+00,-1.468452510182876869e-01,1.762786961955577159e+00,-2.886732712377754417e+00
0.000000000000000000e+00,0.000000000000000000e+00,0.000000000000000000e+00,0.000000000000000000e+00,0.000000000000000000e+00,0.000000000000000000e+00,0.000000000000000000e+00,0.000000000000000000e+00,0.000000000000000000e+00,0.000000000000000000e+00,0.000000000000000000e+00,0.000000000000000000e+00,-2.090246890614619324e-01,-2.238420255083504173e+00,-1.711354421749877286e+00,-1.358813597206713075e-01,1.762852236792274541e+00,-2.886021500048551847e+00
0.000000000000000000e+00,0.000000000000000000e+00,0.000000000000000000e+00,0.000000000000000000e+00,0.000000000000000000e+00,0.000000000000000000e+00,0.000000000000000000e+00,0.000000000000000000e+00,0.000000000000000000e+00,0.000000000000000000e+00,0.000000000000000000e+00,0.000000000000000000e+00,-2.049267337362061792e-01,-2.239641645149876403e+00,-1.715490178288096912e+00,-1.249129389369670884e-01,1.762908958273507798e+00,-2.885284798764521597e+00
0.000000000000000000e+00,0.000000000000000000e+00,0.000000000000000000e+00,0.000000000000000000e+00,0.000000000000000000e+00,0.000000000000000000e+00,0.000000000000000000e+00,0.000000000000000000e+00,0.000000000000000000e+00,0.000000000000000000e+00,0.000000000000000000e+00,0.000000000000000000e+00,-2.008287784109503982e-01,-2.240863035216248633e+00,-1.719625934826316538e+00,-1.139445181532631191e-01,1.762965679754741055e+00,-2.884548097480490902e+00
0.000000000000000000e+00,0.000000000000000000e+00,0.000000000000000000e+00,0.000000000000000000e+00,0.000000000000000000e+00,0.000000000000000000e+00,0.000000000000000000e+00,0.000000000000000000e+00,0.000000000000000000e+00,0.000000000000000000e+00,0.000000000000000000e+00,0.000000000000000000e+00,-1.967308230856946172e-01,-2.242084425282620863e+00,-1.723761691364535054e+00,-1.029760973695588167e-01,1.763022401235974757e+00,-2.883811396196460208e+00
0.000000000000000000e+00,0.000000000000000000e+00,0.000000000000000000e+00,0.000000000000000000e+00,0.000000000000000000e+00,0.000000000000000000e+00,0.000000000000000000e+00,0.000000000000000000e+00,0.000000000000000000e+00,0.000000000000000000e+00,0.000000000000000000e+00,0.000000000000000000e+00,-1.926328677604388917e-01,-2.243305815348993981e+00,-1.727897447902754902e+00,-9.200767658585454201e-02,1.763079122717209346e+00,-2.883074694912430402e+00
0.000000000000000000e+00,0.000000000000000000e+00,0.000000000000000000e+00,0.000000000000000000e+00,0.000000000000000000e+00,0.000000000000000000e+00,0.000000000000000000e+00,0.000000000000000000e+00,0.000000000000000000e+00,0.000000000000000000e+00,0.000000000000000000e+00,0.000000000000000000e+00,-1.875016120101095640e-01,-2.243789946793167012e+00,-1.728850212687039090e+00,-8.605966882425680753e-02,1.761954048002708495e+00,-2.882328508196022376e+00
0.000000000000000000e+00,0.000000000000000000e+00,0.000000000000000000e+00,0.000000000000000000e+00,0.000000000000000000e+00,0.000000000000000000e+00,0.000000000000000000e+00,0.000000000000000000e+00,0.000000000000000000e+00,0.000000000000000000e+00,0.000000000000000000e+00,0.000000000000000000e+00,-1.767813955219703637e-01,-2.245353476851096985e+00,-1.725959896610258282e+00,-8.454114894669556568e-02,1.760030922430185996e+00,-2.881844754352023141e+00
0.000000000000000000e+00,0.000000000000000000e+00,0.000000000000000000e+00,0.000000000000000000e+00,0.000000000000000000e+00,0.000000000000000000e+00,0.000000000000000000e+00,0.000000000000000000e+00,0.000000000000000000e+00,0.000000000000000000e+00,0.000000000000000000e+00,0.000000000000000000e+00,-1.649834828396837261e-01,-2.247261246724820527e+00,-1.721508583440935158e+00,-8.529829415191342301e-02,1.757754299193994729e+00,-2.881442804355887066e+00
0.000000000000000000e+00,0.000000000000000000e+00,0.000000000000000000e+00,0.000000000000000000e+00,0.000000000000000000e+00,0.000000000000000000e+00,0.000000000000000000e+00,0.000000000000000000e+00,0.000000000000000000e+00,0.000000000000000000e+00,0.000000000000000000e+00,0.000000000000000000e+00,-1.532306108266362488e-01,-2.249237792021105520e+00,-1.714853118683691058e+00,-9.024706916883085128e-02,1.754914931538654299e+00,-2.881127116367019791e+00
0.000000000000000000e+00,0.000000000000000000e+00,0.000000000000000000e+00,0.000000000000000000e+00,0.000000000000000000e+00,0.000000000000000000e+00,0.000000000000000000e+00,0.000000000000000000e+00,0.000000000000000000e+00,0.000000000000000000e+00,0.000000000000000000e+00,0.000000000000000000e+00,-1.414777388135887992e-01,-2.251214337317390513e+00,-1.708197653926446513e+00,-9.519584418574830731e-02,1.752075563883312315e+00,-2.880811428378151184e+00
0.000000000000000000e+00,0.000000000000000000e+00,0.000000000000000000e+00,0.000000000000000000e+00,0.000000000000000000e+00,0.000000000000000000e+00,0.000000000000000000e+00,0.000000000000000000e+00,0.000000000000000000e+00,0.000000000000000000e+00,0.000000000000000000e+00,0.000000000000000000e+00,-1.297248668005412386e-01,-2.253190882613673729e+00,-1.701542189169203079e+00,-1.001446192026651250e-01,1.749236196227971440e+00,-2.880495740389282133e+00
0.000000000000000000e+00,0.000000000000000000e+00,0.000000000000000000e+00,0.000000000000000000e+00,0.000000000000000000e+00,0.000000000000000000e+00,0.000000000000000000e+00,0.000000000000000000e+00,0.000000000000000000e+00,0.000000000000000000e+00,0.000000000000000000e+00,0.000000000000000000e+00,-1.177323945478427891e-01,-2.255368219241690841e+00,-1.695536960253621439e+00,-1.051216130496902545e-01,1.746506496511603945e+00,-2.880182415905071291e+00
0.000000000000000000e+00,0.000000000000000000e+00,0.000000000000000000e+00,0.000000000000000000e+00,0.000000000000000000e+00,0.000000000000000000e+00,0.000000000000000000e+00,0.000000000000000000e+00,0.000000000000000000e+00,0.000000000000000000e+00,0.000000000000000000e+00,0.000000000000000000e+00,-1.056322036840122158e-01,-2.257635826912061106e+00,-1.689824062021324291e+00,-1.101112934165265067e-01,1.743826100911498367e+00,-2.879870153996757942e+00
0.000000000000000000e+00,0.000000000000000000e+00,0.000000000000000000e+00,0.000000000000000000e+00,0.000000000000000000e+00,0.000000000000000000e+00,0.000000000000000000e+00,0.000000000000000000e+00,0.000000000000000000e+00,0.000000000000000000e+00,0.000000000000000000e+00,0.000000000000000000e+00,-9.350157368809751401e-02,-2.259903639223909799e+00,-1.684093163541492855e+00,-1.150954048349888403e-01,1.741120449234174972e+00,-2.879559166427818617e+00
0.000000000000000000e+00,0.000000000000000000e+00,0.000000000000000000e+00,0.000000000000000000e+00,0.000000000000000000e+00,0.000000000000000000e+00,0.000000000000000000e+00,0.000000000000000000e+00,0.000000000000000000e+00,0.000000000000000000e+00,0.000000000000000000e+00,0.000000000000000000e+00,-8.124817783767790402e-02,-2.262172276887345568e+00,-1.678289667204288405e+00,-1.200570558001166077e-01,1.738312935785877533e+00,-2.879253318471990397e+00
0.000000000000000000e+00,0.000000000000000000e+00,0.000000000000000000e+00,0.000000000000000000e+00,0.000000000000000000e+00,0.000000000000000000e+00,0.000000000000000000e+00,0.000000000000000000e+00,0.000000000000000000e+00,0.000000000000000000e+00,0.000000000000000000e+00,0.000000000000000000e+00,-6.899478198725811362e-02,-2.264440914550781336e+00,-1.672486170867083510e+00,-1.250187067652437922e-01,1.735505422337579873e+00,-2.878947470516162621e+00
0.000000000000000000e+00,0.000000000000000000e+00,0.000000000000000000e+00,0.000000000000000000e+00,0.000000000000000000e+00,0.000000000000000000e+00,0.000000000000000000e+00,0.000000000000000000e+00,0.000000000000000000e+00,0.000000000000000000e+00,0.000000000000000000e+00,0.000000000000000000e+00,-5.698687353119887694e-02,-2.266630381270487327e+00,-1.665902577666408702e+00,-1.330139077665147829e-01,1.732457413948865099e+00,-2.878876058261531146e+00
0.000000000000000000e+00,0.000000000000000000e+00,0.000000000000000000e+00,0.000000000000000000e+00,0.000000000000000000e+00,0.000000000000000000e+00,0.000000000000000000e+00,0.000000000000000000e+00,0.000000000000000000e+00,0.000000000000000000e+00,0.000000000000000000e+00,0.000000000000000000e+00,-4.511269221525453926e-02,-2.268762947048667655e+00,-1.657616932138377797e+00,-1.445561004582784359e-01,1.729116515470405790e+00,-2.878891154131506092e+00
0.000000000000000000e+00,0.000000000000000000e+00,0.000000000000000000e+00,0.000000000000000000e+00,0.000000000000000000e+00,0.000000000000000000e+00,0.000000000000000000e+00,0.000000000000000000e+00,0.000000000000000000e+00,0.000000000000000000e+00,0.000000000000000000e+00,0.000000000000000000e+00,-3.326607504362243117e-02,-2.270880038989800731e+00,-1.649350474252656795e+00,-1.560923176576185512e-01,1.725779951396835710e+00,-2.878911450912167602e+00
0.000000000000000000e+00,0.000000000000000000e+00,0.000000000000000000e+00,0.000000000000000000e+00,0.000000000000000000e+00,0.000000000000000000e+00,0.000000000000000000e+00,0.000000000000000000e+00,0.000000000000000000e+00,0.000000000000000000e+00,0.000000000000000000e+00,0.000000000000000000e+00,-2.264606237168327596e-02,-2.272308545138601588e+00,-1.641937866503929033e+00,-1.673626254272104208e-01,1.722636268353060718e+00,-2.879163188233141213e+00
0.000000000000000000e+00,0.000000000000000000e+00,0.000000000000000000e+00,0.000000000000000000e+00,0.000000000000000000e+00,0.000000000000000000e+00,0.000000000000000000e+00,0.000000000000000000e+00,0.000000000000000000e+00,0.000000000000000000e+00,0.000000000000000000e+00,0.000000000000000000e+00,-1.202604969974382931e-02,-2.273737051287402444e+00,-1.634525258755200827e+00,-1.786329331968027068e-01,1.719492585309286170e+00,-2.879414925554113935e+00
0.000000000000000000e+00,0.000000000000000000e+00,0.000000000000000000e+00,0.000000000000000000e+00,0.000000000000000000e+00,0.000000000000000000e+00,0.000000000000000000e+00,0.000000000000000000e+00,0.000000000000000000e+00,0.000000000000000000e+00,0.000000000000000000e+00,0.000000000000000000e+00,1.300443463698730540e-03,-2.275071248666650447e+00,-1.627539442981829287e+00,-1.887483144348283959e-01,1.711772331710997408e+00,-2.879780039829215710e+00
0.000000000000000000e+00,0.000000000000000000e+00,0.000000000000000000e+00,0.000000000000000000e+00,0.000000000000000000e+00,0.000000000000000000e+00,0.000000000000000000e+00,0.000000000000000000e+00,0.000000000000000000e+00,0.000000000000000000e+00,0.000000000000000000e+00,0.000000000000000000e+00,1.515691174000653729e-02,-2.276386978777817482e+00,-1.620637200367777586e+00,-1.986375413292922887e-01,1.703155907420260906e+00,-2.880167355248663075e+00
0.000000000000000000e+00,0.000000000000000000e+00,0.000000000000000000e+00,0.000000000000000000e+00,0.000000000000000000e+00,0.000000000000000000e+00,0.000000000000000000e+00,0.000000000000000000e+00,0.000000000000000000e+00,0.000000000000000000e+00,0.000000000000000000e+00,0.000000000000000000e+00,2.880955803584701880e-02,-2.277590191514145879e+00,-1.614079276988707123e+00,-2.077299718458554545e-01,1.695075501904617532e+00,-2.880074326860562639e+00
0.000000000000000000e+00,0.000000000000000000e+00,0.000000000000000000e+00,0.000000000000000000e+00,0.000000000000000000e+00,0.000000000000000000e+00,0.000000000000000000e+00,0.000000000000000000e+00,0.000000000000000000e+00,0.000000000000000000e+00,0.000000000000000000e+00,0.000000000000000000e+00,4.240717397644733211e-02,-2.278763025431201683e+00,-1.607614317134834048e+00,-2.166072735150331163e-01,1.687139817304456058e+00,-2.879851609366772092e+00
0.000000000000000000e+00,0.000000000000000000e+00,0.000000000000000000e+00,0.000000000000000000e+00,0.000000000000000000e+00,0.000000000000000000e+00,0.000000000000000000e+00,0.000000000000000000e+00,0.000000000000000000e+00,0.000000000000000000e+00,0.000000000000000000e+00,0.000000000000000000e+00,5.618789899929974019e-02,-2.279910774026523868e+00,-1.601304506229995761e+00,-2.251137382805021014e-01,1.679162514660007988e+00,-2.879602626256343889e+00
0.000000000000000000e+00,0.000000000000000000e+00,0.000000000000000000e+00,0.000000000000000000e+00,0.000000000000000000e+00,0.000000000000000000e+00,0.000000000000000000e+00,0.000000000000000000e+00,0.000000000000000000e+00,0.000000000000000000e+00,0.000000000000000000e+00,0.000000000000000000e+00,7.029174620419456621e-02,-2.281014255981453687e+00,-1.595268477850511069e+00,-2.329658082555283727e-01,1.671111771020080461e+00,-2.879307293706244941e+00
0.000000000000000000e+00,0.000000000000000000e+00,0.000000000000000000e+00,0.000000000000000000e+00,0.000000000000000000e+00,0.000000000000000000e+00,0.000000000000000000e+00,0.000000000000000000e+00,0.000000000000000000e+00,0.000000000000000000e+00,0.000000000000000000e+00,0.000000000000000000e+00,8.439559340908947549e-02,-2.282117737936384394e+00,-1.589232449471026598e+00,-2.408178782305553101e-01,1.663061027380152712e+00,-2.879011961156146437e+00
0.000000000000000000e+00,0.000000000000000000e+00,0.000000000000000000e+00,0.000000000000000000e+00,0.000000000000000000e+00,0.000000000000000000e+00,0.000000000000000000e+00,0.000000000000000000e+00,0.000000000000000000e+00,0.000000000000000000e+00,0.000000000000000000e+00,0.000000000000000000e+00,9.816617596048937688e-02,-2.283260784575617208e+00,-1.583101455227034604e+00,-2.484026647539387678e-01,1.655716266182567953e+00,-2.878673446230560984e+00
0.000000000000000000e+00,0.000000000000000000e+00,0.000000000000000000e+00,0.000000000000000000e+00,0.000000000000000000e+00,0.000000000000000000e+00,0.000000000000000000e+00,0.000000000000000000e+00,0.000000000000000000e+00,0.000000000000000000e+00,0.000000000000000000e+00,0.000000000000000000e+00,1.117512823763637253e-01,-2.284425850665971147e+00,-1.576917608388654468e+00,-2.558386965228619525e-01,1.648764414625358166e+00,-2.878310898452871136e+00
0.000000000000000000e+00,0.000000000000000000e+00,0.000000000000000000e+00,0.000000000000000000e+00,0.000000000000000000e+00,0.000000000000000000e+00,0.000000000000000000e+00,0.000000000000000000e+00,0.000000000000000000e+00,0.000000000000000000e+00,0.000000000000000000e+00,0.000000000000000000e+00,1.253363887922380460e-01,-2.285590916756324198e+00,-1.570733761550272556e+00,-2.632747282917860532e-01,1.641812563068148600e+00,-2.877948350675183953e+00
0.000000000000000000e+00,0.000000000000000000e+00,0.000000000000000000e+00,0.000000000000000000e+00,0.000000000000000000e+00,0.000000000000000000e+00,0.000000000000000000e+00,0.000000000000000000e+00,0.000000000000000000e+00,0.000000000000000000e+00,0.000000000000000000e+00,0.000000000000000000e+00,1.389214952081124499e-01,-2.286755982846678137e+00,-1.564549914711892642e+00,-2.707107600607095987e-01,1.634860711510938813e+00,-2.877585802897494549e+00
0.000000000000000000e+00,0.000000000000000000e+00,0.000000000000000000e+00,0.000000000000000000e+00,0.000000000000000000e+00,0.000000000000000000e+00,0.000000000000000000e+00,0.000000000000000000e+00,0.000000000000000000e+00,0.000000000000000000e+00,0.000000000000000000e+00,0.000000000000000000e+00,1.525066016239867983e-01,-2.287921048937032076e+00,-1.558366067873511840e+00,-2.781467918296333108e-01,1.627908859953728360e+00,-2.877223255119805589e+00
0.000000000000000000e+00,0.000000000000000000e+00,0.000000000000000000e+00,0.000000000000000000e+00,0.000000000000000000e+00,0.000000000000000000e+00,0.000000000000000000e+00,0.000000000000000000e+00,0.000000000000000000e+00,0.000000000000000000e+00,0.000000000000000000e+00,0.000000000000000000e+00,1.660917080398610635e-01,-2.289086115027385127e+00,-1.552182221035130372e+00,-2.855828235985573005e-01,1.620957008396518573e+00,-2.876860707342116630e+00
0.000000000000000000e+00,0.000000000000000000e+00,0.000000000000000000e+00,0.000000000000000000e+00,0.000000000000000000e+00,0.000000000000000000e+00,0.000000000000000000e+00,0.000000000000000000e+00,0.000000000000000000e+00,0.000000000000000000e+00,0.000000000000000000e+00,0.000000000000000000e+00,1.796768144557355784e-01,-2.290251181117739065e+00,-1.545998374196749792e+00,-2.930188553674807350e-01,1.614005156839309008e+00,-2.876498159564428114e+00
0.000000000000000000e+00,0.000000000000000000e+00,0.000000000000000000e+00,0.000000000000000000e+00,0.000000000000000000e+00,0.000000000000000000e+00,0.000000000000000000e+00,0.000000000000000000e+00,0.000000000000000000e+00,0.000000000000000000e+00,0.000000000000000000e+00,0.000000000000000000e+00,1.932619208716098713e-01,-2.291416247208092116e+00,-1.539814527358368990e+00,-3.004548871364046692e-01,1.607053305282098554e+00,-2.876135611786738711e+00
0.000000000000000000e+00,0.000000000000000000e+00,0.000000000000000000e+00,0.000000000000000000e+00,0.000000000000000000e+00,0.000000000000000000e+00,0.000000000000000000e+00,0.000000000000000000e+00,0.000000000000000000e+00,0.000000000000000000e+00,0.000000000000000000e+00,0.000000000000000000e+00,2.068470272874840532e-01,-2.292581313298445167e+00,-1.533630680519988410e+00,-3.078909189053280482e-01,1.600101453724888323e+00,-2.875773064009050639e+00
0.000000000000000000e+00,0.000000000000000000e+00,0.000000000000000000e+00,0.000000000000000000e+00,0.000000000000000000e+00,0.000000000000000000e+00,0.000000000000000000e+00,0.000000000000000000e+00,0.000000000000000000e+00,0.000000000000000000e+00,0.000000000000000000e+00,0.000000000000000000e+00,2.204321337033584016e-01,-2.293746379388799106e+00,-1.527446833681607608e+00,-3.153269506742515382e-01,1.593149602167678758e+00,-2.875410516231362124e+00
0.000000000000000000e+00,0.000000000000000000e+00,0.000000000000000000e+00,0.000000000000000000e+00,0.000000000000000000e+00,0.000000000000000000e+00,0.000000000000000000e+00,0.000000000000000000e+00,0.000000000000000000e+00,0.000000000000000000e+00,0.000000000000000000e+00,0.000000000000000000e+00,2.340172401192330276e-01,-2.294911445479153045e+00,-1.521262986843226361e+00,-3.227629824431753613e-01,1.586197750610468304e+00,-2.875047968453673608e+00
0.000000000000000000e+00,0.000000000000000000e+00,0.000000000000000000e+00,0.000000000000000000e+00,0.000000000000000000e+00,0.000000000000000000e+00,0.000000000000000000e+00,0.000000000000000000e+00,0.000000000000000000e+00,0.000000000000000000e+00,0.000000000000000000e+00,0.000000000000000000e+00,2.476974588238166075e-01,-2.295892382894813899e+00,-1.515207554375576970e+00,-3.295996714641713510e-01,1.579228211686794614e+00,-2.874664417239863212e+00
0.000000000000000000e+00,0.000000000000000000e+00,0.000000000000000000e+00,0.000000000000000000e+00,0.000000000000000000e+00,0.000000000000000000e+00,0.000000000000000000e+00,0.000000000000000000e+00,0.000000000000000000e+00,0.000000000000000000e+00,0.000000000000000000e+00,0.000000000000000000e+00,2.617121316848247115e-01,-2.296225847713572854e+00,-1.509603679962288725e+00,-3.343288234267380865e-01,1.572196476665114639e+00,-2.874207009255226541e+00
0.000000000000000000e+00,0.000000000000000000e+00,0.000000000000000000e+00,0.000000000000000000e+00,0.000000000000000000e+00,0.000000000000000000e+00,0.000000000000000000e+00,0.000000000000000000e+00,0.000000000000000000e+00,0.000000000000000000e+00,0.000000000000000000e+00,0.000000000000000000e+00,2.757268045458326489e-01,-2.296559312532331809e+00,-1.503999805549001811e+00,-3.390579753893041559e-01,1.565164741643434443e+00,-2.873749601270589871e+00
0.000000000000000000e+00,0.000000000000000000e+00,0.000000000000000000e+00,0.000000000000000000e+00,0.000000000000000000e+00,0.000000000000000000e+00,0.000000000000000000e+00,0.000000000000000000e+00,0.000000000000000000e+00,0.000000000000000000e+00,0.000000000000000000e+00,0.000000000000000000e+00,2.897414774068407528e-01,-2.296892777351091652e+00,-1.498395931135713788e+00,-3.437871273518708914e-01,1.558133006621754246e+00,-2.873292193285954088e+00
0.000000000000000000e+00,0.000000000000000000e+00,0.000000000000000000e+00,0.000000000000000000e+00,0.000000000000000000e+00,0.000000000000000000e+00,0.000000000000000000e+00,0.000000000000000000e+00,0.000000000000000000e+00,0.000000000000000000e+00,0.000000000000000000e+00,0.000000000000000000e+00,3.037561502678488567e-01,-2.297226242169850607e+00,-1.492792056722426430e+00,-3.485162793144368498e-01,1.551101271600073384e+00,-2.872834785301317861e+00
0.000000000000000000e+00,0.000000000000000000e+00,0.000000000000000000e+00,0.000000000000000000e+00,0.000000000000000000e+00,0.000000000000000000e+00,0.000000000000000000e+00,0.000000000000000000e+00,0.000000000000000000e+00,0.000000000000000000e+00,0.000000000000000000e+00,0.000000000000000000e+00,3.177708231288570162e-01,-2.297559706988609562e+00,-1.487188182309137519e+00,-3.532454312770031413e-01,1.544069536578393631e+00,-2.872377377316681635e+00
0.000000000000000000e+00,0.000000000000000000e+00,0.000000000000000000e+00,0.000000000000000000e+00,0.000000000000000000e+00,0.000000000000000000e+00,0.000000000000000000e+00,0.000000000000000000e+00,0.000000000000000000e+00,0.000000000000000000e+00,0.000000000000000000e+00,0.000000000000000000e+00,3.317854959898648981e-01,-2.297893171807369406e+00,-1.481584307895850161e+00,-3.579745832395697103e-01,1.537037801556713212e+00,-2.871919969332044964e+00
0.000000000000000000e+00,0.000000000000000000e+00,0.000000000000000000e+00,0.000000000000000000e+00,0.000000000000000000e+00,0.000000000000000000e+00,0.000000000000000000e+00,0.000000000000000000e+00,0.000000000000000000e+00,0.000000000000000000e+00,0.000000000000000000e+00,0.000000000000000000e+00,3.456013593197827527e-01,-2.299018664337544315e+00,-1.476036324457365767e+00,-3.641947879190787773e-01,1.526497666848643853e+00,-2.863983084961108538e+00
0.000000000000000000e+00,0.000000000000000000e+00,0.000000000000000000e+00,0.000000000000000000e+00,0.000000000000000000e+00,0.000000000000000000e+00,0.000000000000000000e+00,0.000000000000000000e+00,0.000000000000000000e+00,0.000000000000000000e+00,0.000000000000000000e+00,0.000000000000000000e+00,3.594700411955364383e-01,-2.300314227394090416e+00,-1.470418184573986542e+00,-3.707664045729360813e-01,1.514999607860392894e+00,-2.853976409121800728e+00
0.000000000000000000e+00,0.000000000000000000e+00,0.000000000000000000e+00,0.000000000000000000e+00,0.000000000000000000e+00,0.000000000000000000e+00,0.000000000000000000e+00,0.000000000000000000e+00,0.000000000000000000e+00,0.000000000000000000e+00,0.000000000000000000e+00,0.000000000000000000e+00,3.733387230712899574e-01,-2.301609790450635629e+00,-1.464800044690606873e+00,-3.773380212267938294e-01,1.503501548872142601e+00,-2.843969733282491141e+00
0.000000000000000000e+00,0.000000000000000000e+00,0.000000000000000000e+00,0.000000000000000000e+00,0.000000000000000000e+00,0.000000000000000000e+00,0.000000000000000000e+00,0.000000000000000000e+00,0.000000000000000000e+00,0.000000000000000000e+00,0.000000000000000000e+00,0.000000000000000000e+00,3.872074049470437540e-01,-2.302905353507180841e+00,-1.459181904807227870e+00,-3.839096378806510224e-01,1.492003489883891199e+00,-2.833963057443182887e+00
0.000000000000000000e+00,0.000000000000000000e+00,0.000000000000000000e+00,0.000000000000000000e+00,0.000000000000000000e+00,0.000000000000000000e+00,0.000000000000000000e+00,0.000000000000000000e+00,0.000000000000000000e+00,0.000000000000000000e+00,0.000000000000000000e+00,0.000000000000000000e+00,4.010760868227973286e-01,-2.304200916563726054e+00,-1.453563764923849533e+00,-3.904812545345081598e-01,1.480505430895640684e+00,-2.823956381603875521e+00
0.000000000000000000e+00,0.000000000000000000e+00,0.000000000000000000e+00,0.000000000000000000e+00,0.000000000000000000e+00,0.000000000000000000e+00,0.000000000000000000e+00,0.000000000000000000e+00,0.000000000000000000e+00,0.000000000000000000e+00,0.000000000000000000e+00,0.000000000000000000e+00,4.149447686985510142e-01,-2.305496479620272154e+00,-1.447945625040470530e+00,-3.970528711883662409e-01,1.469007371907389947e+00,-2.813949705764566378e+00
0.000000000000000000e+00,0.000000000000000000e+00,0.000000000000000000e+00,0.000000000000000000e+00,0.000000000000000000e+00,0.000000000000000000e+00,0.000000000000000000e+00,0.000000000000000000e+00,0.000000000000000000e+00,0.000000000000000000e+00,0.000000000000000000e+00,0.000000000000000000e+00,4.279095493735485256e-01,-2.307439769818780739e+00,-1.441089022903015993e+00,-4.049528190438314024e-01,1.457613473576599983e+00,-2.803387527888445252e+00
0.000000000000000000e+00,0.000000000000000000e+00,0.000000000000000000e+00,0.000000000000000000e+00,0.000000000000000000e+00,0.000000000000000000e+00,0.000000000000000000e+00,0.000000000000000000e+00,0.000000000000000000e+00,0.000000000000000000e+00,0.000000000000000000e+00,0.000000000000000000e+00,4.402116788230917566e-01,-2.309857909684513544e+00,-1.433324502367339548e+00,-4.138265683477495571e-01,1.446295935568433721e+00,-2.792418110697753697e+00
0.000000000000000000e+00,0.000000000000000000e+00,0.000000000000000000e+00,0.000000000000000000e+00,0.000000000000000000e+00,0.000000000000000000e+00,0.000000000000000000e+00,0.000000000000000000e+00,0.000000000000000000e+00,0.000000000000000000e+00,0.000000000000000000e+00,0.000000000000000000e+00,4.528856083358795415e-01,-2.312271105190698783e+00,-1.424547904132567044e+00,-4.229931982772232035e-01,1.434663058224296517e+00,-2.781171487046460111e+00
0.000000000000000000e+00,0.000000000000000000e+00,0.000000000000000000e+00,0.000000000000000000e+00,0.000000000000000000e+00,0.000000000000000000e+00,0.000000000000000000e+00,0.000000000000000000e+00,0.000000000000000000e+00,0.000000000000000000e+00,0.000000000000000000e+00,0.000000000000000000e+00,4.662308614653217775e-01,-2.314675373142369708e+00,-1.413943894532222689e+00,-4.326886545847251631e-01,1.422460802968679161e+00,-2.769424338349347536e+00
0.000000000000000000e+00,0.000000000000000000e+00,0.000000000000000000e+00,0.000000000000000000e+00,0.000000000000000000e+00,0.000000000000000000e+00,0.000000000000000000e+00,0.000000000000000000e+00,0.000000000000000000e+00,0.000000000000000000e+00,0.000000000000000000e+00,0.000000000000000000e+00,4.799082938963815659e-01,-2.316697688023067414e+00,-1.403633034521755363e+00,-4.481946473427955158e-01,1.408410432431688841e+00,-2.757072715279238029e+00
0.000000000000000000e+00,0.000000000000000000e+00,0.000000000000000000e+00,0.000000000000000000e+00,0.000000000000000000e+00,0.000000000000000000e+00,0.000000000000000000e+00,0.000000000000000000e+00,0.000000000000000000e+00,0.000000000000000000e+00,0.000000000000000000e+00,0.000000000000000000e+00,4.936806436119478558e-01,-2.318626290619214103e+00,-1.393395972767153435e+00,-4.650791923758030855e-01,1.393874960996012380e+00,-2.744562974383745857e+00
0.000000000000000000e+00,0.000000000000000000e+00,0.000000000000000000e+00,0.000000000000000000e+00,0.000000000000000000e+00,0.000000000000000000e+00,0.000000000000000000e+00,0.000000000000000000e+00,0.000000000000000000e+00,0.000000000000000000e+00,0.000000000000000000e+00,0.000000000000000000e+00,5.079792564556828705e-01,-2.320183633712665561e+00,-1.382845016830994256e+00,-4.808280163630823112e-01,1.376363832154767319e+00,-2.731635925795312225e+00
0.000000000000000000e+00,0.000000000000000000e+00,0.000000000000000000e+00,0.000000000000000000e+00,0.000000000000000000e+00,0.000000000000000000e+00,0.000000000000000000e+00,0.000000000000000000e+00,0.000000000000000000e+00,0.000000000000000000e+00,0.000000000000000000e+00,0.000000000000000000e+00,5.207900731863489563e-01,-2.322846168609708606e+00,-1.371331277403267324e+00,-4.947966905409507121e-01,1.356295675847708937e+00,-2.719156292369270478e+00
0.000000000000000000e+00,0.000000000000000000e+00,0.000000000000000000e+00,0.000000000000000000e+00,0.000000000000000000e+00,0.000000000000000000e+00,0.000000000000000000e+00,0.000000000000000000e+00,0.000000000000000000e+00,0.000000000000000000e+00,0.000000000000000000e+00,0.000000000000000000e+00,5.340130072172444287e-01,-2.325025253967413441e+00,-1.360002778022005421e+00,-5.073899650503096437e-01,1.334854568222602733e+00,-2.706302679686426682e+00
0.000000000000000000e+00,0.000000000000000000e+00,0.000000000000000000e+00,0.000000000000000000e+00,0.000000000000000000e+00,0.000000000000000000e+00,0.000000000000000000e+00,0.000000000000000000e+00,0.000000000000000000e+00,0.000000000000000000e+00,0.000000000000000000e+00,0.000000000000000000e+00,5.472359412481399010e-01,-2.327204339325118276e+00,-1.348674278640742630e+00,-5.199832395596692969e-01,1.313413460597495641e+00,-2.693449067003580222e+00
0.000000000000000000e+00,0.000000000000000000e+00,0.000000000000000000e+00,0.000000000000000000e+00,0.000000000000000000e+00,0.000000000000000000e+00,0.000000000000000000e+00,0.000000000000000000e+00,0.000000000000000000e+00,0.000000000000000000e+00,0.000000000000000000e+00,0.000000000000000000e+00,5.604588752790350403e-01,-2.329383424682824000e+00,-1.337345779259480949e+00,-5.325765140690281729e-01,1.291972352972389215e+00,-2.680595454320734650e+00
0.000000000000000000e+00,0.000000000000000000e+00,0.000000000000000000e+00,0.000000000000000000e+00,0.000000000000000000e+00,0.000000000000000000e+00,0.000000000000000000e+00,0.000000000000000000e+00,0.000000000000000000e+00,0.000000000000000000e+00,0.000000000000000000e+00,0.000000000000000000e+00,5.672997890431884516e-01,-2.331106825172102326e+00,-1.323415278977540632e+00,-5.560997730527027505e-01,1.278727713691336643e+00,-2.660686353801210657e+00
0.000000000000000000e+00,0.000000000000000000e+00,0.000000000000000000e+00,0.000000000000000000e+00,0.000000000000000000e+00,0.000000000000000000e+00,0.000000000000000000e+00,0.000000000000000000e+00,0.000000000000000000e+00,0.000000000000000000e+00,0.000000000000000000e+00,0.000000000000000000e+00,5.730556539322995135e-01,-2.328291418771672561e+00,-1.308449998338360398e+00,-5.863353549240711837e-01,1.269144016313311862e+00,-2.640367470189769694e+00
0.000000000000000000e+00,0.000000000000000000e+00,0.000000000000000000e+00,0.000000000000000000e+00,0.000000000000000000e+00,0.000000000000000000e+00,0.000000000000000000e+00,0.000000000000000000e+00,0.000000000000000000e+00,0.000000000000000000e+00,0.000000000000000000e+00,0.000000000000000000e+00,5.778068124923605442e-01,-2.323978287168489310e+00,-1.297137084683303243e+00,-6.174950073677615281e-01,1.260411296292170302e+00,-2.615660839165577567e+00
0.000000000000000000e+00,0.000000000000000000e+00,0.000000000000000000e+00,0.000000000000000000e+00,0.000000000000000000e+00,0.000000000000000000e+00,0.000000000000000000e+00,0.000000000000000000e+00,0.000000000000000000e+00,0.000000000000000000e+00,0.000000000000000000e+00,0.000000000000000000e+00,5.817883265032370854e-01,-2.321728327617609722e+00,-1.288945400847768763e+00,-6.491310958274716381e-01,1.252810979049385098e+00,-2.585685377506414362e+00
0.000000000000000000e+00,0.000000000000000000e+00,0.000000000000000000e+00,0.000000000000000000e+00,0.000000000000000000e+00,0.000000000000000000e+00,0.000000000000000000e+00,0.000000000000000000e+00,0.000000000000000000e+00,0.000000000000000000e+00,0.000000000000000000e+00,0.000000000000000000e+00,5.860878133679641167e-01,-2.322099312993315401e+00,-1.280572596076498870e+00,-6.812028058889932902e-01,1.246026278291719525e+00,-2.554807858525903530e+00
0.000000000000000000e+00,0.000000000000000000e+00,0.000000000000000000e+00,0.000000000000000000e+00,0.000000000000000000e+00,0.000000000000000000e+00,0.000000000000000000e+00,0.000000000000000000e+00,0.000000000000000000e+00,0.000000000000000000e+00,0.000000000000000000e+00,0.000000000000000000e+00,5.903399990764852667e-01,-2.322558448827965805e+00,-1.272278720132132168e+00,-7.123747961252052674e-01,1.239385992973242478e+00,-2.525251533777776558e+00
0.000000000000000000e+00,0.000000000000000000e+00,0.000000000000000000e+00,0.000000000000000000e+00,0.000000000000000000e+00,0.000000000000000000e+00,0.000000000000000000e+00,0.000000000000000000e+00,0.000000000000000000e+00,0.000000000000000000e+00,0.000000000000000000e+00,0.000000000000000000e+00,5.935397424720260107e-01,-2.323722389974355984e+00,-1.266195475625197409e+00,-7.373098035753197221e-01,1.234920074782608346e+00,-2.500525485161490202e+00
0.000000000000000000e+00,0.000000000000000000e+00,0.000000000000000000e+00,0.000000000000000000e+00,0.000000000000000000e+00,0.000000000000000000e+00,0.000000000000000000e+00,0.000000000000000000e+00,0.000000000000000000e+00,0.000000000000000000e+00,0.000000000000000000e+00,0.000000000000000000e+00,5.964121002700804031e-01,-2.325016257430396749e+00,-1.265921520773113151e+00,-7.517054541897156827e-01,1.232149190449210785e+00,-2.475675624801504160e+00
0.000000000000000000e+00,0.000000000000000000e+00,0.000000000000000000e+00,0.000000000000000000e+00,0.000000000000000000e+00,0.000000000000000000e+00,0.000000000000000000e+00,0.000000000000000000e+00,0.000000000000000000e+00,0.000000000000000000e+00,0.000000000000000000e+00,0.000000000000000000e+00,5.988971247338398252e-01,-2.327013269339482271e+00,-1.266097680947140480e+00,-7.636557487703059532e-01,1.229856608094269887e+00,-2.455442573676436702e+00
0.000000000000000000e+00,0.000000000000000000e+00,0.000000000000000000e+00,0.000000000000000000e+00,0.000000000000000000e+00,0.000000000000000000e+00,0.000000000000000000e+00,0.000000000000000000e+00,0.000000000000000000e+00,0.000000000000000000e+00,0.000000000000000000e+00,0.000000000000000000e+00,6.001063866280217374e-01,-2.327674993030774075e+00,-1.266938272947773836e+00,-7.715637542189746068e-01,1.228854260803303289e+00,-2.440618460303569215e+00
0.000000000000000000e+00,0.000000000000000000e+00,0.000000000000000000e+00,0.000000000000000000e+00,0.000000000000000000e+00,0.000000000000000000e+00,0.000000000000000000e+00,0.000000000000000000e+00,0.000000000000000000e+00,0.000000000000000000e+00,0.000000000000000000e+00,0.000000000000000000e+00,6.012297203165531956e-01,-2.328126443808323565e+00,-1.267790394005569254e+00,-7.793858188908684426e-01,1.227934687741287334e+00,-2.425762248169099244e+00
0.000000000000000000e+00,0.000000000000000000e+00,0.000000000000000000e+00,0.000000000000000000e+00,0.000000000000000000e+00,0.000000000000000000e+00,0.000000000000000000e+00,0.000000000000000000e+00,0.000000000000000000e+00,0.000000000000000000e+00,0.000000000000000000e+00,0.000000000000000000e+00,6.023530540050852089e-01,-2.328577894585872166e+00,-1.268642515063364451e+00,-7.872078835627611682e-01,1.227015114679271601e+00,-2.410906036034630162e+00
0.000000000000000000e+00,0.000000000000000000e+00,0.000000000000000000e+00,0.000000000000000000e+00,0.000000000000000000e+00,0.000000000000000000e+00,0.000000000000000000e+00,0.000000000000000000e+00,0.000000000000000000e+00,0.000000000000000000e+00,0.000000000000000000e+00,0.000000000000000000e+00,6.034763876936168892e-01,-2.329029345363420767e+00,-1.269494636121160314e+00,-7.950299482346541158e-01,1.226095541617255869e+00,-2.396049823900160192e+00
0.000000000000000000e+00,0.000000000000000000e+00,0.000000000000000000e+00,0.000000000000000000e+00,0.000000000000000000e+00,0.000000000000000000e+00,0.000000000000000000e+00,0.000000000000000000e+00,0.000000000000000000e+00,0.000000000000000000e+00,0.000000000000000000e+00,0.000000000000000000e+00,6.040784447423372949e-01,-2.329118637406878634e+00,-1.267760633126489234e+00,-8.065854674185439777e-01,1.226575595983211864e+00,-2.382329861381867531e+00
0.000000000000000000e+00,0.000000000000000000e+00,0.000000000000000000e+00,0.000000000000000000e+00,0.000000000000000000e+00,0.000000000000000000e+00,0.000000000000000000e+00,0.000000000000000000e+00,0.000000000000000000e+00,0.000000000000000000e+00,0.000000000000000000e+00,0.000000000000000000e+00,6.043477513957199454e-01,-2.328976749971456428e+00,-1.264375810326883176e+00,-8.205241903947475546e-01,1.227949084937283164e+00,-2.369335209533780517e+00
0.000000000000000000e+00,0.000000000000000000e+00,0.000000000000000000e+00,0.000000000000000000e+00,0.000000000000000000e+00,0.000000000000000000e+00,0.000000000000000000e+00,0.000000000000000000e+00,0.000000000000000000e+00,0.000000000000000000e+00,0.000000000000000000e+00,0.000000000000000000e+00,6.046170580491028179e-01,-2.328834862536035111e+00,-1.260990987527277563e+00,-8.344629133709504654e-01,1.229322573891353798e+00,-2.356340557685694392e+00
0.000000000000000000e+00,0.000000000000000000e+00,0.000000000000000000e+00,0.000000000000000000e+00,0.000000000000000000e+00,0.000000000000000000e+00,0.000000000000000000e+00,0.000000000000000000e+00,0.000000000000000000e+00,0.000000000000000000e+00,0.000000000000000000e+00,0.000000000000000000e+00,6.048863647024851353e-01,-2.328692975100612905e+00,-1.257606164727671283e+00,-8.484016363471538202e-01,1.230696062845424210e+00,-2.343345905837608711e+00
0.000000000000000000e+00,0.000000000000000000e+00,0.000000000000000000e+00,0.000000000000000000e+00,0.000000000000000000e+00,0.000000000000000000e+00,0.000000000000000000e+00,0.000000000000000000e+00,0.000000000000000000e+00,0.000000000000000000e+00,0.000000000000000000e+00,0.000000000000000000e+00,6.051556713558675638e-01,-2.328551087665190700e+00,-1.254221341928065669e+00,-8.623403593233562869e-01,1.232069551799495066e+00,-2.330351253989521698e+00
0.000000000000000000e+00,0.000000000000000000e+00,0.000000000000000000e+00,0.000000000000000000e+00,0.000000000000000000e+00,0.000000000000000000e+00,0.000000000000000000e+00,0.000000000000000000e+00,0.000000000000000000e+00,0.000000000000000000e+00,0.000000000000000000e+00,0.000000000000000000e+00,6.054597447649563424e-01,-2.328641217848428369e+00,-1.250781988354729979e+00,-8.764705979750719855e-01,1.233365319168510110e+00,-2.317362410110830773e+00
0.000000000000000000e+00,0.000000000000000000e+00,0.000000000000000000e+00,0.000000000000000000e+00,0.000000000000000000e+00,0.000000000000000000e+00,0.000000000000000000e+00,0.000000000000000000e+00,0.000000000000000000e+00,0.000000000000000000e+00,0.000000000000000000e+00,0.000000000000000000e+00,6.058209237459043495e-01,-2.329108080684967774e+00,-1.247259772258895394e+00,-8.909194539677831592e-01,1.234536295577882914e+00,-2.304372489738297336e+00
0.000000000000000000e+00,0.000000000000000000e+00,0.000000000000000000e+00,0.000000000000000000e+00,0.000000000000000000e+00,0.000000000000000000e+00,0.000000000000000000e+00,0.000000000000000000e+00,0.000000000000000000e+00,0.000000000000000000e+00,0.000000000000000000e+00,0.000000000000000000e+00,6.061885768050170320e-01,-2.329570695126782276e+00,-1.243740212053916272e+00,-9.053748899808040651e-01,1.235706190354258771e+00,-2.291382904911759777e+00
0.000000000000000000e+00,0.000000000000000000e+00,0.000000000000000000e+00,0.000000000000000000e+00,0.000000000000000000e+00,0.000000000000000000e+00,0.000000000000000000e+00,0.000000000000000000e+00,0.000000000000000000e+00,0.000000000000000000e+00,0.000000000000000000e+00,0.000000000000000000e+00,6.065626545241329381e-01,-2.330029460659742035e+00,-1.240219384931283919e+00,-9.198324564532955883e-01,1.236873781293757579e+00,-2.278400915992744302e+00
0.000000000000000000e+00,0.000000000000000000e+00,0.000000000000000000e+00,0.000000000000000000e+00,0.000000000000000000e+00,0.000000000000000000e+00,0.000000000000000000e+00,0.000000000000000000e+00,0.000000000000000000e+00,0.000000000000000000e+00,0.000000000000000000e+00,0.000000000000000000e+00,6.069367322432490663e-01,-2.330488226192700907e+00,-1.236698557808651566e+00,-9.342900229257877776e-01,1.238041372233256832e+00,-2.265418927073728383e+00
0.000000000000000000e+00,0.000000000000000000e+00,0.000000000000000000e+00,0.000000000000000000e+00,0.000000000000000000e+00,0.000000000000000000e+00,0.000000000000000000e+00,0.000000000000000000e+00,0.000000000000000000e+00,0.000000000000000000e+00,0.000000000000000000e+00,0.000000000000000000e+00,6.071277457060737515e-01,-2.331041950331760759e+00,-1.233033205468282878e+00,-9.489966783066436928e-01,1.239496818609480577e+00,-2.252488141458832693e+00
0.000000000000000000e+00,0.000000000000000000e+00,0.000000000000000000e+00,0.000000000000000000e+00,0.000000000000000000e+00,0.000000000000000000e+00,0.000000000000000000e+00,0.000000000000000000e+00,0.000000000000000000e+00,0.000000000000000000e+00,0.000000000000000000e+00,0.000000000000000000e+00,6.062434574587017844e-01,-2.332153452125547588e+00,-1.228518925997374556e+00,-9.651664578089533819e-01,1.242643099939890305e+00,-2.239858119092881683e+00
0.000000000000000000e+00,0.000000000000000000e+00,0.000000000000000000e+00,0.000000000000000000e+00,0.000000000000000000e+00,0.000000000000000000e+00,0.000000000000000000e+00,0.000000000000000000e+00,0.000000000000000000e+00,0.000000000000000000e+00,0.000000000000000000e+00,0.000000000000000000e+00,6.053591692113297063e-01,-2.333264953919333529e+00,-1.224004646526466455e+00,-9.813362373112619608e-01,1.245789381270299812e+00,-2.227228096726930673e+00
0.000000000000000000e+00,0.000000000000000000e+00,0.000000000000000000e+00,0.000000000000000000e+00,0.000000000000000000e+00,0.000000000000000000e+00,0.000000000000000000e+00,0.000000000000000000e+00,0.000000000000000000e+00,0.000000000000000000e+00,0.000000000000000000e+00,0.000000000000000000e+00,6.044748809639576281e-01,-2.334376455713119469e+00,-1.219490367055558577e+00,-9.975060168135714278e-01,1.248935662600709762e+00,-2.214598074360979663e+00
0.000000000000000000e+00,0.000000000000000000e+00,0.000000000000000000e+00,0.000000000000000000e+00,0.000000000000000000e+00,0.000000000000000000e+00,0.000000000000000000e+00,0.000000000000000000e+00,0.000000000000000000e+00,0.000000000000000000e+00,0.000000000000000000e+00,0.000000000000000000e+00,6.035905927165854390e-01,-2.335487957506905410e+00,-1.214976087584650255e+00,-1.013675796315880229e+00,1.252081943931119712e+00,-2.201968051995028652e+00
0.000000000000000000e+00,0.000000000000000000e+00,0.000000000000000000e+00,0.000000000000000000e+00,0.000000000000000000e+00,0.000000000000000000e+00,0.000000000000000000e+00,0.000000000000000000e+00,0.000000000000000000e+00,0.000000000000000000e+00,0.000000000000000000e+00,0.000000000000000000e+00,6.027063044692135829e-01,-2.336599459300691350e+00,-1.210461808113741711e+00,-1.029845575818189918e+00,1.255228225261529662e+00,-2.189338029629077198e+00
0.000000000000000000e+00,0.000000000000000000e+00,0.000000000000000000e+00,0.000000000000000000e+00,0.000000000000000000e+00,0.000000000000000000e+00,0.000000000000000000e+00,0.000000000000000000e+00,0.000000000000000000e+00,0.000000000000000000e+00,0.000000000000000000e+00,0.000000000000000000e+00,6.001601798448104041e-01,-2.335635814445690350e+00,-1.205589053566366919e+00,-1.037556473050926575e+00,1.256607418863782133e+00,-2.178350255564979854e+00
0.000000000000000000e+00,0.000000000000000000e+00,0.000000000000000000e+00,0.000000000000000000e+00,0.000000000000000000e+00,0.000000000000000000e+00,0.000000000000000000e+00,0.000000000000000000e+00,0.000000000000000000e+00,0.000000000000000000e+00,0.000000000000000000e+00,0.000000000000000000e+00,5.974103504726506753e-01,-2.334414895443284621e+00,-1.200678251466138491e+00,-1.044192296899354666e+00,1.257765261009124114e+00,-2.167585311688710714e+00
0.000000000000000000e+00,0.000000000000000000e+00,0.000000000000000000e+00,0.000000000000000000e+00,0.000000000000000000e+00,0.000000000000000000e+00,0.000000000000000000e+00,0.000000000000000000e+00,0.000000000000000000e+00,0.000000000000000000e+00,0.000000000000000000e+00,0.000000000000000000e+00,5.947918567884393770e-01,-2.333293560060733185e+00,-1.195926394387465619e+00,-1.050650051281536212e+00,1.258957594066184571e+00,-2.157167649550352451e+00
0.000000000000000000e+00,0.000000000000000000e+00,0.000000000000000000e+00,0.000000000000000000e+00,0.000000000000000000e+00,0.000000000000000000e+00,0.000000000000000000e+00,0.000000000000000000e+00,0.000000000000000000e+00,0.000000000000000000e+00,0.000000000000000000e+00,0.000000000000000000e+00,5.921733631042276347e-01,-2.332172224678179973e+00,-1.191174537308792303e+00,-1.057107805663718647e+00,1.260149927123244584e+00,-2.146749987411993299e+00
0.000000000000000000e+00,0.000000000000000000e+00,0.000000000000000000e+00,0.000000000000000000e+00,0.000000000000000000e+00,0.000000000000000000e+00,0.000000000000000000e+00,0.000000000000000000e+00,0.000000000000000000e+00,0.000000000000000000e+00,0.000000000000000000e+00,0.000000000000000000e+00,5.895548694200160034e-01,-2.331050889295627648e+00,-1.186422680230118543e+00,-1.063565560045900638e+00,1.261342260180305042e+00,-2.136332325273635036e+00
0.000000000000000000e+00,0.000000000000000000e+00,0.000000000000000000e+00,0.000000000000000000e+00,0.000000000000000000e+00,0.000000000000000000e+00,0.000000000000000000e+00,0.000000000000000000e+00,0.000000000000000000e+00,0.000000000000000000e+00,0.000000000000000000e+00,0.000000000000000000e+00,5.869363757358041500e-01,-2.329929553913075324e+00,-1.181670823151445004e+00,-1.070023314428082628e+00,1.262534593237365499e+00,-2.125914663135275440e+00
0.000000000000000000e+00,0.000000000000000000e+00,0.000000000000000000e+00,0.000000000000000000e+00,0.000000000000000000e+00,0.000000000000000000e+00,0.000000000000000000e+00,0.000000000000000000e+00,0.000000000000000000e+00,0.000000000000000000e+00,0.000000000000000000e+00,0.000000000000000000e+00,5.840405509667181416e-01,-2.329128763346957065e+00,-1.176674059088862689e+00,-1.077338878827653446e+00,1.264229663532622450e+00,-2.116718472165973530e+00
